( pcb2gcode 1.1.4 )

G94     ( Inches per minute feed rate. )
G20     ( Units == INCHES.             )
G90     ( Absolute coordinates.        )
S10000  ( RPM spindle speed.           )
M3      ( Spindle on clockwise.        )

G64 P0.00500 ( set maximum deviation from commanded toolpath )

G04 P0 ( dwell for no time -- G64 should not smooth over this point )
G00 Z0.19685 ( retract )

G00 X4.65700 Y0.55000 ( rapid move to begin. )
G01 Z-0.01969 F1.96850 ( plunge. )
G04 P0 ( dwell for no time -- G64 should not smooth over this point )
X4.65700 Y0.55000
X4.65600 Y0.55000
X4.65600 Y0.54900
X4.65500 Y0.54900
X4.65500 Y0.54800
X4.65400 Y0.54800
X4.65400 Y0.54700
X4.65300 Y0.54700
X4.65300 Y0.54600
X4.65200 Y0.54600
X4.65200 Y0.54500
X4.65100 Y0.54500
X4.65100 Y0.54400
X4.65000 Y0.54400
X4.65000 Y0.54300
X4.64900 Y0.54300
X4.64900 Y0.54200
X4.64800 Y0.54200
X4.64800 Y0.54000
X4.64700 Y0.54000
X4.64700 Y0.53800
X4.64600 Y0.53800
X4.64600 Y0.53700
X4.64500 Y0.53700
X4.64500 Y0.53500
X4.64400 Y0.53500
X4.64400 Y0.53300
X4.64300 Y0.53300
X4.64300 Y0.53000
X4.64200 Y0.53000
X4.64200 Y0.52700
X4.64100 Y0.52700
X4.64100 Y0.52400
X4.64000 Y0.52400
X4.64000 Y0.51600
X4.63900 Y0.51600
X4.63900 Y0.48500
X4.64000 Y0.48500
X4.64000 Y0.47700
X4.64100 Y0.47700
X4.64100 Y0.47400
X4.64200 Y0.47400
X4.64200 Y0.47100
X4.64300 Y0.47100
X4.64300 Y0.46800
X4.64400 Y0.46800
X4.64400 Y0.46600
X4.64500 Y0.46600
X4.64500 Y0.46400
X4.64600 Y0.46400
X4.64600 Y0.46300
X4.64700 Y0.46300
X4.64700 Y0.46100
X4.64800 Y0.46100
X4.64800 Y0.45900
X4.64900 Y0.45900
X4.64900 Y0.45800
X4.65000 Y0.45800
X4.65000 Y0.45700
X4.65100 Y0.45700
X4.65100 Y0.45600
X4.65200 Y0.45600
X4.65200 Y0.45500
X4.65300 Y0.45500
X4.65300 Y0.45400
X4.65400 Y0.45400
X4.65400 Y0.45300
X4.65500 Y0.45300
X4.65500 Y0.45200
X4.65600 Y0.45200
X4.65600 Y0.45100
X4.65700 Y0.45100
X4.65700 Y0.45000
X4.65900 Y0.45000
X4.65900 Y0.44900
X4.66000 Y0.44900
X4.66000 Y0.44800
X4.66200 Y0.44800
X4.66200 Y0.44700
X4.66300 Y0.44700
X4.66300 Y0.44600
X4.66600 Y0.44600
X4.66600 Y0.44500
X4.66800 Y0.44500
X4.66800 Y0.44400
X4.67000 Y0.44400
X4.67000 Y0.44300
X4.67300 Y0.44300
X4.67300 Y0.44200
X4.67700 Y0.44200
X4.67700 Y0.44100
X4.68300 Y0.44100
X4.68300 Y0.44000
X4.71600 Y0.44000
X4.71600 Y0.44100
X4.72200 Y0.44100
X4.72200 Y0.44200
X4.72600 Y0.44200
X4.72600 Y0.44300
X4.72900 Y0.44300
X4.72900 Y0.44400
X4.73100 Y0.44400
X4.73100 Y0.44500
X4.73400 Y0.44500
X4.73400 Y0.44600
X4.73600 Y0.44600
X4.73600 Y0.44700
X4.73700 Y0.44700
X4.73700 Y0.44800
X4.73900 Y0.44800
X4.73900 Y0.44900
X4.74000 Y0.44900
X4.74000 Y0.45000
X4.74200 Y0.45000
X4.74200 Y0.45100
X4.74300 Y0.45100
X4.74300 Y0.45200
X4.74400 Y0.45200
X4.74400 Y0.45300
X4.74500 Y0.45300
X4.74500 Y0.45400
X4.74600 Y0.45400
X4.74600 Y0.45500
X4.74700 Y0.45500
X4.74700 Y0.45600
X4.74800 Y0.45600
X4.74800 Y0.45700
X4.74900 Y0.45700
X4.74900 Y0.45800
X4.75000 Y0.45800
X4.75000 Y0.45900
X4.75100 Y0.45900
X4.75100 Y0.46100
X4.75200 Y0.46100
X4.75200 Y0.46300
X4.75300 Y0.46300
X4.75300 Y0.46400
X4.75400 Y0.46400
X4.75400 Y0.46600
X4.75500 Y0.46600
X4.75500 Y0.46800
X4.75600 Y0.46800
X4.75600 Y0.47100
X4.75700 Y0.47100
X4.75700 Y0.47400
X4.75800 Y0.47400
X4.75800 Y0.47700
X4.75900 Y0.47700
X4.75900 Y0.48500
X4.76000 Y0.48500
X4.76000 Y0.51600
X4.75900 Y0.51600
X4.75900 Y0.52400
X4.75800 Y0.52400
X4.75800 Y0.52700
X4.75700 Y0.52700
X4.75700 Y0.53000
X4.75600 Y0.53000
X4.75600 Y0.53300
X4.75500 Y0.53300
X4.75500 Y0.53500
X4.75400 Y0.53500
X4.75400 Y0.53700
X4.75300 Y0.53700
X4.75300 Y0.53800
X4.75200 Y0.53800
X4.75200 Y0.54000
X4.75100 Y0.54000
X4.75100 Y0.54200
X4.75000 Y0.54200
X4.75000 Y0.54300
X4.74900 Y0.54300
X4.74900 Y0.54400
X4.74800 Y0.54400
X4.74800 Y0.54500
X4.74700 Y0.54500
X4.74700 Y0.54600
X4.74600 Y0.54600
X4.74600 Y0.54700
X4.74500 Y0.54700
X4.74500 Y0.54800
X4.74400 Y0.54800
X4.74400 Y0.54900
X4.74300 Y0.54900
X4.74300 Y0.55000
X4.74200 Y0.55000
X4.74200 Y0.55100
X4.74000 Y0.55100
X4.74000 Y0.55200
X4.73900 Y0.55200
X4.73900 Y0.55300
X4.73700 Y0.55300
X4.73700 Y0.55400
X4.73600 Y0.55400
X4.73600 Y0.55500
X4.73400 Y0.55500
X4.73400 Y0.55600
X4.73100 Y0.55600
X4.73100 Y0.55700
X4.72900 Y0.55700
X4.72900 Y0.55800
X4.72600 Y0.55800
X4.72600 Y0.55900
X4.72200 Y0.55900
X4.72200 Y0.56000
X4.71600 Y0.56000
X4.71600 Y0.56100
X4.68300 Y0.56100
X4.68300 Y0.56000
X4.67700 Y0.56000
X4.67700 Y0.55900
X4.67300 Y0.55900
X4.67300 Y0.55800
X4.67000 Y0.55800
X4.67000 Y0.55700
X4.66800 Y0.55700
X4.66800 Y0.55600
X4.66500 Y0.55600
X4.66500 Y0.55500
X4.66300 Y0.55500
X4.66300 Y0.55400
X4.66200 Y0.55400
X4.66200 Y0.55300
X4.66000 Y0.55300
X4.66000 Y0.55200
X4.65900 Y0.55200
X4.65900 Y0.55100
X4.65700 Y0.55100
X4.65700 Y0.55000
G04 P0 ( dwell for no time -- G64 should not smooth over this point )
G00 Z0.19685 ( retract )

G00 X0.25700 Y0.55000 ( rapid move to begin. )
G01 Z-0.01969 F1.96850 ( plunge. )
G04 P0 ( dwell for no time -- G64 should not smooth over this point )
X0.25700 Y0.55000
X0.25600 Y0.55000
X0.25600 Y0.54900
X0.25500 Y0.54900
X0.25500 Y0.54800
X0.25400 Y0.54800
X0.25400 Y0.54700
X0.25300 Y0.54700
X0.25300 Y0.54600
X0.25200 Y0.54600
X0.25200 Y0.54500
X0.25100 Y0.54500
X0.25100 Y0.54400
X0.25000 Y0.54400
X0.25000 Y0.54300
X0.24900 Y0.54300
X0.24900 Y0.54200
X0.24800 Y0.54200
X0.24800 Y0.54000
X0.24700 Y0.54000
X0.24700 Y0.53800
X0.24600 Y0.53800
X0.24600 Y0.53700
X0.24500 Y0.53700
X0.24500 Y0.53500
X0.24400 Y0.53500
X0.24400 Y0.53300
X0.24300 Y0.53300
X0.24300 Y0.53000
X0.24200 Y0.53000
X0.24200 Y0.52700
X0.24100 Y0.52700
X0.24100 Y0.52400
X0.24000 Y0.52400
X0.24000 Y0.51600
X0.23900 Y0.51600
X0.23900 Y0.48500
X0.24000 Y0.48500
X0.24000 Y0.47700
X0.24100 Y0.47700
X0.24100 Y0.47400
X0.24200 Y0.47400
X0.24200 Y0.47100
X0.24300 Y0.47100
X0.24300 Y0.46800
X0.24400 Y0.46800
X0.24400 Y0.46600
X0.24500 Y0.46600
X0.24500 Y0.46400
X0.24600 Y0.46400
X0.24600 Y0.46300
X0.24700 Y0.46300
X0.24700 Y0.46100
X0.24800 Y0.46100
X0.24800 Y0.45900
X0.24900 Y0.45900
X0.24900 Y0.45800
X0.25000 Y0.45800
X0.25000 Y0.45700
X0.25100 Y0.45700
X0.25100 Y0.45600
X0.25200 Y0.45600
X0.25200 Y0.45500
X0.25300 Y0.45500
X0.25300 Y0.45400
X0.25400 Y0.45400
X0.25400 Y0.45300
X0.25500 Y0.45300
X0.25500 Y0.45200
X0.25600 Y0.45200
X0.25600 Y0.45100
X0.25700 Y0.45100
X0.25700 Y0.45000
X0.25900 Y0.45000
X0.25900 Y0.44900
X0.26000 Y0.44900
X0.26000 Y0.44800
X0.26200 Y0.44800
X0.26200 Y0.44700
X0.26300 Y0.44700
X0.26300 Y0.44600
X0.26600 Y0.44600
X0.26600 Y0.44500
X0.26800 Y0.44500
X0.26800 Y0.44400
X0.27000 Y0.44400
X0.27000 Y0.44300
X0.27300 Y0.44300
X0.27300 Y0.44200
X0.27700 Y0.44200
X0.27700 Y0.44100
X0.28300 Y0.44100
X0.28300 Y0.44000
X0.31600 Y0.44000
X0.31600 Y0.44100
X0.32200 Y0.44100
X0.32200 Y0.44200
X0.32600 Y0.44200
X0.32600 Y0.44300
X0.32900 Y0.44300
X0.32900 Y0.44400
X0.33100 Y0.44400
X0.33100 Y0.44500
X0.33400 Y0.44500
X0.33400 Y0.44600
X0.33600 Y0.44600
X0.33600 Y0.44700
X0.33700 Y0.44700
X0.33700 Y0.44800
X0.33900 Y0.44800
X0.33900 Y0.44900
X0.34000 Y0.44900
X0.34000 Y0.45000
X0.34200 Y0.45000
X0.34200 Y0.45100
X0.34300 Y0.45100
X0.34300 Y0.45200
X0.34400 Y0.45200
X0.34400 Y0.45300
X0.34500 Y0.45300
X0.34500 Y0.45400
X0.34600 Y0.45400
X0.34600 Y0.45500
X0.34700 Y0.45500
X0.34700 Y0.45600
X0.34800 Y0.45600
X0.34800 Y0.45700
X0.34900 Y0.45700
X0.34900 Y0.45800
X0.35000 Y0.45800
X0.35000 Y0.45900
X0.35100 Y0.45900
X0.35100 Y0.46100
X0.35200 Y0.46100
X0.35200 Y0.46300
X0.35300 Y0.46300
X0.35300 Y0.46400
X0.35400 Y0.46400
X0.35400 Y0.46600
X0.35500 Y0.46600
X0.35500 Y0.46800
X0.35600 Y0.46800
X0.35600 Y0.47100
X0.35700 Y0.47100
X0.35700 Y0.47400
X0.35800 Y0.47400
X0.35800 Y0.47700
X0.35900 Y0.47700
X0.35900 Y0.48500
X0.36000 Y0.48500
X0.36000 Y0.51600
X0.35900 Y0.51600
X0.35900 Y0.52400
X0.35800 Y0.52400
X0.35800 Y0.52700
X0.35700 Y0.52700
X0.35700 Y0.53000
X0.35600 Y0.53000
X0.35600 Y0.53300
X0.35500 Y0.53300
X0.35500 Y0.53500
X0.35400 Y0.53500
X0.35400 Y0.53700
X0.35300 Y0.53700
X0.35300 Y0.53800
X0.35200 Y0.53800
X0.35200 Y0.54000
X0.35100 Y0.54000
X0.35100 Y0.54200
X0.35000 Y0.54200
X0.35000 Y0.54300
X0.34900 Y0.54300
X0.34900 Y0.54400
X0.34800 Y0.54400
X0.34800 Y0.54500
X0.34700 Y0.54500
X0.34700 Y0.54600
X0.34600 Y0.54600
X0.34600 Y0.54700
X0.34500 Y0.54700
X0.34500 Y0.54800
X0.34400 Y0.54800
X0.34400 Y0.54900
X0.34300 Y0.54900
X0.34300 Y0.55000
X0.34200 Y0.55000
X0.34200 Y0.55100
X0.34000 Y0.55100
X0.34000 Y0.55200
X0.33900 Y0.55200
X0.33900 Y0.55300
X0.33700 Y0.55300
X0.33700 Y0.55400
X0.33600 Y0.55400
X0.33600 Y0.55500
X0.33400 Y0.55500
X0.33400 Y0.55600
X0.33100 Y0.55600
X0.33100 Y0.55700
X0.32900 Y0.55700
X0.32900 Y0.55800
X0.32600 Y0.55800
X0.32600 Y0.55900
X0.32200 Y0.55900
X0.32200 Y0.56000
X0.31600 Y0.56000
X0.31600 Y0.56100
X0.28300 Y0.56100
X0.28300 Y0.56000
X0.27700 Y0.56000
X0.27700 Y0.55900
X0.27300 Y0.55900
X0.27300 Y0.55800
X0.27000 Y0.55800
X0.27000 Y0.55700
X0.26800 Y0.55700
X0.26800 Y0.55600
X0.26500 Y0.55600
X0.26500 Y0.55500
X0.26300 Y0.55500
X0.26300 Y0.55400
X0.26200 Y0.55400
X0.26200 Y0.55300
X0.26000 Y0.55300
X0.26000 Y0.55200
X0.25900 Y0.55200
X0.25900 Y0.55100
X0.25700 Y0.55100
X0.25700 Y0.55000
G04 P0 ( dwell for no time -- G64 should not smooth over this point )
G00 Z0.19685 ( retract )

G00 X4.14900 Y0.54000 ( rapid move to begin. )
G01 Z-0.01969 F1.96850 ( plunge. )
G04 P0 ( dwell for no time -- G64 should not smooth over this point )
X4.14900 Y0.54000
X4.14900 Y0.45000
X4.25000 Y0.45000
X4.25000 Y0.55100
X4.14900 Y0.55100
X4.14900 Y0.54000
G04 P0 ( dwell for no time -- G64 should not smooth over this point )
G00 Z0.19685 ( retract )

G00 X3.36100 Y0.54000 ( rapid move to begin. )
G01 Z-0.01969 F1.96850 ( plunge. )
G04 P0 ( dwell for no time -- G64 should not smooth over this point )
X3.36100 Y0.54000
X3.36000 Y0.54000
X3.36000 Y0.53900
X3.35900 Y0.53900
X3.35900 Y0.53800
X3.35800 Y0.53800
X3.35800 Y0.53700
X3.35700 Y0.53700
X3.35700 Y0.53600
X3.35600 Y0.53600
X3.35600 Y0.53400
X3.35500 Y0.53400
X3.35500 Y0.53200
X3.35400 Y0.53200
X3.35400 Y0.53000
X3.35300 Y0.53000
X3.35300 Y0.52900
X3.35200 Y0.52900
X3.35200 Y0.52500
X3.35100 Y0.52500
X3.35100 Y0.52200
X3.35000 Y0.52200
X3.35000 Y0.51600
X3.34900 Y0.51600
X3.34900 Y0.48500
X3.35000 Y0.48500
X3.35000 Y0.47900
X3.35100 Y0.47900
X3.35100 Y0.47600
X3.35200 Y0.47600
X3.35200 Y0.47200
X3.35300 Y0.47200
X3.35300 Y0.47100
X3.35400 Y0.47100
X3.35400 Y0.46900
X3.35500 Y0.46900
X3.35500 Y0.46700
X3.35600 Y0.46700
X3.35600 Y0.46600
X3.35700 Y0.46600
X3.35700 Y0.46400
X3.35800 Y0.46400
X3.35800 Y0.46300
X3.35900 Y0.46300
X3.35900 Y0.46200
X3.36000 Y0.46200
X3.36000 Y0.46100
X3.36100 Y0.46100
X3.36100 Y0.46000
X3.36200 Y0.46000
X3.36200 Y0.45900
X3.36400 Y0.45900
X3.36400 Y0.45800
X3.36600 Y0.45800
X3.36600 Y0.45700
X3.36700 Y0.45700
X3.36700 Y0.45600
X3.36900 Y0.45600
X3.36900 Y0.45500
X3.37100 Y0.45500
X3.37100 Y0.45400
X3.37300 Y0.45400
X3.37300 Y0.45300
X3.37400 Y0.45300
X3.37400 Y0.45200
X3.38000 Y0.45200
X3.38000 Y0.45100
X3.38600 Y0.45100
X3.38600 Y0.45000
X3.41300 Y0.45000
X3.41300 Y0.45100
X3.41900 Y0.45100
X3.41900 Y0.45200
X3.42500 Y0.45200
X3.42500 Y0.45300
X3.42600 Y0.45300
X3.42600 Y0.45400
X3.42800 Y0.45400
X3.42800 Y0.45500
X3.43000 Y0.45500
X3.43000 Y0.45600
X3.43200 Y0.45600
X3.43200 Y0.45700
X3.43300 Y0.45700
X3.43300 Y0.45800
X3.43500 Y0.45800
X3.43500 Y0.45900
X3.43700 Y0.45900
X3.43700 Y0.46000
X3.43800 Y0.46000
X3.43800 Y0.46100
X3.43900 Y0.46100
X3.43900 Y0.46200
X3.44000 Y0.46200
X3.44000 Y0.46300
X3.44100 Y0.46300
X3.44100 Y0.46400
X3.44200 Y0.46400
X3.44200 Y0.46500
X3.44300 Y0.46500
X3.44300 Y0.46700
X3.44400 Y0.46700
X3.44400 Y0.46900
X3.44500 Y0.46900
X3.44500 Y0.47100
X3.44600 Y0.47100
X3.44600 Y0.47200
X3.44700 Y0.47200
X3.44700 Y0.47500
X3.44800 Y0.47500
X3.44800 Y0.47900
X3.44900 Y0.47900
X3.44900 Y0.48500
X3.45000 Y0.48500
X3.45000 Y0.51600
X3.44900 Y0.51600
X3.44900 Y0.52200
X3.44800 Y0.52200
X3.44800 Y0.52600
X3.44700 Y0.52600
X3.44700 Y0.52900
X3.44600 Y0.52900
X3.44600 Y0.53000
X3.44500 Y0.53000
X3.44500 Y0.53200
X3.44400 Y0.53200
X3.44400 Y0.53400
X3.44300 Y0.53400
X3.44300 Y0.53600
X3.44200 Y0.53600
X3.44200 Y0.53700
X3.44100 Y0.53700
X3.44100 Y0.53800
X3.44000 Y0.53800
X3.44000 Y0.53900
X3.43900 Y0.53900
X3.43900 Y0.54000
X3.43800 Y0.54000
X3.43800 Y0.54100
X3.43700 Y0.54100
X3.43700 Y0.54200
X3.43500 Y0.54200
X3.43500 Y0.54300
X3.43300 Y0.54300
X3.43300 Y0.54400
X3.43200 Y0.54400
X3.43200 Y0.54500
X3.43000 Y0.54500
X3.43000 Y0.54600
X3.42800 Y0.54600
X3.42800 Y0.54700
X3.42600 Y0.54700
X3.42600 Y0.54800
X3.42500 Y0.54800
X3.42500 Y0.54900
X3.41900 Y0.54900
X3.41900 Y0.55000
X3.41300 Y0.55000
X3.41300 Y0.55100
X3.38600 Y0.55100
X3.38600 Y0.55000
X3.38000 Y0.55000
X3.38000 Y0.54900
X3.37400 Y0.54900
X3.37400 Y0.54800
X3.37300 Y0.54800
X3.37300 Y0.54700
X3.37100 Y0.54700
X3.37100 Y0.54600
X3.36900 Y0.54600
X3.36900 Y0.54500
X3.36700 Y0.54500
X3.36700 Y0.54400
X3.36600 Y0.54400
X3.36600 Y0.54300
X3.36400 Y0.54300
X3.36400 Y0.54200
X3.36200 Y0.54200
X3.36200 Y0.54100
X3.36100 Y0.54100
X3.36100 Y0.54000
G04 P0 ( dwell for no time -- G64 should not smooth over this point )
G00 Z0.19685 ( retract )

G00 X3.24900 Y0.54000 ( rapid move to begin. )
G01 Z-0.01969 F1.96850 ( plunge. )
G04 P0 ( dwell for no time -- G64 should not smooth over this point )
X3.24900 Y0.54000
X3.24900 Y0.45000
X3.35000 Y0.45000
X3.35000 Y0.48500
X3.34900 Y0.48500
X3.34900 Y0.51600
X3.35000 Y0.51600
X3.35000 Y0.55100
X3.24900 Y0.55100
X3.24900 Y0.54000
G04 P0 ( dwell for no time -- G64 should not smooth over this point )
G00 Z0.19685 ( retract )

G00 X2.46100 Y0.54000 ( rapid move to begin. )
G01 Z-0.01969 F1.96850 ( plunge. )
G04 P0 ( dwell for no time -- G64 should not smooth over this point )
X2.46100 Y0.54000
X2.46000 Y0.54000
X2.46000 Y0.53900
X2.45900 Y0.53900
X2.45900 Y0.53800
X2.45800 Y0.53800
X2.45800 Y0.53700
X2.45700 Y0.53700
X2.45700 Y0.53600
X2.45600 Y0.53600
X2.45600 Y0.53400
X2.45500 Y0.53400
X2.45500 Y0.53200
X2.45400 Y0.53200
X2.45400 Y0.53000
X2.45300 Y0.53000
X2.45300 Y0.52900
X2.45200 Y0.52900
X2.45200 Y0.52500
X2.45100 Y0.52500
X2.45100 Y0.52200
X2.45000 Y0.52200
X2.45000 Y0.51600
X2.44900 Y0.51600
X2.44900 Y0.48500
X2.45000 Y0.48500
X2.45000 Y0.47900
X2.45100 Y0.47900
X2.45100 Y0.47600
X2.45200 Y0.47600
X2.45200 Y0.47200
X2.45300 Y0.47200
X2.45300 Y0.47100
X2.45400 Y0.47100
X2.45400 Y0.46900
X2.45500 Y0.46900
X2.45500 Y0.46700
X2.45600 Y0.46700
X2.45600 Y0.46600
X2.45700 Y0.46600
X2.45700 Y0.46400
X2.45800 Y0.46400
X2.45800 Y0.46300
X2.45900 Y0.46300
X2.45900 Y0.46200
X2.46000 Y0.46200
X2.46000 Y0.46100
X2.46100 Y0.46100
X2.46100 Y0.46000
X2.46200 Y0.46000
X2.46200 Y0.45900
X2.46400 Y0.45900
X2.46400 Y0.45800
X2.46600 Y0.45800
X2.46600 Y0.45700
X2.46700 Y0.45700
X2.46700 Y0.45600
X2.46900 Y0.45600
X2.46900 Y0.45500
X2.47100 Y0.45500
X2.47100 Y0.45400
X2.47300 Y0.45400
X2.47300 Y0.45300
X2.47400 Y0.45300
X2.47400 Y0.45200
X2.48000 Y0.45200
X2.48000 Y0.45100
X2.48600 Y0.45100
X2.48600 Y0.45000
X2.51300 Y0.45000
X2.51300 Y0.45100
X2.51900 Y0.45100
X2.51900 Y0.45200
X2.52500 Y0.45200
X2.52500 Y0.45300
X2.52600 Y0.45300
X2.52600 Y0.45400
X2.52800 Y0.45400
X2.52800 Y0.45500
X2.53000 Y0.45500
X2.53000 Y0.45600
X2.53200 Y0.45600
X2.53200 Y0.45700
X2.53300 Y0.45700
X2.53300 Y0.45800
X2.53500 Y0.45800
X2.53500 Y0.45900
X2.53700 Y0.45900
X2.53700 Y0.46000
X2.53800 Y0.46000
X2.53800 Y0.46100
X2.53900 Y0.46100
X2.53900 Y0.46200
X2.54000 Y0.46200
X2.54000 Y0.46300
X2.54100 Y0.46300
X2.54100 Y0.46400
X2.54200 Y0.46400
X2.54200 Y0.46500
X2.54300 Y0.46500
X2.54300 Y0.46700
X2.54400 Y0.46700
X2.54400 Y0.46900
X2.54500 Y0.46900
X2.54500 Y0.47100
X2.54600 Y0.47100
X2.54600 Y0.47200
X2.54700 Y0.47200
X2.54700 Y0.47500
X2.54800 Y0.47500
X2.54800 Y0.47900
X2.54900 Y0.47900
X2.54900 Y0.48500
X2.55000 Y0.48500
X2.55000 Y0.51600
X2.54900 Y0.51600
X2.54900 Y0.52200
X2.54800 Y0.52200
X2.54800 Y0.52600
X2.54700 Y0.52600
X2.54700 Y0.52900
X2.54600 Y0.52900
X2.54600 Y0.53000
X2.54500 Y0.53000
X2.54500 Y0.53200
X2.54400 Y0.53200
X2.54400 Y0.53400
X2.54300 Y0.53400
X2.54300 Y0.53600
X2.54200 Y0.53600
X2.54200 Y0.53700
X2.54100 Y0.53700
X2.54100 Y0.53800
X2.54000 Y0.53800
X2.54000 Y0.53900
X2.53900 Y0.53900
X2.53900 Y0.54000
X2.53800 Y0.54000
X2.53800 Y0.54100
X2.53700 Y0.54100
X2.53700 Y0.54200
X2.53500 Y0.54200
X2.53500 Y0.54300
X2.53300 Y0.54300
X2.53300 Y0.54400
X2.53200 Y0.54400
X2.53200 Y0.54500
X2.53000 Y0.54500
X2.53000 Y0.54600
X2.52800 Y0.54600
X2.52800 Y0.54700
X2.52600 Y0.54700
X2.52600 Y0.54800
X2.52500 Y0.54800
X2.52500 Y0.54900
X2.51900 Y0.54900
X2.51900 Y0.55000
X2.51300 Y0.55000
X2.51300 Y0.55100
X2.48600 Y0.55100
X2.48600 Y0.55000
X2.48000 Y0.55000
X2.48000 Y0.54900
X2.47400 Y0.54900
X2.47400 Y0.54800
X2.47300 Y0.54800
X2.47300 Y0.54700
X2.47100 Y0.54700
X2.47100 Y0.54600
X2.46900 Y0.54600
X2.46900 Y0.54500
X2.46700 Y0.54500
X2.46700 Y0.54400
X2.46600 Y0.54400
X2.46600 Y0.54300
X2.46400 Y0.54300
X2.46400 Y0.54200
X2.46200 Y0.54200
X2.46200 Y0.54100
X2.46100 Y0.54100
X2.46100 Y0.54000
G04 P0 ( dwell for no time -- G64 should not smooth over this point )
G00 Z0.19685 ( retract )

G00 X2.34900 Y0.54000 ( rapid move to begin. )
G01 Z-0.01969 F1.96850 ( plunge. )
G04 P0 ( dwell for no time -- G64 should not smooth over this point )
X2.34900 Y0.54000
X2.34900 Y0.45000
X2.45000 Y0.45000
X2.45000 Y0.48500
X2.44900 Y0.48500
X2.44900 Y0.51600
X2.45000 Y0.51600
X2.45000 Y0.55100
X2.34900 Y0.55100
X2.34900 Y0.54000
G04 P0 ( dwell for no time -- G64 should not smooth over this point )
G00 Z0.19685 ( retract )

G00 X1.56100 Y0.54000 ( rapid move to begin. )
G01 Z-0.01969 F1.96850 ( plunge. )
G04 P0 ( dwell for no time -- G64 should not smooth over this point )
X1.56100 Y0.54000
X1.56000 Y0.54000
X1.56000 Y0.53900
X1.55900 Y0.53900
X1.55900 Y0.53800
X1.55800 Y0.53800
X1.55800 Y0.53700
X1.55700 Y0.53700
X1.55700 Y0.53600
X1.55600 Y0.53600
X1.55600 Y0.53400
X1.55500 Y0.53400
X1.55500 Y0.53200
X1.55400 Y0.53200
X1.55400 Y0.53000
X1.55300 Y0.53000
X1.55300 Y0.52900
X1.55200 Y0.52900
X1.55200 Y0.52500
X1.55100 Y0.52500
X1.55100 Y0.52200
X1.55000 Y0.52200
X1.55000 Y0.51600
X1.54900 Y0.51600
X1.54900 Y0.48500
X1.55000 Y0.48500
X1.55000 Y0.47900
X1.55100 Y0.47900
X1.55100 Y0.47600
X1.55200 Y0.47600
X1.55200 Y0.47200
X1.55300 Y0.47200
X1.55300 Y0.47100
X1.55400 Y0.47100
X1.55400 Y0.46900
X1.55500 Y0.46900
X1.55500 Y0.46700
X1.55600 Y0.46700
X1.55600 Y0.46600
X1.55700 Y0.46600
X1.55700 Y0.46400
X1.55800 Y0.46400
X1.55800 Y0.46300
X1.55900 Y0.46300
X1.55900 Y0.46200
X1.56000 Y0.46200
X1.56000 Y0.46100
X1.56100 Y0.46100
X1.56100 Y0.46000
X1.56200 Y0.46000
X1.56200 Y0.45900
X1.56400 Y0.45900
X1.56400 Y0.45800
X1.56600 Y0.45800
X1.56600 Y0.45700
X1.56700 Y0.45700
X1.56700 Y0.45600
X1.56900 Y0.45600
X1.56900 Y0.45500
X1.57100 Y0.45500
X1.57100 Y0.45400
X1.57300 Y0.45400
X1.57300 Y0.45300
X1.57400 Y0.45300
X1.57400 Y0.45200
X1.58000 Y0.45200
X1.58000 Y0.45100
X1.58600 Y0.45100
X1.58600 Y0.45000
X1.61300 Y0.45000
X1.61300 Y0.45100
X1.61900 Y0.45100
X1.61900 Y0.45200
X1.62500 Y0.45200
X1.62500 Y0.45300
X1.62600 Y0.45300
X1.62600 Y0.45400
X1.62800 Y0.45400
X1.62800 Y0.45500
X1.63000 Y0.45500
X1.63000 Y0.45600
X1.63200 Y0.45600
X1.63200 Y0.45700
X1.63300 Y0.45700
X1.63300 Y0.45800
X1.63500 Y0.45800
X1.63500 Y0.45900
X1.63700 Y0.45900
X1.63700 Y0.46000
X1.63800 Y0.46000
X1.63800 Y0.46100
X1.63900 Y0.46100
X1.63900 Y0.46200
X1.64000 Y0.46200
X1.64000 Y0.46300
X1.64100 Y0.46300
X1.64100 Y0.46400
X1.64200 Y0.46400
X1.64200 Y0.46500
X1.64300 Y0.46500
X1.64300 Y0.46700
X1.64400 Y0.46700
X1.64400 Y0.46900
X1.64500 Y0.46900
X1.64500 Y0.47100
X1.64600 Y0.47100
X1.64600 Y0.47200
X1.64700 Y0.47200
X1.64700 Y0.47500
X1.64800 Y0.47500
X1.64800 Y0.47900
X1.64900 Y0.47900
X1.64900 Y0.48500
X1.65000 Y0.48500
X1.65000 Y0.51600
X1.64900 Y0.51600
X1.64900 Y0.52200
X1.64800 Y0.52200
X1.64800 Y0.52600
X1.64700 Y0.52600
X1.64700 Y0.52900
X1.64600 Y0.52900
X1.64600 Y0.53000
X1.64500 Y0.53000
X1.64500 Y0.53200
X1.64400 Y0.53200
X1.64400 Y0.53400
X1.64300 Y0.53400
X1.64300 Y0.53600
X1.64200 Y0.53600
X1.64200 Y0.53700
X1.64100 Y0.53700
X1.64100 Y0.53800
X1.64000 Y0.53800
X1.64000 Y0.53900
X1.63900 Y0.53900
X1.63900 Y0.54000
X1.63800 Y0.54000
X1.63800 Y0.54100
X1.63700 Y0.54100
X1.63700 Y0.54200
X1.63500 Y0.54200
X1.63500 Y0.54300
X1.63300 Y0.54300
X1.63300 Y0.54400
X1.63200 Y0.54400
X1.63200 Y0.54500
X1.63000 Y0.54500
X1.63000 Y0.54600
X1.62800 Y0.54600
X1.62800 Y0.54700
X1.62600 Y0.54700
X1.62600 Y0.54800
X1.62500 Y0.54800
X1.62500 Y0.54900
X1.61900 Y0.54900
X1.61900 Y0.55000
X1.61300 Y0.55000
X1.61300 Y0.55100
X1.58600 Y0.55100
X1.58600 Y0.55000
X1.58000 Y0.55000
X1.58000 Y0.54900
X1.57400 Y0.54900
X1.57400 Y0.54800
X1.57300 Y0.54800
X1.57300 Y0.54700
X1.57100 Y0.54700
X1.57100 Y0.54600
X1.56900 Y0.54600
X1.56900 Y0.54500
X1.56700 Y0.54500
X1.56700 Y0.54400
X1.56600 Y0.54400
X1.56600 Y0.54300
X1.56400 Y0.54300
X1.56400 Y0.54200
X1.56200 Y0.54200
X1.56200 Y0.54100
X1.56100 Y0.54100
X1.56100 Y0.54000
G04 P0 ( dwell for no time -- G64 should not smooth over this point )
G00 Z0.19685 ( retract )

G00 X0.46600 Y0.43000 ( rapid move to begin. )
G01 Z-0.01969 F1.96850 ( plunge. )
G04 P0 ( dwell for no time -- G64 should not smooth over this point )
X0.46600 Y0.43000
X0.46500 Y0.43000
X0.46500 Y0.42800
X0.46400 Y0.42800
X0.46400 Y0.42700
X0.46300 Y0.42700
X0.46300 Y0.42500
X0.46200 Y0.42500
X0.46200 Y0.42400
X0.46100 Y0.42400
X0.46100 Y0.41900
X0.46000 Y0.41900
X0.46000 Y0.41400
X0.45900 Y0.41400
X0.45900 Y0.38700
X0.46000 Y0.38700
X0.46000 Y0.38200
X0.46100 Y0.38200
X0.46100 Y0.37700
X0.46200 Y0.37700
X0.46200 Y0.37600
X0.46300 Y0.37600
X0.46300 Y0.37400
X0.46400 Y0.37400
X0.46400 Y0.37300
X0.46500 Y0.37300
X0.46500 Y0.37100
X0.46600 Y0.37100
X0.46600 Y0.37000
X0.46700 Y0.37000
X0.46700 Y0.36900
X0.46800 Y0.36900
X0.46800 Y0.36700
X0.47000 Y0.36700
X0.47000 Y0.36600
X0.47200 Y0.36600
X0.47200 Y0.36500
X0.47300 Y0.36500
X0.47300 Y0.36400
X0.47500 Y0.36400
X0.47500 Y0.36300
X0.47700 Y0.36300
X0.47700 Y0.36200
X0.48000 Y0.36200
X0.48000 Y0.36100
X0.48600 Y0.36100
X0.48600 Y0.36000
X0.51300 Y0.36000
X0.51300 Y0.36100
X0.51900 Y0.36100
X0.51900 Y0.36200
X0.52200 Y0.36200
X0.52200 Y0.36300
X0.52400 Y0.36300
X0.52400 Y0.36400
X0.52600 Y0.36400
X0.52600 Y0.36500
X0.52700 Y0.36500
X0.52700 Y0.36600
X0.52900 Y0.36600
X0.52900 Y0.36700
X0.53100 Y0.36700
X0.53100 Y0.36900
X0.53200 Y0.36900
X0.53200 Y0.37000
X0.53300 Y0.37000
X0.53300 Y0.37100
X0.53400 Y0.37100
X0.53400 Y0.37300
X0.53500 Y0.37300
X0.53500 Y0.37400
X0.53600 Y0.37400
X0.53600 Y0.37600
X0.53700 Y0.37600
X0.53700 Y0.37700
X0.53800 Y0.37700
X0.53800 Y0.38200
X0.53900 Y0.38200
X0.53900 Y0.38700
X0.54000 Y0.38700
X0.54000 Y0.41400
X0.53900 Y0.41400
X0.53900 Y0.41900
X0.53800 Y0.41900
X0.53800 Y0.42400
X0.53700 Y0.42400
X0.53700 Y0.42500
X0.53600 Y0.42500
X0.53600 Y0.42700
X0.53500 Y0.42700
X0.53500 Y0.42800
X0.53400 Y0.42800
X0.53400 Y0.43000
X0.53300 Y0.43000
X0.53300 Y0.43100
X0.53200 Y0.43100
X0.53200 Y0.43200
X0.53100 Y0.43200
X0.53100 Y0.43400
X0.52900 Y0.43400
X0.52900 Y0.43500
X0.52700 Y0.43500
X0.52700 Y0.43600
X0.52500 Y0.43600
X0.52500 Y0.43700
X0.52400 Y0.43700
X0.52400 Y0.43800
X0.52200 Y0.43800
X0.52200 Y0.43900
X0.51900 Y0.43900
X0.51900 Y0.44000
X0.51300 Y0.44000
X0.51300 Y0.44100
X0.48600 Y0.44100
X0.48600 Y0.44000
X0.48000 Y0.44000
X0.48000 Y0.43900
X0.47700 Y0.43900
X0.47700 Y0.43800
X0.47500 Y0.43800
X0.47500 Y0.43700
X0.47400 Y0.43700
X0.47400 Y0.43600
X0.47200 Y0.43600
X0.47200 Y0.43500
X0.47000 Y0.43500
X0.47000 Y0.43400
X0.46800 Y0.43400
X0.46800 Y0.43200
X0.46700 Y0.43200
X0.46700 Y0.43100
X0.46600 Y0.43100
X0.46600 Y0.43000
G04 P0 ( dwell for no time -- G64 should not smooth over this point )
G00 Z0.19685 ( retract )

G00 X4.16700 Y0.42700 ( rapid move to begin. )
G01 Z-0.01969 F1.96850 ( plunge. )
G04 P0 ( dwell for no time -- G64 should not smooth over this point )
X4.16700 Y0.42700
X4.16600 Y0.42700
X4.16600 Y0.42500
X4.16500 Y0.42500
X4.16500 Y0.42400
X4.16400 Y0.42400
X4.16400 Y0.42100
X4.16300 Y0.42100
X4.16300 Y0.41600
X4.16200 Y0.41600
X4.16200 Y0.38500
X4.16300 Y0.38500
X4.16300 Y0.38000
X4.16400 Y0.38000
X4.16400 Y0.37700
X4.16500 Y0.37700
X4.16500 Y0.37600
X4.16600 Y0.37600
X4.16600 Y0.37400
X4.16700 Y0.37400
X4.16700 Y0.37300
X4.16800 Y0.37300
X4.16800 Y0.37200
X4.16900 Y0.37200
X4.16900 Y0.37000
X4.17000 Y0.37000
X4.17000 Y0.36900
X4.17200 Y0.36900
X4.17200 Y0.36800
X4.17300 Y0.36800
X4.17300 Y0.36700
X4.17500 Y0.36700
X4.17500 Y0.36600
X4.17700 Y0.36600
X4.17700 Y0.36500
X4.17800 Y0.36500
X4.17800 Y0.36400
X4.18300 Y0.36400
X4.18300 Y0.36300
X4.21600 Y0.36300
X4.21600 Y0.36400
X4.22100 Y0.36400
X4.22100 Y0.36500
X4.22200 Y0.36500
X4.22200 Y0.36600
X4.22400 Y0.36600
X4.22400 Y0.36700
X4.22600 Y0.36700
X4.22600 Y0.36800
X4.22700 Y0.36800
X4.22700 Y0.36900
X4.22900 Y0.36900
X4.22900 Y0.37000
X4.23000 Y0.37000
X4.23000 Y0.37200
X4.23100 Y0.37200
X4.23100 Y0.37300
X4.23200 Y0.37300
X4.23200 Y0.37400
X4.23300 Y0.37400
X4.23300 Y0.37600
X4.23400 Y0.37600
X4.23400 Y0.37700
X4.23500 Y0.37700
X4.23500 Y0.38000
X4.23600 Y0.38000
X4.23600 Y0.38500
X4.23700 Y0.38500
X4.23700 Y0.41600
X4.23600 Y0.41600
X4.23600 Y0.42100
X4.23500 Y0.42100
X4.23500 Y0.42400
X4.23400 Y0.42400
X4.23400 Y0.42500
X4.23300 Y0.42500
X4.23300 Y0.42700
X4.23200 Y0.42700
X4.23200 Y0.42800
X4.23100 Y0.42800
X4.23100 Y0.42900
X4.23000 Y0.42900
X4.23000 Y0.43100
X4.22900 Y0.43100
X4.22900 Y0.43200
X4.22700 Y0.43200
X4.22700 Y0.43300
X4.22600 Y0.43300
X4.22600 Y0.43400
X4.22400 Y0.43400
X4.22400 Y0.43500
X4.22200 Y0.43500
X4.22200 Y0.43600
X4.22100 Y0.43600
X4.22100 Y0.43700
X4.21600 Y0.43700
X4.21600 Y0.43800
X4.18300 Y0.43800
X4.18300 Y0.43700
X4.17800 Y0.43700
X4.17800 Y0.43600
X4.17700 Y0.43600
X4.17700 Y0.43500
X4.17500 Y0.43500
X4.17500 Y0.43400
X4.17300 Y0.43400
X4.17300 Y0.43300
X4.17200 Y0.43300
X4.17200 Y0.43200
X4.17000 Y0.43200
X4.17000 Y0.43100
X4.16900 Y0.43100
X4.16900 Y0.42900
X4.16800 Y0.42900
X4.16800 Y0.42800
X4.16700 Y0.42800
X4.16700 Y0.42700
G04 P0 ( dwell for no time -- G64 should not smooth over this point )
G00 Z0.19685 ( retract )

G00 X4.06700 Y0.42700 ( rapid move to begin. )
G01 Z-0.01969 F1.96850 ( plunge. )
G04 P0 ( dwell for no time -- G64 should not smooth over this point )
X4.06700 Y0.42700
X4.06600 Y0.42700
X4.06600 Y0.42500
X4.06500 Y0.42500
X4.06500 Y0.42400
X4.06400 Y0.42400
X4.06400 Y0.42100
X4.06300 Y0.42100
X4.06300 Y0.41600
X4.06200 Y0.41600
X4.06200 Y0.38500
X4.06300 Y0.38500
X4.06300 Y0.38000
X4.06400 Y0.38000
X4.06400 Y0.37700
X4.06500 Y0.37700
X4.06500 Y0.37600
X4.06600 Y0.37600
X4.06600 Y0.37400
X4.06700 Y0.37400
X4.06700 Y0.37300
X4.06800 Y0.37300
X4.06800 Y0.37200
X4.06900 Y0.37200
X4.06900 Y0.37000
X4.07000 Y0.37000
X4.07000 Y0.36900
X4.07200 Y0.36900
X4.07200 Y0.36800
X4.07300 Y0.36800
X4.07300 Y0.36700
X4.07500 Y0.36700
X4.07500 Y0.36600
X4.07700 Y0.36600
X4.07700 Y0.36500
X4.07800 Y0.36500
X4.07800 Y0.36400
X4.08300 Y0.36400
X4.08300 Y0.36300
X4.11600 Y0.36300
X4.11600 Y0.36400
X4.12100 Y0.36400
X4.12100 Y0.36500
X4.12200 Y0.36500
X4.12200 Y0.36600
X4.12400 Y0.36600
X4.12400 Y0.36700
X4.12600 Y0.36700
X4.12600 Y0.36800
X4.12700 Y0.36800
X4.12700 Y0.36900
X4.12900 Y0.36900
X4.12900 Y0.37000
X4.13000 Y0.37000
X4.13000 Y0.37200
X4.13100 Y0.37200
X4.13100 Y0.37300
X4.13200 Y0.37300
X4.13200 Y0.37400
X4.13300 Y0.37400
X4.13300 Y0.37600
X4.13400 Y0.37600
X4.13400 Y0.37700
X4.13500 Y0.37700
X4.13500 Y0.38000
X4.13600 Y0.38000
X4.13600 Y0.38500
X4.13700 Y0.38500
X4.13700 Y0.41600
X4.13600 Y0.41600
X4.13600 Y0.42100
X4.13500 Y0.42100
X4.13500 Y0.42400
X4.13400 Y0.42400
X4.13400 Y0.42500
X4.13300 Y0.42500
X4.13300 Y0.42700
X4.13200 Y0.42700
X4.13200 Y0.42800
X4.13100 Y0.42800
X4.13100 Y0.42900
X4.13000 Y0.42900
X4.13000 Y0.43100
X4.12900 Y0.43100
X4.12900 Y0.43200
X4.12700 Y0.43200
X4.12700 Y0.43300
X4.12600 Y0.43300
X4.12600 Y0.43400
X4.12400 Y0.43400
X4.12400 Y0.43500
X4.12200 Y0.43500
X4.12200 Y0.43600
X4.12100 Y0.43600
X4.12100 Y0.43700
X4.11600 Y0.43700
X4.11600 Y0.43800
X4.08300 Y0.43800
X4.08300 Y0.43700
X4.07800 Y0.43700
X4.07800 Y0.43600
X4.07700 Y0.43600
X4.07700 Y0.43500
X4.07500 Y0.43500
X4.07500 Y0.43400
X4.07300 Y0.43400
X4.07300 Y0.43300
X4.07200 Y0.43300
X4.07200 Y0.43200
X4.07000 Y0.43200
X4.07000 Y0.43100
X4.06900 Y0.43100
X4.06900 Y0.42900
X4.06800 Y0.42900
X4.06800 Y0.42800
X4.06700 Y0.42800
X4.06700 Y0.42700
G04 P0 ( dwell for no time -- G64 should not smooth over this point )
G00 Z0.19685 ( retract )

G00 X3.06700 Y0.42700 ( rapid move to begin. )
G01 Z-0.01969 F1.96850 ( plunge. )
G04 P0 ( dwell for no time -- G64 should not smooth over this point )
X3.06700 Y0.42700
X3.06600 Y0.42700
X3.06600 Y0.42500
X3.06500 Y0.42500
X3.06500 Y0.42400
X3.06400 Y0.42400
X3.06400 Y0.42100
X3.06300 Y0.42100
X3.06300 Y0.41600
X3.06200 Y0.41600
X3.06200 Y0.38500
X3.06300 Y0.38500
X3.06300 Y0.38000
X3.06400 Y0.38000
X3.06400 Y0.37700
X3.06500 Y0.37700
X3.06500 Y0.37600
X3.06600 Y0.37600
X3.06600 Y0.37400
X3.06700 Y0.37400
X3.06700 Y0.37300
X3.06800 Y0.37300
X3.06800 Y0.37200
X3.06900 Y0.37200
X3.06900 Y0.37000
X3.07000 Y0.37000
X3.07000 Y0.36900
X3.07200 Y0.36900
X3.07200 Y0.36800
X3.07300 Y0.36800
X3.07300 Y0.36700
X3.07500 Y0.36700
X3.07500 Y0.36600
X3.07700 Y0.36600
X3.07700 Y0.36500
X3.07800 Y0.36500
X3.07800 Y0.36400
X3.08300 Y0.36400
X3.08300 Y0.36300
X3.11600 Y0.36300
X3.11600 Y0.36400
X3.12100 Y0.36400
X3.12100 Y0.36500
X3.12200 Y0.36500
X3.12200 Y0.36600
X3.12400 Y0.36600
X3.12400 Y0.36700
X3.12600 Y0.36700
X3.12600 Y0.36800
X3.12700 Y0.36800
X3.12700 Y0.36900
X3.12900 Y0.36900
X3.12900 Y0.37000
X3.13000 Y0.37000
X3.13000 Y0.37200
X3.13100 Y0.37200
X3.13100 Y0.37300
X3.13200 Y0.37300
X3.13200 Y0.37400
X3.13300 Y0.37400
X3.13300 Y0.37600
X3.13400 Y0.37600
X3.13400 Y0.37700
X3.13500 Y0.37700
X3.13500 Y0.38000
X3.13600 Y0.38000
X3.13600 Y0.38500
X3.13700 Y0.38500
X3.13700 Y0.41600
X3.13600 Y0.41600
X3.13600 Y0.42100
X3.13500 Y0.42100
X3.13500 Y0.42400
X3.13400 Y0.42400
X3.13400 Y0.42500
X3.13300 Y0.42500
X3.13300 Y0.42700
X3.13200 Y0.42700
X3.13200 Y0.42800
X3.13100 Y0.42800
X3.13100 Y0.42900
X3.13000 Y0.42900
X3.13000 Y0.43100
X3.12900 Y0.43100
X3.12900 Y0.43200
X3.12700 Y0.43200
X3.12700 Y0.43300
X3.12600 Y0.43300
X3.12600 Y0.43400
X3.12400 Y0.43400
X3.12400 Y0.43500
X3.12200 Y0.43500
X3.12200 Y0.43600
X3.12100 Y0.43600
X3.12100 Y0.43700
X3.11600 Y0.43700
X3.11600 Y0.43800
X3.08300 Y0.43800
X3.08300 Y0.43700
X3.07800 Y0.43700
X3.07800 Y0.43600
X3.07700 Y0.43600
X3.07700 Y0.43500
X3.07500 Y0.43500
X3.07500 Y0.43400
X3.07300 Y0.43400
X3.07300 Y0.43300
X3.07200 Y0.43300
X3.07200 Y0.43200
X3.07000 Y0.43200
X3.07000 Y0.43100
X3.06900 Y0.43100
X3.06900 Y0.42900
X3.06800 Y0.42900
X3.06800 Y0.42800
X3.06700 Y0.42800
X3.06700 Y0.42700
G04 P0 ( dwell for no time -- G64 should not smooth over this point )
G00 Z0.19685 ( retract )

G00 X2.96700 Y0.42700 ( rapid move to begin. )
G01 Z-0.01969 F1.96850 ( plunge. )
G04 P0 ( dwell for no time -- G64 should not smooth over this point )
X2.96700 Y0.42700
X2.96600 Y0.42700
X2.96600 Y0.42500
X2.96500 Y0.42500
X2.96500 Y0.42400
X2.96400 Y0.42400
X2.96400 Y0.42100
X2.96300 Y0.42100
X2.96300 Y0.41600
X2.96200 Y0.41600
X2.96200 Y0.38500
X2.96300 Y0.38500
X2.96300 Y0.38000
X2.96400 Y0.38000
X2.96400 Y0.37700
X2.96500 Y0.37700
X2.96500 Y0.37600
X2.96600 Y0.37600
X2.96600 Y0.37400
X2.96700 Y0.37400
X2.96700 Y0.37300
X2.96800 Y0.37300
X2.96800 Y0.37200
X2.96900 Y0.37200
X2.96900 Y0.37000
X2.97000 Y0.37000
X2.97000 Y0.36900
X2.97200 Y0.36900
X2.97200 Y0.36800
X2.97300 Y0.36800
X2.97300 Y0.36700
X2.97500 Y0.36700
X2.97500 Y0.36600
X2.97700 Y0.36600
X2.97700 Y0.36500
X2.97800 Y0.36500
X2.97800 Y0.36400
X2.98300 Y0.36400
X2.98300 Y0.36300
X3.01600 Y0.36300
X3.01600 Y0.36400
X3.02100 Y0.36400
X3.02100 Y0.36500
X3.02200 Y0.36500
X3.02200 Y0.36600
X3.02400 Y0.36600
X3.02400 Y0.36700
X3.02600 Y0.36700
X3.02600 Y0.36800
X3.02700 Y0.36800
X3.02700 Y0.36900
X3.02900 Y0.36900
X3.02900 Y0.37000
X3.03000 Y0.37000
X3.03000 Y0.37200
X3.03100 Y0.37200
X3.03100 Y0.37300
X3.03200 Y0.37300
X3.03200 Y0.37400
X3.03300 Y0.37400
X3.03300 Y0.37600
X3.03400 Y0.37600
X3.03400 Y0.37700
X3.03500 Y0.37700
X3.03500 Y0.38000
X3.03600 Y0.38000
X3.03600 Y0.38500
X3.03700 Y0.38500
X3.03700 Y0.41600
X3.03600 Y0.41600
X3.03600 Y0.42100
X3.03500 Y0.42100
X3.03500 Y0.42400
X3.03400 Y0.42400
X3.03400 Y0.42500
X3.03300 Y0.42500
X3.03300 Y0.42700
X3.03200 Y0.42700
X3.03200 Y0.42800
X3.03100 Y0.42800
X3.03100 Y0.42900
X3.03000 Y0.42900
X3.03000 Y0.43100
X3.02900 Y0.43100
X3.02900 Y0.43200
X3.02700 Y0.43200
X3.02700 Y0.43300
X3.02600 Y0.43300
X3.02600 Y0.43400
X3.02400 Y0.43400
X3.02400 Y0.43500
X3.02200 Y0.43500
X3.02200 Y0.43600
X3.02100 Y0.43600
X3.02100 Y0.43700
X3.01600 Y0.43700
X3.01600 Y0.43800
X2.98300 Y0.43800
X2.98300 Y0.43700
X2.97800 Y0.43700
X2.97800 Y0.43600
X2.97700 Y0.43600
X2.97700 Y0.43500
X2.97500 Y0.43500
X2.97500 Y0.43400
X2.97300 Y0.43400
X2.97300 Y0.43300
X2.97200 Y0.43300
X2.97200 Y0.43200
X2.97000 Y0.43200
X2.97000 Y0.43100
X2.96900 Y0.43100
X2.96900 Y0.42900
X2.96800 Y0.42900
X2.96800 Y0.42800
X2.96700 Y0.42800
X2.96700 Y0.42700
G04 P0 ( dwell for no time -- G64 should not smooth over this point )
G00 Z0.19685 ( retract )

G00 X1.96700 Y0.42700 ( rapid move to begin. )
G01 Z-0.01969 F1.96850 ( plunge. )
G04 P0 ( dwell for no time -- G64 should not smooth over this point )
X1.96700 Y0.42700
X1.96600 Y0.42700
X1.96600 Y0.42500
X1.96500 Y0.42500
X1.96500 Y0.42400
X1.96400 Y0.42400
X1.96400 Y0.42100
X1.96300 Y0.42100
X1.96300 Y0.41600
X1.96200 Y0.41600
X1.96200 Y0.38500
X1.96300 Y0.38500
X1.96300 Y0.38000
X1.96400 Y0.38000
X1.96400 Y0.37700
X1.96500 Y0.37700
X1.96500 Y0.37600
X1.96600 Y0.37600
X1.96600 Y0.37400
X1.96700 Y0.37400
X1.96700 Y0.37300
X1.96800 Y0.37300
X1.96800 Y0.37200
X1.96900 Y0.37200
X1.96900 Y0.37000
X1.97000 Y0.37000
X1.97000 Y0.36900
X1.97200 Y0.36900
X1.97200 Y0.36800
X1.97300 Y0.36800
X1.97300 Y0.36700
X1.97500 Y0.36700
X1.97500 Y0.36600
X1.97700 Y0.36600
X1.97700 Y0.36500
X1.97800 Y0.36500
X1.97800 Y0.36400
X1.98300 Y0.36400
X1.98300 Y0.36300
X2.01600 Y0.36300
X2.01600 Y0.36400
X2.02100 Y0.36400
X2.02100 Y0.36500
X2.02200 Y0.36500
X2.02200 Y0.36600
X2.02400 Y0.36600
X2.02400 Y0.36700
X2.02600 Y0.36700
X2.02600 Y0.36800
X2.02700 Y0.36800
X2.02700 Y0.36900
X2.02900 Y0.36900
X2.02900 Y0.37000
X2.03000 Y0.37000
X2.03000 Y0.37200
X2.03100 Y0.37200
X2.03100 Y0.37300
X2.03200 Y0.37300
X2.03200 Y0.37400
X2.03300 Y0.37400
X2.03300 Y0.37600
X2.03400 Y0.37600
X2.03400 Y0.37700
X2.03500 Y0.37700
X2.03500 Y0.38000
X2.03600 Y0.38000
X2.03600 Y0.38500
X2.03700 Y0.38500
X2.03700 Y0.41600
X2.03600 Y0.41600
X2.03600 Y0.42100
X2.03500 Y0.42100
X2.03500 Y0.42400
X2.03400 Y0.42400
X2.03400 Y0.42500
X2.03300 Y0.42500
X2.03300 Y0.42700
X2.03200 Y0.42700
X2.03200 Y0.42800
X2.03100 Y0.42800
X2.03100 Y0.42900
X2.03000 Y0.42900
X2.03000 Y0.43100
X2.02900 Y0.43100
X2.02900 Y0.43200
X2.02700 Y0.43200
X2.02700 Y0.43300
X2.02600 Y0.43300
X2.02600 Y0.43400
X2.02400 Y0.43400
X2.02400 Y0.43500
X2.02200 Y0.43500
X2.02200 Y0.43600
X2.02100 Y0.43600
X2.02100 Y0.43700
X2.01600 Y0.43700
X2.01600 Y0.43800
X1.98300 Y0.43800
X1.98300 Y0.43700
X1.97800 Y0.43700
X1.97800 Y0.43600
X1.97700 Y0.43600
X1.97700 Y0.43500
X1.97500 Y0.43500
X1.97500 Y0.43400
X1.97300 Y0.43400
X1.97300 Y0.43300
X1.97200 Y0.43300
X1.97200 Y0.43200
X1.97000 Y0.43200
X1.97000 Y0.43100
X1.96900 Y0.43100
X1.96900 Y0.42900
X1.96800 Y0.42900
X1.96800 Y0.42800
X1.96700 Y0.42800
X1.96700 Y0.42700
G04 P0 ( dwell for no time -- G64 should not smooth over this point )
G00 Z0.19685 ( retract )

G00 X1.86700 Y0.42700 ( rapid move to begin. )
G01 Z-0.01969 F1.96850 ( plunge. )
G04 P0 ( dwell for no time -- G64 should not smooth over this point )
X1.86700 Y0.42700
X1.86600 Y0.42700
X1.86600 Y0.42500
X1.86500 Y0.42500
X1.86500 Y0.42400
X1.86400 Y0.42400
X1.86400 Y0.42100
X1.86300 Y0.42100
X1.86300 Y0.41600
X1.86200 Y0.41600
X1.86200 Y0.38500
X1.86300 Y0.38500
X1.86300 Y0.38000
X1.86400 Y0.38000
X1.86400 Y0.37700
X1.86500 Y0.37700
X1.86500 Y0.37600
X1.86600 Y0.37600
X1.86600 Y0.37400
X1.86700 Y0.37400
X1.86700 Y0.37300
X1.86800 Y0.37300
X1.86800 Y0.37200
X1.86900 Y0.37200
X1.86900 Y0.37000
X1.87000 Y0.37000
X1.87000 Y0.36900
X1.87200 Y0.36900
X1.87200 Y0.36800
X1.87300 Y0.36800
X1.87300 Y0.36700
X1.87500 Y0.36700
X1.87500 Y0.36600
X1.87700 Y0.36600
X1.87700 Y0.36500
X1.87800 Y0.36500
X1.87800 Y0.36400
X1.88300 Y0.36400
X1.88300 Y0.36300
X1.91600 Y0.36300
X1.91600 Y0.36400
X1.92100 Y0.36400
X1.92100 Y0.36500
X1.92200 Y0.36500
X1.92200 Y0.36600
X1.92400 Y0.36600
X1.92400 Y0.36700
X1.92600 Y0.36700
X1.92600 Y0.36800
X1.92700 Y0.36800
X1.92700 Y0.36900
X1.92900 Y0.36900
X1.92900 Y0.37000
X1.93000 Y0.37000
X1.93000 Y0.37200
X1.93100 Y0.37200
X1.93100 Y0.37300
X1.93200 Y0.37300
X1.93200 Y0.37400
X1.93300 Y0.37400
X1.93300 Y0.37600
X1.93400 Y0.37600
X1.93400 Y0.37700
X1.93500 Y0.37700
X1.93500 Y0.38000
X1.93600 Y0.38000
X1.93600 Y0.38500
X1.93700 Y0.38500
X1.93700 Y0.41600
X1.93600 Y0.41600
X1.93600 Y0.42100
X1.93500 Y0.42100
X1.93500 Y0.42400
X1.93400 Y0.42400
X1.93400 Y0.42500
X1.93300 Y0.42500
X1.93300 Y0.42700
X1.93200 Y0.42700
X1.93200 Y0.42800
X1.93100 Y0.42800
X1.93100 Y0.42900
X1.93000 Y0.42900
X1.93000 Y0.43100
X1.92900 Y0.43100
X1.92900 Y0.43200
X1.92700 Y0.43200
X1.92700 Y0.43300
X1.92600 Y0.43300
X1.92600 Y0.43400
X1.92400 Y0.43400
X1.92400 Y0.43500
X1.92200 Y0.43500
X1.92200 Y0.43600
X1.92100 Y0.43600
X1.92100 Y0.43700
X1.91600 Y0.43700
X1.91600 Y0.43800
X1.88300 Y0.43800
X1.88300 Y0.43700
X1.87800 Y0.43700
X1.87800 Y0.43600
X1.87700 Y0.43600
X1.87700 Y0.43500
X1.87500 Y0.43500
X1.87500 Y0.43400
X1.87300 Y0.43400
X1.87300 Y0.43300
X1.87200 Y0.43300
X1.87200 Y0.43200
X1.87000 Y0.43200
X1.87000 Y0.43100
X1.86900 Y0.43100
X1.86900 Y0.42900
X1.86800 Y0.42900
X1.86800 Y0.42800
X1.86700 Y0.42800
X1.86700 Y0.42700
G04 P0 ( dwell for no time -- G64 should not smooth over this point )
G00 Z0.19685 ( retract )

G00 X0.86700 Y0.42700 ( rapid move to begin. )
G01 Z-0.01969 F1.96850 ( plunge. )
G04 P0 ( dwell for no time -- G64 should not smooth over this point )
X0.86700 Y0.42700
X0.86600 Y0.42700
X0.86600 Y0.42500
X0.86500 Y0.42500
X0.86500 Y0.42400
X0.86400 Y0.42400
X0.86400 Y0.42100
X0.86300 Y0.42100
X0.86300 Y0.41600
X0.86200 Y0.41600
X0.86200 Y0.38500
X0.86300 Y0.38500
X0.86300 Y0.38000
X0.86400 Y0.38000
X0.86400 Y0.37700
X0.86500 Y0.37700
X0.86500 Y0.37600
X0.86600 Y0.37600
X0.86600 Y0.37400
X0.86700 Y0.37400
X0.86700 Y0.37300
X0.86800 Y0.37300
X0.86800 Y0.37200
X0.86900 Y0.37200
X0.86900 Y0.37000
X0.87000 Y0.37000
X0.87000 Y0.36900
X0.87200 Y0.36900
X0.87200 Y0.36800
X0.87300 Y0.36800
X0.87300 Y0.36700
X0.87500 Y0.36700
X0.87500 Y0.36600
X0.87700 Y0.36600
X0.87700 Y0.36500
X0.87800 Y0.36500
X0.87800 Y0.36400
X0.88300 Y0.36400
X0.88300 Y0.36300
X0.91600 Y0.36300
X0.91600 Y0.36400
X0.92100 Y0.36400
X0.92100 Y0.36500
X0.92200 Y0.36500
X0.92200 Y0.36600
X0.92400 Y0.36600
X0.92400 Y0.36700
X0.92600 Y0.36700
X0.92600 Y0.36800
X0.92700 Y0.36800
X0.92700 Y0.36900
X0.92900 Y0.36900
X0.92900 Y0.37000
X0.93000 Y0.37000
X0.93000 Y0.37200
X0.93100 Y0.37200
X0.93100 Y0.37300
X0.93200 Y0.37300
X0.93200 Y0.37400
X0.93300 Y0.37400
X0.93300 Y0.37600
X0.93400 Y0.37600
X0.93400 Y0.37700
X0.93500 Y0.37700
X0.93500 Y0.38000
X0.93600 Y0.38000
X0.93600 Y0.38500
X0.93700 Y0.38500
X0.93700 Y0.41600
X0.93600 Y0.41600
X0.93600 Y0.42100
X0.93500 Y0.42100
X0.93500 Y0.42400
X0.93400 Y0.42400
X0.93400 Y0.42500
X0.93300 Y0.42500
X0.93300 Y0.42700
X0.93200 Y0.42700
X0.93200 Y0.42800
X0.93100 Y0.42800
X0.93100 Y0.42900
X0.93000 Y0.42900
X0.93000 Y0.43100
X0.92900 Y0.43100
X0.92900 Y0.43200
X0.92700 Y0.43200
X0.92700 Y0.43300
X0.92600 Y0.43300
X0.92600 Y0.43400
X0.92400 Y0.43400
X0.92400 Y0.43500
X0.92200 Y0.43500
X0.92200 Y0.43600
X0.92100 Y0.43600
X0.92100 Y0.43700
X0.91600 Y0.43700
X0.91600 Y0.43800
X0.88300 Y0.43800
X0.88300 Y0.43700
X0.87800 Y0.43700
X0.87800 Y0.43600
X0.87700 Y0.43600
X0.87700 Y0.43500
X0.87500 Y0.43500
X0.87500 Y0.43400
X0.87300 Y0.43400
X0.87300 Y0.43300
X0.87200 Y0.43300
X0.87200 Y0.43200
X0.87000 Y0.43200
X0.87000 Y0.43100
X0.86900 Y0.43100
X0.86900 Y0.42900
X0.86800 Y0.42900
X0.86800 Y0.42800
X0.86700 Y0.42800
X0.86700 Y0.42700
G04 P0 ( dwell for no time -- G64 should not smooth over this point )
G00 Z0.19685 ( retract )

G00 X4.45900 Y0.33000 ( rapid move to begin. )
G01 Z-0.01969 F1.96850 ( plunge. )
G04 P0 ( dwell for no time -- G64 should not smooth over this point )
X4.45900 Y0.33000
X4.45900 Y0.26000
X4.54000 Y0.26000
X4.54000 Y0.34100
X4.45900 Y0.34100
X4.45900 Y0.33000
G04 P0 ( dwell for no time -- G64 should not smooth over this point )
G00 Z0.19685 ( retract )

G00 X0.45900 Y0.33000 ( rapid move to begin. )
G01 Z-0.01969 F1.96850 ( plunge. )
G04 P0 ( dwell for no time -- G64 should not smooth over this point )
X0.45900 Y0.33000
X0.45900 Y0.26000
X0.54000 Y0.26000
X0.54000 Y0.34100
X0.45900 Y0.34100
X0.45900 Y0.33000
G04 P0 ( dwell for no time -- G64 should not smooth over this point )
G00 Z0.19685 ( retract )

G00 X3.94900 Y0.24000 ( rapid move to begin. )
G01 Z-0.01969 F1.96850 ( plunge. )
G04 P0 ( dwell for no time -- G64 should not smooth over this point )
X3.94900 Y0.24000
X3.94900 Y0.15000
X4.05000 Y0.15000
X4.05000 Y0.25100
X3.94900 Y0.25100
X3.94900 Y0.24000
G04 P0 ( dwell for no time -- G64 should not smooth over this point )
G00 Z0.19685 ( retract )

G00 X3.16100 Y0.24000 ( rapid move to begin. )
G01 Z-0.01969 F1.96850 ( plunge. )
G04 P0 ( dwell for no time -- G64 should not smooth over this point )
X3.16100 Y0.24000
X3.16000 Y0.24000
X3.16000 Y0.23900
X3.15900 Y0.23900
X3.15900 Y0.23800
X3.15800 Y0.23800
X3.15800 Y0.23700
X3.15700 Y0.23700
X3.15700 Y0.23600
X3.15600 Y0.23600
X3.15600 Y0.23400
X3.15500 Y0.23400
X3.15500 Y0.23200
X3.15400 Y0.23200
X3.15400 Y0.23000
X3.15300 Y0.23000
X3.15300 Y0.22900
X3.15200 Y0.22900
X3.15200 Y0.22500
X3.15100 Y0.22500
X3.15100 Y0.22200
X3.15000 Y0.22200
X3.15000 Y0.21600
X3.14900 Y0.21600
X3.14900 Y0.18500
X3.15000 Y0.18500
X3.15000 Y0.17900
X3.15100 Y0.17900
X3.15100 Y0.17600
X3.15200 Y0.17600
X3.15200 Y0.17200
X3.15300 Y0.17200
X3.15300 Y0.17100
X3.15400 Y0.17100
X3.15400 Y0.16900
X3.15500 Y0.16900
X3.15500 Y0.16700
X3.15600 Y0.16700
X3.15600 Y0.16600
X3.15700 Y0.16600
X3.15700 Y0.16400
X3.15800 Y0.16400
X3.15800 Y0.16300
X3.15900 Y0.16300
X3.15900 Y0.16200
X3.16000 Y0.16200
X3.16000 Y0.16100
X3.16100 Y0.16100
X3.16100 Y0.16000
X3.16200 Y0.16000
X3.16200 Y0.15900
X3.16400 Y0.15900
X3.16400 Y0.15800
X3.16600 Y0.15800
X3.16600 Y0.15700
X3.16700 Y0.15700
X3.16700 Y0.15600
X3.16900 Y0.15600
X3.16900 Y0.15500
X3.17100 Y0.15500
X3.17100 Y0.15400
X3.17300 Y0.15400
X3.17300 Y0.15300
X3.17400 Y0.15300
X3.17400 Y0.15200
X3.18000 Y0.15200
X3.18000 Y0.15100
X3.18600 Y0.15100
X3.18600 Y0.15000
X3.21300 Y0.15000
X3.21300 Y0.15100
X3.21900 Y0.15100
X3.21900 Y0.15200
X3.22500 Y0.15200
X3.22500 Y0.15300
X3.22600 Y0.15300
X3.22600 Y0.15400
X3.22800 Y0.15400
X3.22800 Y0.15500
X3.23000 Y0.15500
X3.23000 Y0.15600
X3.23200 Y0.15600
X3.23200 Y0.15700
X3.23300 Y0.15700
X3.23300 Y0.15800
X3.23500 Y0.15800
X3.23500 Y0.15900
X3.23700 Y0.15900
X3.23700 Y0.16000
X3.23800 Y0.16000
X3.23800 Y0.16100
X3.23900 Y0.16100
X3.23900 Y0.16200
X3.24000 Y0.16200
X3.24000 Y0.16300
X3.24100 Y0.16300
X3.24100 Y0.16400
X3.24200 Y0.16400
X3.24200 Y0.16500
X3.24300 Y0.16500
X3.24300 Y0.16700
X3.24400 Y0.16700
X3.24400 Y0.16900
X3.24500 Y0.16900
X3.24500 Y0.17100
X3.24600 Y0.17100
X3.24600 Y0.17200
X3.24700 Y0.17200
X3.24700 Y0.17500
X3.24800 Y0.17500
X3.24800 Y0.17900
X3.24900 Y0.17900
X3.24900 Y0.18500
X3.25000 Y0.18500
X3.25000 Y0.21600
X3.24900 Y0.21600
X3.24900 Y0.22200
X3.24800 Y0.22200
X3.24800 Y0.22600
X3.24700 Y0.22600
X3.24700 Y0.22900
X3.24600 Y0.22900
X3.24600 Y0.23000
X3.24500 Y0.23000
X3.24500 Y0.23200
X3.24400 Y0.23200
X3.24400 Y0.23400
X3.24300 Y0.23400
X3.24300 Y0.23600
X3.24200 Y0.23600
X3.24200 Y0.23700
X3.24100 Y0.23700
X3.24100 Y0.23800
X3.24000 Y0.23800
X3.24000 Y0.23900
X3.23900 Y0.23900
X3.23900 Y0.24000
X3.23800 Y0.24000
X3.23800 Y0.24100
X3.23700 Y0.24100
X3.23700 Y0.24200
X3.23500 Y0.24200
X3.23500 Y0.24300
X3.23300 Y0.24300
X3.23300 Y0.24400
X3.23200 Y0.24400
X3.23200 Y0.24500
X3.23000 Y0.24500
X3.23000 Y0.24600
X3.22800 Y0.24600
X3.22800 Y0.24700
X3.22600 Y0.24700
X3.22600 Y0.24800
X3.22500 Y0.24800
X3.22500 Y0.24900
X3.21900 Y0.24900
X3.21900 Y0.25000
X3.21300 Y0.25000
X3.21300 Y0.25100
X3.18600 Y0.25100
X3.18600 Y0.25000
X3.18000 Y0.25000
X3.18000 Y0.24900
X3.17400 Y0.24900
X3.17400 Y0.24800
X3.17300 Y0.24800
X3.17300 Y0.24700
X3.17100 Y0.24700
X3.17100 Y0.24600
X3.16900 Y0.24600
X3.16900 Y0.24500
X3.16700 Y0.24500
X3.16700 Y0.24400
X3.16600 Y0.24400
X3.16600 Y0.24300
X3.16400 Y0.24300
X3.16400 Y0.24200
X3.16200 Y0.24200
X3.16200 Y0.24100
X3.16100 Y0.24100
X3.16100 Y0.24000
G04 P0 ( dwell for no time -- G64 should not smooth over this point )
G00 Z0.19685 ( retract )

G00 X2.84900 Y0.24000 ( rapid move to begin. )
G01 Z-0.01969 F1.96850 ( plunge. )
G04 P0 ( dwell for no time -- G64 should not smooth over this point )
X2.84900 Y0.24000
X2.84900 Y0.15000
X2.95000 Y0.15000
X2.95000 Y0.25100
X2.84900 Y0.25100
X2.84900 Y0.24000
G04 P0 ( dwell for no time -- G64 should not smooth over this point )
G00 Z0.19685 ( retract )

G00 X2.06100 Y0.24000 ( rapid move to begin. )
G01 Z-0.01969 F1.96850 ( plunge. )
G04 P0 ( dwell for no time -- G64 should not smooth over this point )
X2.06100 Y0.24000
X2.06000 Y0.24000
X2.06000 Y0.23900
X2.05900 Y0.23900
X2.05900 Y0.23800
X2.05800 Y0.23800
X2.05800 Y0.23700
X2.05700 Y0.23700
X2.05700 Y0.23600
X2.05600 Y0.23600
X2.05600 Y0.23400
X2.05500 Y0.23400
X2.05500 Y0.23200
X2.05400 Y0.23200
X2.05400 Y0.23000
X2.05300 Y0.23000
X2.05300 Y0.22900
X2.05200 Y0.22900
X2.05200 Y0.22500
X2.05100 Y0.22500
X2.05100 Y0.22200
X2.05000 Y0.22200
X2.05000 Y0.21600
X2.04900 Y0.21600
X2.04900 Y0.18500
X2.05000 Y0.18500
X2.05000 Y0.17900
X2.05100 Y0.17900
X2.05100 Y0.17600
X2.05200 Y0.17600
X2.05200 Y0.17200
X2.05300 Y0.17200
X2.05300 Y0.17100
X2.05400 Y0.17100
X2.05400 Y0.16900
X2.05500 Y0.16900
X2.05500 Y0.16700
X2.05600 Y0.16700
X2.05600 Y0.16600
X2.05700 Y0.16600
X2.05700 Y0.16400
X2.05800 Y0.16400
X2.05800 Y0.16300
X2.05900 Y0.16300
X2.05900 Y0.16200
X2.06000 Y0.16200
X2.06000 Y0.16100
X2.06100 Y0.16100
X2.06100 Y0.16000
X2.06200 Y0.16000
X2.06200 Y0.15900
X2.06400 Y0.15900
X2.06400 Y0.15800
X2.06600 Y0.15800
X2.06600 Y0.15700
X2.06700 Y0.15700
X2.06700 Y0.15600
X2.06900 Y0.15600
X2.06900 Y0.15500
X2.07100 Y0.15500
X2.07100 Y0.15400
X2.07300 Y0.15400
X2.07300 Y0.15300
X2.07400 Y0.15300
X2.07400 Y0.15200
X2.08000 Y0.15200
X2.08000 Y0.15100
X2.08600 Y0.15100
X2.08600 Y0.15000
X2.11300 Y0.15000
X2.11300 Y0.15100
X2.11900 Y0.15100
X2.11900 Y0.15200
X2.12500 Y0.15200
X2.12500 Y0.15300
X2.12600 Y0.15300
X2.12600 Y0.15400
X2.12800 Y0.15400
X2.12800 Y0.15500
X2.13000 Y0.15500
X2.13000 Y0.15600
X2.13200 Y0.15600
X2.13200 Y0.15700
X2.13300 Y0.15700
X2.13300 Y0.15800
X2.13500 Y0.15800
X2.13500 Y0.15900
X2.13700 Y0.15900
X2.13700 Y0.16000
X2.13800 Y0.16000
X2.13800 Y0.16100
X2.13900 Y0.16100
X2.13900 Y0.16200
X2.14000 Y0.16200
X2.14000 Y0.16300
X2.14100 Y0.16300
X2.14100 Y0.16400
X2.14200 Y0.16400
X2.14200 Y0.16500
X2.14300 Y0.16500
X2.14300 Y0.16700
X2.14400 Y0.16700
X2.14400 Y0.16900
X2.14500 Y0.16900
X2.14500 Y0.17100
X2.14600 Y0.17100
X2.14600 Y0.17200
X2.14700 Y0.17200
X2.14700 Y0.17500
X2.14800 Y0.17500
X2.14800 Y0.17900
X2.14900 Y0.17900
X2.14900 Y0.18500
X2.15000 Y0.18500
X2.15000 Y0.21600
X2.14900 Y0.21600
X2.14900 Y0.22200
X2.14800 Y0.22200
X2.14800 Y0.22600
X2.14700 Y0.22600
X2.14700 Y0.22900
X2.14600 Y0.22900
X2.14600 Y0.23000
X2.14500 Y0.23000
X2.14500 Y0.23200
X2.14400 Y0.23200
X2.14400 Y0.23400
X2.14300 Y0.23400
X2.14300 Y0.23600
X2.14200 Y0.23600
X2.14200 Y0.23700
X2.14100 Y0.23700
X2.14100 Y0.23800
X2.14000 Y0.23800
X2.14000 Y0.23900
X2.13900 Y0.23900
X2.13900 Y0.24000
X2.13800 Y0.24000
X2.13800 Y0.24100
X2.13700 Y0.24100
X2.13700 Y0.24200
X2.13500 Y0.24200
X2.13500 Y0.24300
X2.13300 Y0.24300
X2.13300 Y0.24400
X2.13200 Y0.24400
X2.13200 Y0.24500
X2.13000 Y0.24500
X2.13000 Y0.24600
X2.12800 Y0.24600
X2.12800 Y0.24700
X2.12600 Y0.24700
X2.12600 Y0.24800
X2.12500 Y0.24800
X2.12500 Y0.24900
X2.11900 Y0.24900
X2.11900 Y0.25000
X2.11300 Y0.25000
X2.11300 Y0.25100
X2.08600 Y0.25100
X2.08600 Y0.25000
X2.08000 Y0.25000
X2.08000 Y0.24900
X2.07400 Y0.24900
X2.07400 Y0.24800
X2.07300 Y0.24800
X2.07300 Y0.24700
X2.07100 Y0.24700
X2.07100 Y0.24600
X2.06900 Y0.24600
X2.06900 Y0.24500
X2.06700 Y0.24500
X2.06700 Y0.24400
X2.06600 Y0.24400
X2.06600 Y0.24300
X2.06400 Y0.24300
X2.06400 Y0.24200
X2.06200 Y0.24200
X2.06200 Y0.24100
X2.06100 Y0.24100
X2.06100 Y0.24000
G04 P0 ( dwell for no time -- G64 should not smooth over this point )
G00 Z0.19685 ( retract )

G00 X1.74900 Y0.24000 ( rapid move to begin. )
G01 Z-0.01969 F1.96850 ( plunge. )
G04 P0 ( dwell for no time -- G64 should not smooth over this point )
X1.74900 Y0.24000
X1.74900 Y0.15000
X1.85000 Y0.15000
X1.85000 Y0.25100
X1.74900 Y0.25100
X1.74900 Y0.24000
G04 P0 ( dwell for no time -- G64 should not smooth over this point )
G00 Z0.19685 ( retract )

G00 X0.96100 Y0.24000 ( rapid move to begin. )
G01 Z-0.01969 F1.96850 ( plunge. )
G04 P0 ( dwell for no time -- G64 should not smooth over this point )
X0.96100 Y0.24000
X0.96000 Y0.24000
X0.96000 Y0.23900
X0.95900 Y0.23900
X0.95900 Y0.23800
X0.95800 Y0.23800
X0.95800 Y0.23700
X0.95700 Y0.23700
X0.95700 Y0.23600
X0.95600 Y0.23600
X0.95600 Y0.23400
X0.95500 Y0.23400
X0.95500 Y0.23200
X0.95400 Y0.23200
X0.95400 Y0.23000
X0.95300 Y0.23000
X0.95300 Y0.22900
X0.95200 Y0.22900
X0.95200 Y0.22500
X0.95100 Y0.22500
X0.95100 Y0.22200
X0.95000 Y0.22200
X0.95000 Y0.21600
X0.94900 Y0.21600
X0.94900 Y0.18500
X0.95000 Y0.18500
X0.95000 Y0.17900
X0.95100 Y0.17900
X0.95100 Y0.17600
X0.95200 Y0.17600
X0.95200 Y0.17200
X0.95300 Y0.17200
X0.95300 Y0.17100
X0.95400 Y0.17100
X0.95400 Y0.16900
X0.95500 Y0.16900
X0.95500 Y0.16700
X0.95600 Y0.16700
X0.95600 Y0.16600
X0.95700 Y0.16600
X0.95700 Y0.16400
X0.95800 Y0.16400
X0.95800 Y0.16300
X0.95900 Y0.16300
X0.95900 Y0.16200
X0.96000 Y0.16200
X0.96000 Y0.16100
X0.96100 Y0.16100
X0.96100 Y0.16000
X0.96200 Y0.16000
X0.96200 Y0.15900
X0.96400 Y0.15900
X0.96400 Y0.15800
X0.96600 Y0.15800
X0.96600 Y0.15700
X0.96700 Y0.15700
X0.96700 Y0.15600
X0.96900 Y0.15600
X0.96900 Y0.15500
X0.97100 Y0.15500
X0.97100 Y0.15400
X0.97300 Y0.15400
X0.97300 Y0.15300
X0.97400 Y0.15300
X0.97400 Y0.15200
X0.98000 Y0.15200
X0.98000 Y0.15100
X0.98600 Y0.15100
X0.98600 Y0.15000
X1.01300 Y0.15000
X1.01300 Y0.15100
X1.01900 Y0.15100
X1.01900 Y0.15200
X1.02500 Y0.15200
X1.02500 Y0.15300
X1.02600 Y0.15300
X1.02600 Y0.15400
X1.02800 Y0.15400
X1.02800 Y0.15500
X1.03000 Y0.15500
X1.03000 Y0.15600
X1.03200 Y0.15600
X1.03200 Y0.15700
X1.03300 Y0.15700
X1.03300 Y0.15800
X1.03500 Y0.15800
X1.03500 Y0.15900
X1.03700 Y0.15900
X1.03700 Y0.16000
X1.03800 Y0.16000
X1.03800 Y0.16100
X1.03900 Y0.16100
X1.03900 Y0.16200
X1.04000 Y0.16200
X1.04000 Y0.16300
X1.04100 Y0.16300
X1.04100 Y0.16400
X1.04200 Y0.16400
X1.04200 Y0.16500
X1.04300 Y0.16500
X1.04300 Y0.16700
X1.04400 Y0.16700
X1.04400 Y0.16900
X1.04500 Y0.16900
X1.04500 Y0.17100
X1.04600 Y0.17100
X1.04600 Y0.17200
X1.04700 Y0.17200
X1.04700 Y0.17500
X1.04800 Y0.17500
X1.04800 Y0.17900
X1.04900 Y0.17900
X1.04900 Y0.18500
X1.05000 Y0.18500
X1.05000 Y0.21600
X1.04900 Y0.21600
X1.04900 Y0.22200
X1.04800 Y0.22200
X1.04800 Y0.22600
X1.04700 Y0.22600
X1.04700 Y0.22900
X1.04600 Y0.22900
X1.04600 Y0.23000
X1.04500 Y0.23000
X1.04500 Y0.23200
X1.04400 Y0.23200
X1.04400 Y0.23400
X1.04300 Y0.23400
X1.04300 Y0.23600
X1.04200 Y0.23600
X1.04200 Y0.23700
X1.04100 Y0.23700
X1.04100 Y0.23800
X1.04000 Y0.23800
X1.04000 Y0.23900
X1.03900 Y0.23900
X1.03900 Y0.24000
X1.03800 Y0.24000
X1.03800 Y0.24100
X1.03700 Y0.24100
X1.03700 Y0.24200
X1.03500 Y0.24200
X1.03500 Y0.24300
X1.03300 Y0.24300
X1.03300 Y0.24400
X1.03200 Y0.24400
X1.03200 Y0.24500
X1.03000 Y0.24500
X1.03000 Y0.24600
X1.02800 Y0.24600
X1.02800 Y0.24700
X1.02600 Y0.24700
X1.02600 Y0.24800
X1.02500 Y0.24800
X1.02500 Y0.24900
X1.01900 Y0.24900
X1.01900 Y0.25000
X1.01300 Y0.25000
X1.01300 Y0.25100
X0.98600 Y0.25100
X0.98600 Y0.25000
X0.98000 Y0.25000
X0.98000 Y0.24900
X0.97400 Y0.24900
X0.97400 Y0.24800
X0.97300 Y0.24800
X0.97300 Y0.24700
X0.97100 Y0.24700
X0.97100 Y0.24600
X0.96900 Y0.24600
X0.96900 Y0.24500
X0.96700 Y0.24500
X0.96700 Y0.24400
X0.96600 Y0.24400
X0.96600 Y0.24300
X0.96400 Y0.24300
X0.96400 Y0.24200
X0.96200 Y0.24200
X0.96200 Y0.24100
X0.96100 Y0.24100
X0.96100 Y0.24000
G04 P0 ( dwell for no time -- G64 should not smooth over this point )
G00 Z0.19685 ( retract )

G00 X4.46600 Y0.23000 ( rapid move to begin. )
G01 Z-0.01969 F1.96850 ( plunge. )
G04 P0 ( dwell for no time -- G64 should not smooth over this point )
X4.46600 Y0.23000
X4.46500 Y0.23000
X4.46500 Y0.22800
X4.46400 Y0.22800
X4.46400 Y0.22700
X4.46300 Y0.22700
X4.46300 Y0.22500
X4.46200 Y0.22500
X4.46200 Y0.22400
X4.46100 Y0.22400
X4.46100 Y0.21900
X4.46000 Y0.21900
X4.46000 Y0.21400
X4.45900 Y0.21400
X4.45900 Y0.18700
X4.46000 Y0.18700
X4.46000 Y0.18200
X4.46100 Y0.18200
X4.46100 Y0.17700
X4.46200 Y0.17700
X4.46200 Y0.17600
X4.46300 Y0.17600
X4.46300 Y0.17400
X4.46400 Y0.17400
X4.46400 Y0.17300
X4.46500 Y0.17300
X4.46500 Y0.17100
X4.46600 Y0.17100
X4.46600 Y0.17000
X4.46700 Y0.17000
X4.46700 Y0.16900
X4.46800 Y0.16900
X4.46800 Y0.16700
X4.47000 Y0.16700
X4.47000 Y0.16600
X4.47200 Y0.16600
X4.47200 Y0.16500
X4.47300 Y0.16500
X4.47300 Y0.16400
X4.47500 Y0.16400
X4.47500 Y0.16300
X4.47700 Y0.16300
X4.47700 Y0.16200
X4.48000 Y0.16200
X4.48000 Y0.16100
X4.48600 Y0.16100
X4.48600 Y0.16000
X4.51300 Y0.16000
X4.51300 Y0.16100
X4.51900 Y0.16100
X4.51900 Y0.16200
X4.52200 Y0.16200
X4.52200 Y0.16300
X4.52400 Y0.16300
X4.52400 Y0.16400
X4.52600 Y0.16400
X4.52600 Y0.16500
X4.52700 Y0.16500
X4.52700 Y0.16600
X4.52900 Y0.16600
X4.52900 Y0.16700
X4.53100 Y0.16700
X4.53100 Y0.16900
X4.53200 Y0.16900
X4.53200 Y0.17000
X4.53300 Y0.17000
X4.53300 Y0.17100
X4.53400 Y0.17100
X4.53400 Y0.17300
X4.53500 Y0.17300
X4.53500 Y0.17400
X4.53600 Y0.17400
X4.53600 Y0.17600
X4.53700 Y0.17600
X4.53700 Y0.17700
X4.53800 Y0.17700
X4.53800 Y0.18200
X4.53900 Y0.18200
X4.53900 Y0.18700
X4.54000 Y0.18700
X4.54000 Y0.21400
X4.53900 Y0.21400
X4.53900 Y0.21900
X4.53800 Y0.21900
X4.53800 Y0.22400
X4.53700 Y0.22400
X4.53700 Y0.22500
X4.53600 Y0.22500
X4.53600 Y0.22700
X4.53500 Y0.22700
X4.53500 Y0.22800
X4.53400 Y0.22800
X4.53400 Y0.23000
X4.53300 Y0.23000
X4.53300 Y0.23100
X4.53200 Y0.23100
X4.53200 Y0.23200
X4.53100 Y0.23200
X4.53100 Y0.23400
X4.52900 Y0.23400
X4.52900 Y0.23500
X4.52700 Y0.23500
X4.52700 Y0.23600
X4.52500 Y0.23600
X4.52500 Y0.23700
X4.52400 Y0.23700
X4.52400 Y0.23800
X4.52200 Y0.23800
X4.52200 Y0.23900
X4.51900 Y0.23900
X4.51900 Y0.24000
X4.51300 Y0.24000
X4.51300 Y0.24100
X4.48600 Y0.24100
X4.48600 Y0.24000
X4.48000 Y0.24000
X4.48000 Y0.23900
X4.47700 Y0.23900
X4.47700 Y0.23800
X4.47500 Y0.23800
X4.47500 Y0.23700
X4.47400 Y0.23700
X4.47400 Y0.23600
X4.47200 Y0.23600
X4.47200 Y0.23500
X4.47000 Y0.23500
X4.47000 Y0.23400
X4.46800 Y0.23400
X4.46800 Y0.23200
X4.46700 Y0.23200
X4.46700 Y0.23100
X4.46600 Y0.23100
X4.46600 Y0.23000
G04 P0 ( dwell for no time -- G64 should not smooth over this point )
G00 Z0.19685 ( retract )

G00 X4.65700 Y0.15000 ( rapid move to begin. )
G01 Z-0.01969 F1.96850 ( plunge. )
G04 P0 ( dwell for no time -- G64 should not smooth over this point )
X4.65700 Y0.15000
X4.65600 Y0.15000
X4.65600 Y0.14900
X4.65500 Y0.14900
X4.65500 Y0.14800
X4.65400 Y0.14800
X4.65400 Y0.14700
X4.65300 Y0.14700
X4.65300 Y0.14600
X4.65200 Y0.14600
X4.65200 Y0.14500
X4.65100 Y0.14500
X4.65100 Y0.14400
X4.65000 Y0.14400
X4.65000 Y0.14300
X4.64900 Y0.14300
X4.64900 Y0.14200
X4.64800 Y0.14200
X4.64800 Y0.14000
X4.64700 Y0.14000
X4.64700 Y0.13800
X4.64600 Y0.13800
X4.64600 Y0.13700
X4.64500 Y0.13700
X4.64500 Y0.13500
X4.64400 Y0.13500
X4.64400 Y0.13300
X4.64300 Y0.13300
X4.64300 Y0.13000
X4.64200 Y0.13000
X4.64200 Y0.12700
X4.64100 Y0.12700
X4.64100 Y0.12400
X4.64000 Y0.12400
X4.64000 Y0.11600
X4.63900 Y0.11600
X4.63900 Y0.08500
X4.64000 Y0.08500
X4.64000 Y0.07700
X4.64100 Y0.07700
X4.64100 Y0.07400
X4.64200 Y0.07400
X4.64200 Y0.07100
X4.64300 Y0.07100
X4.64300 Y0.06800
X4.64400 Y0.06800
X4.64400 Y0.06600
X4.64500 Y0.06600
X4.64500 Y0.06400
X4.64600 Y0.06400
X4.64600 Y0.06300
X4.64700 Y0.06300
X4.64700 Y0.06100
X4.64800 Y0.06100
X4.64800 Y0.05900
X4.64900 Y0.05900
X4.64900 Y0.05800
X4.65000 Y0.05800
X4.65000 Y0.05700
X4.65100 Y0.05700
X4.65100 Y0.05600
X4.65200 Y0.05600
X4.65200 Y0.05500
X4.65300 Y0.05500
X4.65300 Y0.05400
X4.65400 Y0.05400
X4.65400 Y0.05300
X4.65500 Y0.05300
X4.65500 Y0.05200
X4.65600 Y0.05200
X4.65600 Y0.05100
X4.65700 Y0.05100
X4.65700 Y0.05000
X4.65900 Y0.05000
X4.65900 Y0.04900
X4.66000 Y0.04900
X4.66000 Y0.04800
X4.66200 Y0.04800
X4.66200 Y0.04700
X4.66300 Y0.04700
X4.66300 Y0.04600
X4.66600 Y0.04600
X4.66600 Y0.04500
X4.66800 Y0.04500
X4.66800 Y0.04400
X4.67000 Y0.04400
X4.67000 Y0.04300
X4.67300 Y0.04300
X4.67300 Y0.04200
X4.67700 Y0.04200
X4.67700 Y0.04100
X4.68300 Y0.04100
X4.68300 Y0.04000
X4.71600 Y0.04000
X4.71600 Y0.04100
X4.72200 Y0.04100
X4.72200 Y0.04200
X4.72600 Y0.04200
X4.72600 Y0.04300
X4.72900 Y0.04300
X4.72900 Y0.04400
X4.73100 Y0.04400
X4.73100 Y0.04500
X4.73400 Y0.04500
X4.73400 Y0.04600
X4.73600 Y0.04600
X4.73600 Y0.04700
X4.73700 Y0.04700
X4.73700 Y0.04800
X4.73900 Y0.04800
X4.73900 Y0.04900
X4.74000 Y0.04900
X4.74000 Y0.05000
X4.74200 Y0.05000
X4.74200 Y0.05100
X4.74300 Y0.05100
X4.74300 Y0.05200
X4.74400 Y0.05200
X4.74400 Y0.05300
X4.74500 Y0.05300
X4.74500 Y0.05400
X4.74600 Y0.05400
X4.74600 Y0.05500
X4.74700 Y0.05500
X4.74700 Y0.05600
X4.74800 Y0.05600
X4.74800 Y0.05700
X4.74900 Y0.05700
X4.74900 Y0.05800
X4.75000 Y0.05800
X4.75000 Y0.05900
X4.75100 Y0.05900
X4.75100 Y0.06100
X4.75200 Y0.06100
X4.75200 Y0.06300
X4.75300 Y0.06300
X4.75300 Y0.06400
X4.75400 Y0.06400
X4.75400 Y0.06600
X4.75500 Y0.06600
X4.75500 Y0.06800
X4.75600 Y0.06800
X4.75600 Y0.07100
X4.75700 Y0.07100
X4.75700 Y0.07400
X4.75800 Y0.07400
X4.75800 Y0.07700
X4.75900 Y0.07700
X4.75900 Y0.08500
X4.76000 Y0.08500
X4.76000 Y0.11600
X4.75900 Y0.11600
X4.75900 Y0.12400
X4.75800 Y0.12400
X4.75800 Y0.12700
X4.75700 Y0.12700
X4.75700 Y0.13000
X4.75600 Y0.13000
X4.75600 Y0.13300
X4.75500 Y0.13300
X4.75500 Y0.13500
X4.75400 Y0.13500
X4.75400 Y0.13700
X4.75300 Y0.13700
X4.75300 Y0.13800
X4.75200 Y0.13800
X4.75200 Y0.14000
X4.75100 Y0.14000
X4.75100 Y0.14200
X4.75000 Y0.14200
X4.75000 Y0.14300
X4.74900 Y0.14300
X4.74900 Y0.14400
X4.74800 Y0.14400
X4.74800 Y0.14500
X4.74700 Y0.14500
X4.74700 Y0.14600
X4.74600 Y0.14600
X4.74600 Y0.14700
X4.74500 Y0.14700
X4.74500 Y0.14800
X4.74400 Y0.14800
X4.74400 Y0.14900
X4.74300 Y0.14900
X4.74300 Y0.15000
X4.74200 Y0.15000
X4.74200 Y0.15100
X4.74000 Y0.15100
X4.74000 Y0.15200
X4.73900 Y0.15200
X4.73900 Y0.15300
X4.73700 Y0.15300
X4.73700 Y0.15400
X4.73600 Y0.15400
X4.73600 Y0.15500
X4.73400 Y0.15500
X4.73400 Y0.15600
X4.73100 Y0.15600
X4.73100 Y0.15700
X4.72900 Y0.15700
X4.72900 Y0.15800
X4.72600 Y0.15800
X4.72600 Y0.15900
X4.72200 Y0.15900
X4.72200 Y0.16000
X4.71600 Y0.16000
X4.71600 Y0.16100
X4.68300 Y0.16100
X4.68300 Y0.16000
X4.67700 Y0.16000
X4.67700 Y0.15900
X4.67300 Y0.15900
X4.67300 Y0.15800
X4.67000 Y0.15800
X4.67000 Y0.15700
X4.66800 Y0.15700
X4.66800 Y0.15600
X4.66500 Y0.15600
X4.66500 Y0.15500
X4.66300 Y0.15500
X4.66300 Y0.15400
X4.66200 Y0.15400
X4.66200 Y0.15300
X4.66000 Y0.15300
X4.66000 Y0.15200
X4.65900 Y0.15200
X4.65900 Y0.15100
X4.65700 Y0.15100
X4.65700 Y0.15000
G04 P0 ( dwell for no time -- G64 should not smooth over this point )
G00 Z0.19685 ( retract )

G00 X0.25700 Y0.15000 ( rapid move to begin. )
G01 Z-0.01969 F1.96850 ( plunge. )
G04 P0 ( dwell for no time -- G64 should not smooth over this point )
X0.25700 Y0.15000
X0.25600 Y0.15000
X0.25600 Y0.14900
X0.25500 Y0.14900
X0.25500 Y0.14800
X0.25400 Y0.14800
X0.25400 Y0.14700
X0.25300 Y0.14700
X0.25300 Y0.14600
X0.25200 Y0.14600
X0.25200 Y0.14500
X0.25100 Y0.14500
X0.25100 Y0.14400
X0.25000 Y0.14400
X0.25000 Y0.14300
X0.24900 Y0.14300
X0.24900 Y0.14200
X0.24800 Y0.14200
X0.24800 Y0.14000
X0.24700 Y0.14000
X0.24700 Y0.13800
X0.24600 Y0.13800
X0.24600 Y0.13700
X0.24500 Y0.13700
X0.24500 Y0.13500
X0.24400 Y0.13500
X0.24400 Y0.13300
X0.24300 Y0.13300
X0.24300 Y0.13000
X0.24200 Y0.13000
X0.24200 Y0.12700
X0.24100 Y0.12700
X0.24100 Y0.12400
X0.24000 Y0.12400
X0.24000 Y0.11600
X0.23900 Y0.11600
X0.23900 Y0.08500
X0.24000 Y0.08500
X0.24000 Y0.07700
X0.24100 Y0.07700
X0.24100 Y0.07400
X0.24200 Y0.07400
X0.24200 Y0.07100
X0.24300 Y0.07100
X0.24300 Y0.06800
X0.24400 Y0.06800
X0.24400 Y0.06600
X0.24500 Y0.06600
X0.24500 Y0.06400
X0.24600 Y0.06400
X0.24600 Y0.06300
X0.24700 Y0.06300
X0.24700 Y0.06100
X0.24800 Y0.06100
X0.24800 Y0.05900
X0.24900 Y0.05900
X0.24900 Y0.05800
X0.25000 Y0.05800
X0.25000 Y0.05700
X0.25100 Y0.05700
X0.25100 Y0.05600
X0.25200 Y0.05600
X0.25200 Y0.05500
X0.25300 Y0.05500
X0.25300 Y0.05400
X0.25400 Y0.05400
X0.25400 Y0.05300
X0.25500 Y0.05300
X0.25500 Y0.05200
X0.25600 Y0.05200
X0.25600 Y0.05100
X0.25700 Y0.05100
X0.25700 Y0.05000
X0.25900 Y0.05000
X0.25900 Y0.04900
X0.26000 Y0.04900
X0.26000 Y0.04800
X0.26200 Y0.04800
X0.26200 Y0.04700
X0.26300 Y0.04700
X0.26300 Y0.04600
X0.26600 Y0.04600
X0.26600 Y0.04500
X0.26800 Y0.04500
X0.26800 Y0.04400
X0.27000 Y0.04400
X0.27000 Y0.04300
X0.27300 Y0.04300
X0.27300 Y0.04200
X0.27700 Y0.04200
X0.27700 Y0.04100
X0.28300 Y0.04100
X0.28300 Y0.04000
X0.31600 Y0.04000
X0.31600 Y0.04100
X0.32200 Y0.04100
X0.32200 Y0.04200
X0.32600 Y0.04200
X0.32600 Y0.04300
X0.32900 Y0.04300
X0.32900 Y0.04400
X0.33100 Y0.04400
X0.33100 Y0.04500
X0.33400 Y0.04500
X0.33400 Y0.04600
X0.33600 Y0.04600
X0.33600 Y0.04700
X0.33700 Y0.04700
X0.33700 Y0.04800
X0.33900 Y0.04800
X0.33900 Y0.04900
X0.34000 Y0.04900
X0.34000 Y0.05000
X0.34200 Y0.05000
X0.34200 Y0.05100
X0.34300 Y0.05100
X0.34300 Y0.05200
X0.34400 Y0.05200
X0.34400 Y0.05300
X0.34500 Y0.05300
X0.34500 Y0.05400
X0.34600 Y0.05400
X0.34600 Y0.05500
X0.34700 Y0.05500
X0.34700 Y0.05600
X0.34800 Y0.05600
X0.34800 Y0.05700
X0.34900 Y0.05700
X0.34900 Y0.05800
X0.35000 Y0.05800
X0.35000 Y0.05900
X0.35100 Y0.05900
X0.35100 Y0.06100
X0.35200 Y0.06100
X0.35200 Y0.06300
X0.35300 Y0.06300
X0.35300 Y0.06400
X0.35400 Y0.06400
X0.35400 Y0.06600
X0.35500 Y0.06600
X0.35500 Y0.06800
X0.35600 Y0.06800
X0.35600 Y0.07100
X0.35700 Y0.07100
X0.35700 Y0.07400
X0.35800 Y0.07400
X0.35800 Y0.07700
X0.35900 Y0.07700
X0.35900 Y0.08500
X0.36000 Y0.08500
X0.36000 Y0.11600
X0.35900 Y0.11600
X0.35900 Y0.12400
X0.35800 Y0.12400
X0.35800 Y0.12700
X0.35700 Y0.12700
X0.35700 Y0.13000
X0.35600 Y0.13000
X0.35600 Y0.13300
X0.35500 Y0.13300
X0.35500 Y0.13500
X0.35400 Y0.13500
X0.35400 Y0.13700
X0.35300 Y0.13700
X0.35300 Y0.13800
X0.35200 Y0.13800
X0.35200 Y0.14000
X0.35100 Y0.14000
X0.35100 Y0.14200
X0.35000 Y0.14200
X0.35000 Y0.14300
X0.34900 Y0.14300
X0.34900 Y0.14400
X0.34800 Y0.14400
X0.34800 Y0.14500
X0.34700 Y0.14500
X0.34700 Y0.14600
X0.34600 Y0.14600
X0.34600 Y0.14700
X0.34500 Y0.14700
X0.34500 Y0.14800
X0.34400 Y0.14800
X0.34400 Y0.14900
X0.34300 Y0.14900
X0.34300 Y0.15000
X0.34200 Y0.15000
X0.34200 Y0.15100
X0.34000 Y0.15100
X0.34000 Y0.15200
X0.33900 Y0.15200
X0.33900 Y0.15300
X0.33700 Y0.15300
X0.33700 Y0.15400
X0.33600 Y0.15400
X0.33600 Y0.15500
X0.33400 Y0.15500
X0.33400 Y0.15600
X0.33100 Y0.15600
X0.33100 Y0.15700
X0.32900 Y0.15700
X0.32900 Y0.15800
X0.32600 Y0.15800
X0.32600 Y0.15900
X0.32200 Y0.15900
X0.32200 Y0.16000
X0.31600 Y0.16000
X0.31600 Y0.16100
X0.28300 Y0.16100
X0.28300 Y0.16000
X0.27700 Y0.16000
X0.27700 Y0.15900
X0.27300 Y0.15900
X0.27300 Y0.15800
X0.27000 Y0.15800
X0.27000 Y0.15700
X0.26800 Y0.15700
X0.26800 Y0.15600
X0.26500 Y0.15600
X0.26500 Y0.15500
X0.26300 Y0.15500
X0.26300 Y0.15400
X0.26200 Y0.15400
X0.26200 Y0.15300
X0.26000 Y0.15300
X0.26000 Y0.15200
X0.25900 Y0.15200
X0.25900 Y0.15100
X0.25700 Y0.15100
X0.25700 Y0.15000
G04 P0 ( dwell for no time -- G64 should not smooth over this point )
G00 Z0.19685 ( retract )

G00 X4.16200 Y0.12700 ( rapid move to begin. )
G01 Z-0.01969 F1.96850 ( plunge. )
G04 P0 ( dwell for no time -- G64 should not smooth over this point )
X4.16200 Y0.12700
X4.16200 Y0.06200
X4.23800 Y0.06200
X4.23800 Y0.13800
X4.16200 Y0.13800
X4.16200 Y0.12700
G04 P0 ( dwell for no time -- G64 should not smooth over this point )
G00 Z0.19685 ( retract )

G00 X4.06200 Y0.12700 ( rapid move to begin. )
G01 Z-0.01969 F1.96850 ( plunge. )
G04 P0 ( dwell for no time -- G64 should not smooth over this point )
X4.06200 Y0.12700
X4.06200 Y0.06200
X4.13800 Y0.06200
X4.13800 Y0.13800
X4.06200 Y0.13800
X4.06200 Y0.12700
G04 P0 ( dwell for no time -- G64 should not smooth over this point )
G00 Z0.19685 ( retract )

G00 X3.06200 Y0.12700 ( rapid move to begin. )
G01 Z-0.01969 F1.96850 ( plunge. )
G04 P0 ( dwell for no time -- G64 should not smooth over this point )
X3.06200 Y0.12700
X3.06200 Y0.06200
X3.13800 Y0.06200
X3.13800 Y0.13800
X3.06200 Y0.13800
X3.06200 Y0.12700
G04 P0 ( dwell for no time -- G64 should not smooth over this point )
G00 Z0.19685 ( retract )

G00 X2.96200 Y0.12700 ( rapid move to begin. )
G01 Z-0.01969 F1.96850 ( plunge. )
G04 P0 ( dwell for no time -- G64 should not smooth over this point )
X2.96200 Y0.12700
X2.96200 Y0.06200
X3.03800 Y0.06200
X3.03800 Y0.13800
X2.96200 Y0.13800
X2.96200 Y0.12700
G04 P0 ( dwell for no time -- G64 should not smooth over this point )
G00 Z0.19685 ( retract )

G00 X1.96200 Y0.12700 ( rapid move to begin. )
G01 Z-0.01969 F1.96850 ( plunge. )
G04 P0 ( dwell for no time -- G64 should not smooth over this point )
X1.96200 Y0.12700
X1.96200 Y0.06200
X2.03800 Y0.06200
X2.03800 Y0.13800
X1.96200 Y0.13800
X1.96200 Y0.12700
G04 P0 ( dwell for no time -- G64 should not smooth over this point )
G00 Z0.19685 ( retract )

G00 X1.86200 Y0.12700 ( rapid move to begin. )
G01 Z-0.01969 F1.96850 ( plunge. )
G04 P0 ( dwell for no time -- G64 should not smooth over this point )
X1.86200 Y0.12700
X1.86200 Y0.06200
X1.93800 Y0.06200
X1.93800 Y0.13800
X1.86200 Y0.13800
X1.86200 Y0.12700
G04 P0 ( dwell for no time -- G64 should not smooth over this point )
G00 Z0.19685 ( retract )

G00 X0.86200 Y0.12700 ( rapid move to begin. )
G01 Z-0.01969 F1.96850 ( plunge. )
G04 P0 ( dwell for no time -- G64 should not smooth over this point )
X0.86200 Y0.12700
X0.86200 Y0.06200
X0.93800 Y0.06200
X0.93800 Y0.13800
X0.86200 Y0.13800
X0.86200 Y0.12700

G04 P0 ( dwell for no time -- G64 should not smooth over this point )
G00 Z0.19685 ( retract )

M9 ( Coolant off. )
M2 ( Program end. )

