( pcb2gcode 1.1.4 )

G94     ( Inches per minute feed rate. )
G20     ( Units == INCHES.             )
G90     ( Absolute coordinates.        )
S10000  ( RPM spindle speed.           )
M3      ( Spindle on clockwise.        )

G64 P0.00500 ( set maximum deviation from commanded toolpath )

G04 P0 ( dwell for no time -- G64 should not smooth over this point )
G00 Z0.19685 ( retract )

G00 X4.98600 Y0.58700 ( rapid move to begin. )
G01 Z-0.01969 F1.96850 ( plunge. )
G04 P0 ( dwell for no time -- G64 should not smooth over this point )
X4.98600 Y0.58700
X4.98700 Y0.58700
X4.98700 Y0.58600
X4.98800 Y0.58600
X4.98800 Y0.01500
X4.98700 Y0.01500
X4.98700 Y0.01400
X4.98600 Y0.01400
X4.98600 Y0.01300
X0.01500 Y0.01300
X0.01500 Y0.01400
X0.01400 Y0.01400
X0.01400 Y0.01500
X0.01300 Y0.01500
X0.01300 Y0.58600
X0.01400 Y0.58600
X0.01400 Y0.58700
X0.01500 Y0.58700
X0.01500 Y0.58800
X4.98600 Y0.58800
X4.98600 Y0.58700
G04 P0 ( dwell for no time -- G64 should not smooth over this point )
G00 Z0.19685 ( retract )

G00 X0.85100 Y0.54000 ( rapid move to begin. )
G01 Z-0.01969 F1.96850 ( plunge. )
G04 P0 ( dwell for no time -- G64 should not smooth over this point )
X0.85100 Y0.54000
X0.85100 Y0.45000
X0.84900 Y0.45000
X0.84900 Y0.44900
X0.84800 Y0.44900
X0.84800 Y0.44800
X0.84700 Y0.44800
X0.84700 Y0.39100
X0.84600 Y0.39100
X0.84600 Y0.38800
X0.84500 Y0.38800
X0.84500 Y0.38500
X0.84400 Y0.38500
X0.84400 Y0.38300
X0.84300 Y0.38300
X0.84300 Y0.38000
X0.84200 Y0.38000
X0.84200 Y0.37800
X0.84100 Y0.37800
X0.84100 Y0.37700
X0.84000 Y0.37700
X0.84000 Y0.37500
X0.83900 Y0.37500
X0.83900 Y0.37400
X0.83800 Y0.37400
X0.83800 Y0.37200
X0.83700 Y0.37200
X0.83700 Y0.37100
X0.83600 Y0.37100
X0.83600 Y0.37000
X0.83500 Y0.37000
X0.83500 Y0.36900
X0.83400 Y0.36900
X0.83400 Y0.36800
X0.83300 Y0.36800
X0.83300 Y0.36600
X0.83200 Y0.36600
X0.83200 Y0.36500
X0.83100 Y0.36500
X0.83100 Y0.36400
X0.83000 Y0.36400
X0.83000 Y0.36300
X0.82900 Y0.36300
X0.82900 Y0.36200
X0.82800 Y0.36200
X0.82800 Y0.36100
X0.82700 Y0.36100
X0.82700 Y0.36000
X0.82600 Y0.36000
X0.82600 Y0.35900
X0.82500 Y0.35900
X0.82500 Y0.35800
X0.82400 Y0.35800
X0.82400 Y0.35700
X0.82300 Y0.35700
X0.82300 Y0.35600
X0.82200 Y0.35600
X0.82200 Y0.35500
X0.82100 Y0.35500
X0.82100 Y0.35400
X0.82000 Y0.35400
X0.82000 Y0.35300
X0.81900 Y0.35300
X0.81900 Y0.35200
X0.81800 Y0.35200
X0.81800 Y0.35100
X0.81700 Y0.35100
X0.81700 Y0.35000
X0.81600 Y0.35000
X0.81600 Y0.34900
X0.81500 Y0.34900
X0.81500 Y0.34800
X0.81400 Y0.34800
X0.81400 Y0.34700
X0.81300 Y0.34700
X0.81300 Y0.34600
X0.81200 Y0.34600
X0.81200 Y0.34500
X0.81100 Y0.34500
X0.81100 Y0.34400
X0.81000 Y0.34400
X0.81000 Y0.34300
X0.80900 Y0.34300
X0.80900 Y0.34200
X0.80800 Y0.34200
X0.80800 Y0.34100
X0.80700 Y0.34100
X0.80700 Y0.34000
X0.80600 Y0.34000
X0.80600 Y0.33900
X0.80500 Y0.33900
X0.80500 Y0.33800
X0.80400 Y0.33800
X0.80400 Y0.33700
X0.80300 Y0.33700
X0.80300 Y0.33600
X0.80200 Y0.33600
X0.80200 Y0.33500
X0.80100 Y0.33500
X0.80100 Y0.33400
X0.80000 Y0.33400
X0.80000 Y0.33300
X0.79900 Y0.33300
X0.79900 Y0.33200
X0.79800 Y0.33200
X0.79800 Y0.33100
X0.79700 Y0.33100
X0.79700 Y0.33000
X0.79600 Y0.33000
X0.79600 Y0.32900
X0.79500 Y0.32900
X0.79500 Y0.32800
X0.79400 Y0.32800
X0.79400 Y0.32700
X0.79300 Y0.32700
X0.79300 Y0.32600
X0.79200 Y0.32600
X0.79200 Y0.32500
X0.79100 Y0.32500
X0.79100 Y0.32400
X0.79000 Y0.32400
X0.79000 Y0.32300
X0.78900 Y0.32300
X0.78900 Y0.32200
X0.78800 Y0.32200
X0.78800 Y0.32100
X0.78700 Y0.32100
X0.78700 Y0.32000
X0.78600 Y0.32000
X0.78600 Y0.31900
X0.78500 Y0.31900
X0.78500 Y0.31800
X0.78400 Y0.31800
X0.78400 Y0.31700
X0.78300 Y0.31700
X0.78300 Y0.31600
X0.78200 Y0.31600
X0.78200 Y0.31500
X0.78100 Y0.31500
X0.78100 Y0.31400
X0.78000 Y0.31400
X0.78000 Y0.31300
X0.77900 Y0.31300
X0.77900 Y0.31200
X0.77800 Y0.31200
X0.77800 Y0.31100
X0.77700 Y0.31100
X0.77700 Y0.31000
X0.77600 Y0.31000
X0.77600 Y0.30900
X0.77500 Y0.30900
X0.77500 Y0.30800
X0.77400 Y0.30800
X0.77400 Y0.30700
X0.77300 Y0.30700
X0.77300 Y0.30600
X0.77200 Y0.30600
X0.77200 Y0.30500
X0.77100 Y0.30500
X0.77100 Y0.30400
X0.77000 Y0.30400
X0.77000 Y0.30300
X0.76900 Y0.30300
X0.76900 Y0.30200
X0.76800 Y0.30200
X0.76800 Y0.30100
X0.76700 Y0.30100
X0.76700 Y0.30000
X0.76600 Y0.30000
X0.76600 Y0.29900
X0.76500 Y0.29900
X0.76500 Y0.29800
X0.76400 Y0.29800
X0.76400 Y0.29700
X0.76300 Y0.29700
X0.76300 Y0.29600
X0.76200 Y0.29600
X0.76200 Y0.29500
X0.76100 Y0.29500
X0.76100 Y0.29400
X0.76000 Y0.29400
X0.76000 Y0.29300
X0.75900 Y0.29300
X0.75900 Y0.29200
X0.75800 Y0.29200
X0.75800 Y0.29100
X0.75700 Y0.29100
X0.75700 Y0.29000
X0.75600 Y0.29000
X0.75600 Y0.28900
X0.75500 Y0.28900
X0.75500 Y0.28800
X0.75400 Y0.28800
X0.75400 Y0.28700
X0.75300 Y0.28700
X0.75300 Y0.28600
X0.75200 Y0.28600
X0.75200 Y0.28500
X0.75100 Y0.28500
X0.75100 Y0.28400
X0.75000 Y0.28400
X0.75000 Y0.28300
X0.74900 Y0.28300
X0.74900 Y0.28200
X0.74800 Y0.28200
X0.74800 Y0.28100
X0.74700 Y0.28100
X0.74700 Y0.28000
X0.74600 Y0.28000
X0.74600 Y0.27900
X0.74500 Y0.27900
X0.74500 Y0.27800
X0.74400 Y0.27800
X0.74400 Y0.27700
X0.74300 Y0.27700
X0.74300 Y0.27600
X0.74200 Y0.27600
X0.74200 Y0.27500
X0.74100 Y0.27500
X0.74100 Y0.27400
X0.74000 Y0.27400
X0.74000 Y0.27300
X0.73900 Y0.27300
X0.73900 Y0.27200
X0.73800 Y0.27200
X0.73800 Y0.27100
X0.73700 Y0.27100
X0.73700 Y0.27000
X0.73600 Y0.27000
X0.73600 Y0.26900
X0.73500 Y0.26900
X0.73500 Y0.26800
X0.73400 Y0.26800
X0.73400 Y0.26700
X0.73300 Y0.26700
X0.73300 Y0.26600
X0.73200 Y0.26600
X0.73200 Y0.26500
X0.73100 Y0.26500
X0.73100 Y0.26400
X0.73000 Y0.26400
X0.73000 Y0.26300
X0.72900 Y0.26300
X0.72900 Y0.26200
X0.72700 Y0.26200
X0.72700 Y0.26100
X0.72500 Y0.26100
X0.72500 Y0.26000
X0.72400 Y0.26000
X0.72400 Y0.25900
X0.72200 Y0.25900
X0.72200 Y0.25800
X0.72000 Y0.25800
X0.72000 Y0.25700
X0.71800 Y0.25700
X0.71800 Y0.25600
X0.71500 Y0.25600
X0.71500 Y0.25500
X0.71100 Y0.25500
X0.71100 Y0.25400
X0.70400 Y0.25400
X0.70400 Y0.25300
X0.49700 Y0.25300
X0.49700 Y0.25400
X0.48900 Y0.25400
X0.48900 Y0.25500
X0.48500 Y0.25500
X0.48500 Y0.25600
X0.47300 Y0.25600
X0.47300 Y0.25700
X0.47100 Y0.25700
X0.47100 Y0.25800
X0.47000 Y0.25800
X0.47000 Y0.25900
X0.46800 Y0.25900
X0.46800 Y0.26000
X0.46000 Y0.26000
X0.46000 Y0.26900
X0.45900 Y0.26900
X0.45900 Y0.27000
X0.45800 Y0.27000
X0.45800 Y0.27200
X0.45700 Y0.27200
X0.45700 Y0.27400
X0.45600 Y0.27400
X0.45600 Y0.28500
X0.45500 Y0.28500
X0.45500 Y0.28900
X0.45400 Y0.28900
X0.45400 Y0.29700
X0.45300 Y0.29700
X0.45300 Y0.30400
X0.45400 Y0.30400
X0.45400 Y0.31100
X0.45500 Y0.31100
X0.45500 Y0.31400
X0.45600 Y0.31400
X0.45600 Y0.32600
X0.45700 Y0.32600
X0.45700 Y0.32800
X0.45800 Y0.32800
X0.45800 Y0.33000
X0.45900 Y0.33000
X0.45900 Y0.33100
X0.46000 Y0.33100
X0.46000 Y0.34000
X0.46100 Y0.34000
X0.46100 Y0.34100
X0.47000 Y0.34100
X0.47000 Y0.34200
X0.47100 Y0.34200
X0.47100 Y0.34300
X0.47300 Y0.34300
X0.47300 Y0.34400
X0.47500 Y0.34400
X0.47500 Y0.34500
X0.48800 Y0.34500
X0.48800 Y0.34600
X0.49100 Y0.34600
X0.49100 Y0.34700
X0.68200 Y0.34700
X0.68200 Y0.34800
X0.68300 Y0.34800
X0.68300 Y0.34900
X0.68400 Y0.34900
X0.68400 Y0.35000
X0.68500 Y0.35000
X0.68500 Y0.35100
X0.68600 Y0.35100
X0.68600 Y0.35200
X0.68700 Y0.35200
X0.68700 Y0.35300
X0.68800 Y0.35300
X0.68800 Y0.35400
X0.68900 Y0.35400
X0.68900 Y0.35500
X0.69000 Y0.35500
X0.69000 Y0.35600
X0.69100 Y0.35600
X0.69100 Y0.35700
X0.69200 Y0.35700
X0.69200 Y0.35800
X0.69300 Y0.35800
X0.69300 Y0.35900
X0.69400 Y0.35900
X0.69400 Y0.36000
X0.69500 Y0.36000
X0.69500 Y0.36100
X0.69600 Y0.36100
X0.69600 Y0.36200
X0.69700 Y0.36200
X0.69700 Y0.36300
X0.69800 Y0.36300
X0.69800 Y0.36400
X0.69900 Y0.36400
X0.69900 Y0.36500
X0.70000 Y0.36500
X0.70000 Y0.36600
X0.70100 Y0.36600
X0.70100 Y0.36700
X0.70200 Y0.36700
X0.70200 Y0.36800
X0.70300 Y0.36800
X0.70300 Y0.36900
X0.70400 Y0.36900
X0.70400 Y0.37000
X0.70500 Y0.37000
X0.70500 Y0.37100
X0.70600 Y0.37100
X0.70600 Y0.37200
X0.70700 Y0.37200
X0.70700 Y0.37300
X0.70800 Y0.37300
X0.70800 Y0.37400
X0.70900 Y0.37400
X0.70900 Y0.37500
X0.71000 Y0.37500
X0.71000 Y0.37600
X0.71100 Y0.37600
X0.71100 Y0.37700
X0.71200 Y0.37700
X0.71200 Y0.37800
X0.71300 Y0.37800
X0.71300 Y0.37900
X0.71400 Y0.37900
X0.71400 Y0.38000
X0.71500 Y0.38000
X0.71500 Y0.38100
X0.71600 Y0.38100
X0.71600 Y0.38200
X0.71700 Y0.38200
X0.71700 Y0.38300
X0.71800 Y0.38300
X0.71800 Y0.38400
X0.71900 Y0.38400
X0.71900 Y0.38500
X0.72000 Y0.38500
X0.72000 Y0.38600
X0.72100 Y0.38600
X0.72100 Y0.38700
X0.72200 Y0.38700
X0.72200 Y0.38800
X0.72300 Y0.38800
X0.72300 Y0.38900
X0.72400 Y0.38900
X0.72400 Y0.39000
X0.72500 Y0.39000
X0.72500 Y0.39100
X0.72600 Y0.39100
X0.72600 Y0.39200
X0.72700 Y0.39200
X0.72700 Y0.39300
X0.72800 Y0.39300
X0.72800 Y0.39400
X0.72900 Y0.39400
X0.72900 Y0.39500
X0.73000 Y0.39500
X0.73000 Y0.39600
X0.73100 Y0.39600
X0.73100 Y0.39700
X0.73200 Y0.39700
X0.73200 Y0.39800
X0.73300 Y0.39800
X0.73300 Y0.39900
X0.73400 Y0.39900
X0.73400 Y0.40000
X0.73500 Y0.40000
X0.73500 Y0.40100
X0.73600 Y0.40100
X0.73600 Y0.40200
X0.73700 Y0.40200
X0.73700 Y0.40300
X0.73800 Y0.40300
X0.73800 Y0.40400
X0.73900 Y0.40400
X0.73900 Y0.40500
X0.74000 Y0.40500
X0.74000 Y0.40600
X0.74100 Y0.40600
X0.74100 Y0.40700
X0.74200 Y0.40700
X0.74200 Y0.40800
X0.74300 Y0.40800
X0.74300 Y0.40900
X0.74400 Y0.40900
X0.74400 Y0.41000
X0.74500 Y0.41000
X0.74500 Y0.41100
X0.74600 Y0.41100
X0.74600 Y0.41200
X0.74700 Y0.41200
X0.74700 Y0.41300
X0.74800 Y0.41300
X0.74800 Y0.41400
X0.74900 Y0.41400
X0.74900 Y0.41500
X0.75000 Y0.41500
X0.75000 Y0.41600
X0.75100 Y0.41600
X0.75100 Y0.41700
X0.75200 Y0.41700
X0.75200 Y0.41800
X0.75300 Y0.41800
X0.75300 Y0.45000
X0.75000 Y0.45000
X0.75000 Y0.55000
X0.75100 Y0.55000
X0.75100 Y0.55100
X0.85000 Y0.55100
X0.85000 Y0.55000
X0.85100 Y0.55000
X0.85100 Y0.54000
G04 P0 ( dwell for no time -- G64 should not smooth over this point )
G00 Z0.19685 ( retract )

G00 X1.63700 Y0.54000 ( rapid move to begin. )
G01 Z-0.01969 F1.96850 ( plunge. )
G04 P0 ( dwell for no time -- G64 should not smooth over this point )
X1.63700 Y0.54000
X1.63800 Y0.54000
X1.63800 Y0.53900
X1.63900 Y0.53900
X1.63900 Y0.53800
X1.64000 Y0.53800
X1.64000 Y0.53700
X1.64100 Y0.53700
X1.64100 Y0.53500
X1.64200 Y0.53500
X1.64200 Y0.53400
X1.64300 Y0.53400
X1.64300 Y0.53300
X1.64400 Y0.53300
X1.64400 Y0.53200
X1.64600 Y0.53200
X1.64600 Y0.53000
X1.64700 Y0.53000
X1.64700 Y0.52900
X1.64800 Y0.52900
X1.64800 Y0.52500
X1.64900 Y0.52500
X1.64900 Y0.52200
X1.65000 Y0.52200
X1.65000 Y0.51600
X1.65100 Y0.51600
X1.65100 Y0.48500
X1.65000 Y0.48500
X1.65000 Y0.47900
X1.64900 Y0.47900
X1.64900 Y0.47600
X1.64800 Y0.47600
X1.64800 Y0.47200
X1.64700 Y0.47200
X1.64700 Y0.47100
X1.64600 Y0.47100
X1.64600 Y0.46900
X1.64500 Y0.46900
X1.64500 Y0.46800
X1.64400 Y0.46800
X1.64400 Y0.46700
X1.64300 Y0.46700
X1.64300 Y0.46600
X1.64200 Y0.46600
X1.64200 Y0.46500
X1.64100 Y0.46500
X1.64100 Y0.46400
X1.64000 Y0.46400
X1.64000 Y0.46300
X1.63900 Y0.46300
X1.63900 Y0.46200
X1.63800 Y0.46200
X1.63800 Y0.46100
X1.63700 Y0.46100
X1.63700 Y0.46000
X1.63600 Y0.46000
X1.63600 Y0.45900
X1.63500 Y0.45900
X1.63500 Y0.45800
X1.63400 Y0.45800
X1.63400 Y0.45700
X1.63300 Y0.45700
X1.63300 Y0.45600
X1.63100 Y0.45600
X1.63100 Y0.45500
X1.62900 Y0.45500
X1.62900 Y0.45400
X1.62700 Y0.45400
X1.62700 Y0.45300
X1.62600 Y0.45300
X1.62600 Y0.45200
X1.62000 Y0.45200
X1.62000 Y0.45100
X1.61400 Y0.45100
X1.61400 Y0.45000
X1.58700 Y0.45000
X1.58700 Y0.45100
X1.58100 Y0.45100
X1.58100 Y0.45200
X1.57400 Y0.45200
X1.57400 Y0.45300
X1.01900 Y0.45300
X1.01900 Y0.45200
X1.01800 Y0.45200
X1.01800 Y0.45100
X1.01700 Y0.45100
X1.01700 Y0.45000
X1.01600 Y0.45000
X1.01600 Y0.44900
X1.01500 Y0.44900
X1.01500 Y0.44800
X1.01400 Y0.44800
X1.01400 Y0.44700
X1.01300 Y0.44700
X1.01300 Y0.44600
X1.01200 Y0.44600
X1.01200 Y0.44500
X1.01100 Y0.44500
X1.01100 Y0.44400
X1.01000 Y0.44400
X1.01000 Y0.44300
X1.00900 Y0.44300
X1.00900 Y0.44200
X1.00800 Y0.44200
X1.00800 Y0.44100
X1.00700 Y0.44100
X1.00700 Y0.44000
X1.00600 Y0.44000
X1.00600 Y0.43900
X1.00500 Y0.43900
X1.00500 Y0.43800
X1.00400 Y0.43800
X1.00400 Y0.43700
X1.00300 Y0.43700
X1.00300 Y0.43600
X1.00200 Y0.43600
X1.00200 Y0.43500
X1.00100 Y0.43500
X1.00100 Y0.43400
X1.00000 Y0.43400
X1.00000 Y0.43300
X0.99900 Y0.43300
X0.99900 Y0.43200
X0.99800 Y0.43200
X0.99800 Y0.43100
X0.99700 Y0.43100
X0.99700 Y0.43000
X0.99600 Y0.43000
X0.99600 Y0.42900
X0.99500 Y0.42900
X0.99500 Y0.42800
X0.99400 Y0.42800
X0.99400 Y0.42700
X0.99300 Y0.42700
X0.99300 Y0.42600
X0.99200 Y0.42600
X0.99200 Y0.42500
X0.99100 Y0.42500
X0.99100 Y0.42400
X0.99000 Y0.42400
X0.99000 Y0.42300
X0.98900 Y0.42300
X0.98900 Y0.42200
X0.98800 Y0.42200
X0.98800 Y0.42100
X0.98700 Y0.42100
X0.98700 Y0.42000
X0.98600 Y0.42000
X0.98600 Y0.41900
X0.98500 Y0.41900
X0.98500 Y0.41800
X0.98400 Y0.41800
X0.98400 Y0.41700
X0.98300 Y0.41700
X0.98300 Y0.41600
X0.98200 Y0.41600
X0.98200 Y0.41500
X0.98100 Y0.41500
X0.98100 Y0.41400
X0.98000 Y0.41400
X0.98000 Y0.41300
X0.97900 Y0.41300
X0.97900 Y0.41200
X0.97800 Y0.41200
X0.97800 Y0.41100
X0.97700 Y0.41100
X0.97700 Y0.41000
X0.97600 Y0.41000
X0.97600 Y0.40900
X0.97500 Y0.40900
X0.97500 Y0.40800
X0.97400 Y0.40800
X0.97400 Y0.40700
X0.97300 Y0.40700
X0.97300 Y0.40600
X0.97200 Y0.40600
X0.97200 Y0.40500
X0.97100 Y0.40500
X0.97100 Y0.40400
X0.97000 Y0.40400
X0.97000 Y0.40300
X0.96900 Y0.40300
X0.96900 Y0.40200
X0.96800 Y0.40200
X0.96800 Y0.40100
X0.96700 Y0.40100
X0.96700 Y0.40000
X0.96600 Y0.40000
X0.96600 Y0.39900
X0.96500 Y0.39900
X0.96500 Y0.39800
X0.96400 Y0.39800
X0.96400 Y0.39700
X0.96300 Y0.39700
X0.96300 Y0.39600
X0.96200 Y0.39600
X0.96200 Y0.39500
X0.96100 Y0.39500
X0.96100 Y0.39400
X0.96000 Y0.39400
X0.96000 Y0.39300
X0.95900 Y0.39300
X0.95900 Y0.39200
X0.95800 Y0.39200
X0.95800 Y0.39100
X0.95700 Y0.39100
X0.95700 Y0.39000
X0.95600 Y0.39000
X0.95600 Y0.38900
X0.95500 Y0.38900
X0.95500 Y0.38800
X0.95400 Y0.38800
X0.95400 Y0.38700
X0.95300 Y0.38700
X0.95300 Y0.38600
X0.95200 Y0.38600
X0.95200 Y0.38500
X0.95100 Y0.38500
X0.95100 Y0.38400
X0.95000 Y0.38400
X0.95000 Y0.38300
X0.94900 Y0.38300
X0.94900 Y0.38200
X0.94800 Y0.38200
X0.94800 Y0.38100
X0.94700 Y0.38100
X0.94700 Y0.31800
X0.94900 Y0.31800
X0.94900 Y0.31700
X0.95000 Y0.31700
X0.95000 Y0.31600
X0.95100 Y0.31600
X0.95100 Y0.31500
X0.95200 Y0.31500
X0.95200 Y0.31400
X0.95300 Y0.31400
X0.95300 Y0.31300
X0.95400 Y0.31300
X0.95400 Y0.31200
X0.95500 Y0.31200
X0.95500 Y0.31100
X0.95600 Y0.31100
X0.95600 Y0.31000
X0.95700 Y0.31000
X0.95700 Y0.30900
X0.95800 Y0.30900
X0.95800 Y0.30800
X0.95900 Y0.30800
X0.95900 Y0.30700
X0.96000 Y0.30700
X0.96000 Y0.30600
X0.96100 Y0.30600
X0.96100 Y0.30500
X0.96200 Y0.30500
X0.96200 Y0.30400
X0.96300 Y0.30400
X0.96300 Y0.30300
X0.96400 Y0.30300
X0.96400 Y0.30200
X0.96500 Y0.30200
X0.96500 Y0.30100
X0.96600 Y0.30100
X0.96600 Y0.30000
X0.96700 Y0.30000
X0.96700 Y0.29900
X0.96800 Y0.29900
X0.96800 Y0.29800
X0.96900 Y0.29800
X0.96900 Y0.29700
X0.97000 Y0.29700
X0.97000 Y0.29600
X0.97100 Y0.29600
X0.97100 Y0.29500
X0.97200 Y0.29500
X0.97200 Y0.29400
X0.97300 Y0.29400
X0.97300 Y0.29300
X0.97400 Y0.29300
X0.97400 Y0.29200
X0.97500 Y0.29200
X0.97500 Y0.29100
X0.97600 Y0.29100
X0.97600 Y0.29000
X0.97700 Y0.29000
X0.97700 Y0.28900
X0.97800 Y0.28900
X0.97800 Y0.28800
X0.97900 Y0.28800
X0.97900 Y0.28700
X0.98000 Y0.28700
X0.98000 Y0.28600
X0.98100 Y0.28600
X0.98100 Y0.28500
X0.98200 Y0.28500
X0.98200 Y0.28400
X0.98300 Y0.28400
X0.98300 Y0.28300
X0.98400 Y0.28300
X0.98400 Y0.28200
X0.98500 Y0.28200
X0.98500 Y0.28100
X0.98600 Y0.28100
X0.98600 Y0.28000
X0.98700 Y0.28000
X0.98700 Y0.27900
X0.98800 Y0.27900
X0.98800 Y0.27800
X0.98900 Y0.27800
X0.98900 Y0.27700
X0.99000 Y0.27700
X0.99000 Y0.27600
X0.99100 Y0.27600
X0.99100 Y0.27500
X0.99200 Y0.27500
X0.99200 Y0.27400
X0.99300 Y0.27400
X0.99300 Y0.27300
X0.99400 Y0.27300
X0.99400 Y0.27200
X0.99500 Y0.27200
X0.99500 Y0.27100
X0.99600 Y0.27100
X0.99600 Y0.27000
X0.99700 Y0.27000
X0.99700 Y0.26900
X0.99800 Y0.26900
X0.99800 Y0.26800
X0.99900 Y0.26800
X0.99900 Y0.26700
X1.00000 Y0.26700
X1.00000 Y0.26600
X1.00100 Y0.26600
X1.00100 Y0.26500
X1.00200 Y0.26500
X1.00200 Y0.26400
X1.00300 Y0.26400
X1.00300 Y0.26300
X1.00400 Y0.26300
X1.00400 Y0.26200
X1.00500 Y0.26200
X1.00500 Y0.26100
X1.00600 Y0.26100
X1.00600 Y0.26000
X1.00700 Y0.26000
X1.00700 Y0.25900
X1.00800 Y0.25900
X1.00800 Y0.25800
X1.00900 Y0.25800
X1.00900 Y0.25700
X1.01000 Y0.25700
X1.01000 Y0.25600
X1.01100 Y0.25600
X1.01100 Y0.25500
X1.02100 Y0.25500
X1.02100 Y0.25400
X1.02200 Y0.25400
X1.02200 Y0.25300
X1.02300 Y0.25300
X1.02300 Y0.25200
X1.02400 Y0.25200
X1.02400 Y0.25100
X1.05000 Y0.25100
X1.05000 Y0.25000
X1.05100 Y0.25000
X1.05100 Y0.15000
X0.95000 Y0.15000
X0.95000 Y0.17700
X0.94900 Y0.17700
X0.94900 Y0.17800
X0.94800 Y0.17800
X0.94800 Y0.17900
X0.94700 Y0.17900
X0.94700 Y0.18000
X0.94600 Y0.18000
X0.94600 Y0.18800
X0.94500 Y0.18800
X0.94500 Y0.18900
X0.94400 Y0.18900
X0.94400 Y0.19000
X0.94300 Y0.19000
X0.94300 Y0.19100
X0.94200 Y0.19100
X0.94200 Y0.19200
X0.94100 Y0.19200
X0.94100 Y0.19300
X0.94000 Y0.19300
X0.94000 Y0.19400
X0.93900 Y0.19400
X0.93900 Y0.19500
X0.93800 Y0.19500
X0.93800 Y0.19600
X0.93700 Y0.19600
X0.93700 Y0.19700
X0.93600 Y0.19700
X0.93600 Y0.19800
X0.93500 Y0.19800
X0.93500 Y0.19900
X0.93400 Y0.19900
X0.93400 Y0.20000
X0.93300 Y0.20000
X0.93300 Y0.20100
X0.93200 Y0.20100
X0.93200 Y0.20200
X0.93100 Y0.20200
X0.93100 Y0.20300
X0.93000 Y0.20300
X0.93000 Y0.20400
X0.92900 Y0.20400
X0.92900 Y0.20500
X0.92800 Y0.20500
X0.92800 Y0.20600
X0.92700 Y0.20600
X0.92700 Y0.20700
X0.92600 Y0.20700
X0.92600 Y0.20800
X0.92500 Y0.20800
X0.92500 Y0.20900
X0.92400 Y0.20900
X0.92400 Y0.21000
X0.92300 Y0.21000
X0.92300 Y0.21100
X0.92200 Y0.21100
X0.92200 Y0.21200
X0.92100 Y0.21200
X0.92100 Y0.21300
X0.92000 Y0.21300
X0.92000 Y0.21400
X0.91900 Y0.21400
X0.91900 Y0.21500
X0.91800 Y0.21500
X0.91800 Y0.21600
X0.91700 Y0.21600
X0.91700 Y0.21700
X0.91600 Y0.21700
X0.91600 Y0.21800
X0.91500 Y0.21800
X0.91500 Y0.21900
X0.91400 Y0.21900
X0.91400 Y0.22000
X0.91300 Y0.22000
X0.91300 Y0.22100
X0.91200 Y0.22100
X0.91200 Y0.22200
X0.91100 Y0.22200
X0.91100 Y0.22300
X0.91000 Y0.22300
X0.91000 Y0.22400
X0.90900 Y0.22400
X0.90900 Y0.22500
X0.90800 Y0.22500
X0.90800 Y0.22600
X0.90700 Y0.22600
X0.90700 Y0.22700
X0.90600 Y0.22700
X0.90600 Y0.22800
X0.90500 Y0.22800
X0.90500 Y0.22900
X0.90400 Y0.22900
X0.90400 Y0.23000
X0.90300 Y0.23000
X0.90300 Y0.23100
X0.90200 Y0.23100
X0.90200 Y0.23200
X0.90100 Y0.23200
X0.90100 Y0.23300
X0.90000 Y0.23300
X0.90000 Y0.23400
X0.89900 Y0.23400
X0.89900 Y0.23500
X0.89800 Y0.23500
X0.89800 Y0.23600
X0.89700 Y0.23600
X0.89700 Y0.23700
X0.89600 Y0.23700
X0.89600 Y0.23800
X0.89500 Y0.23800
X0.89500 Y0.23900
X0.89400 Y0.23900
X0.89400 Y0.24000
X0.89300 Y0.24000
X0.89300 Y0.24100
X0.89200 Y0.24100
X0.89200 Y0.24200
X0.89100 Y0.24200
X0.89100 Y0.24300
X0.89000 Y0.24300
X0.89000 Y0.24400
X0.88900 Y0.24400
X0.88900 Y0.24500
X0.88800 Y0.24500
X0.88800 Y0.24600
X0.88700 Y0.24600
X0.88700 Y0.24700
X0.88600 Y0.24700
X0.88600 Y0.24800
X0.88500 Y0.24800
X0.88500 Y0.24900
X0.88400 Y0.24900
X0.88400 Y0.25000
X0.88300 Y0.25000
X0.88300 Y0.25100
X0.88200 Y0.25100
X0.88200 Y0.25200
X0.88100 Y0.25200
X0.88100 Y0.25300
X0.88000 Y0.25300
X0.88000 Y0.25400
X0.87900 Y0.25400
X0.87900 Y0.25500
X0.87800 Y0.25500
X0.87800 Y0.25600
X0.87700 Y0.25600
X0.87700 Y0.25700
X0.87600 Y0.25700
X0.87600 Y0.25800
X0.87500 Y0.25800
X0.87500 Y0.25900
X0.87400 Y0.25900
X0.87400 Y0.26000
X0.87300 Y0.26000
X0.87300 Y0.26100
X0.87200 Y0.26100
X0.87200 Y0.26200
X0.87100 Y0.26200
X0.87100 Y0.26300
X0.87000 Y0.26300
X0.87000 Y0.26400
X0.86900 Y0.26400
X0.86900 Y0.26500
X0.86800 Y0.26500
X0.86800 Y0.26600
X0.86700 Y0.26600
X0.86700 Y0.26800
X0.86600 Y0.26800
X0.86600 Y0.26900
X0.86500 Y0.26900
X0.86500 Y0.27000
X0.86400 Y0.27000
X0.86400 Y0.27100
X0.86300 Y0.27100
X0.86300 Y0.27200
X0.86200 Y0.27200
X0.86200 Y0.27400
X0.86100 Y0.27400
X0.86100 Y0.27600
X0.86000 Y0.27600
X0.86000 Y0.27700
X0.85900 Y0.27700
X0.85900 Y0.27800
X0.85800 Y0.27800
X0.85800 Y0.28000
X0.85700 Y0.28000
X0.85700 Y0.28200
X0.85600 Y0.28200
X0.85600 Y0.28500
X0.85500 Y0.28500
X0.85500 Y0.29000
X0.85400 Y0.29000
X0.85400 Y0.29700
X0.85300 Y0.29700
X0.85300 Y0.40400
X0.85400 Y0.40400
X0.85400 Y0.41100
X0.85500 Y0.41100
X0.85500 Y0.41500
X0.85600 Y0.41500
X0.85600 Y0.41800
X0.85700 Y0.41800
X0.85700 Y0.42000
X0.85800 Y0.42000
X0.85800 Y0.42200
X0.85900 Y0.42200
X0.85900 Y0.42400
X0.86000 Y0.42400
X0.86000 Y0.42500
X0.86100 Y0.42500
X0.86100 Y0.42700
X0.86200 Y0.42700
X0.86200 Y0.42800
X0.86300 Y0.42800
X0.86300 Y0.42900
X0.86400 Y0.42900
X0.86400 Y0.43000
X0.86500 Y0.43000
X0.86500 Y0.43100
X0.86600 Y0.43100
X0.86600 Y0.43200
X0.86700 Y0.43200
X0.86700 Y0.43400
X0.86800 Y0.43400
X0.86800 Y0.43500
X0.86900 Y0.43500
X0.86900 Y0.43600
X0.87000 Y0.43600
X0.87000 Y0.43700
X0.87100 Y0.43700
X0.87100 Y0.43800
X0.87200 Y0.43800
X0.87200 Y0.43900
X0.87300 Y0.43900
X0.87300 Y0.44000
X0.87400 Y0.44000
X0.87400 Y0.44100
X0.87500 Y0.44100
X0.87500 Y0.44200
X0.87600 Y0.44200
X0.87600 Y0.44300
X0.87700 Y0.44300
X0.87700 Y0.44400
X0.87800 Y0.44400
X0.87800 Y0.44500
X0.87900 Y0.44500
X0.87900 Y0.44600
X0.88000 Y0.44600
X0.88000 Y0.44700
X0.88100 Y0.44700
X0.88100 Y0.44800
X0.88200 Y0.44800
X0.88200 Y0.44900
X0.88300 Y0.44900
X0.88300 Y0.45000
X0.88400 Y0.45000
X0.88400 Y0.45100
X0.88500 Y0.45100
X0.88500 Y0.45200
X0.88600 Y0.45200
X0.88600 Y0.45300
X0.88700 Y0.45300
X0.88700 Y0.45400
X0.88800 Y0.45400
X0.88800 Y0.45500
X0.88900 Y0.45500
X0.88900 Y0.45600
X0.89000 Y0.45600
X0.89000 Y0.45700
X0.89100 Y0.45700
X0.89100 Y0.45800
X0.89200 Y0.45800
X0.89200 Y0.45900
X0.89300 Y0.45900
X0.89300 Y0.46000
X0.89400 Y0.46000
X0.89400 Y0.46100
X0.89500 Y0.46100
X0.89500 Y0.46200
X0.89600 Y0.46200
X0.89600 Y0.46300
X0.89700 Y0.46300
X0.89700 Y0.46400
X0.89800 Y0.46400
X0.89800 Y0.46500
X0.89900 Y0.46500
X0.89900 Y0.46600
X0.90000 Y0.46600
X0.90000 Y0.46700
X0.90100 Y0.46700
X0.90100 Y0.46800
X0.90200 Y0.46800
X0.90200 Y0.46900
X0.90300 Y0.46900
X0.90300 Y0.47000
X0.90400 Y0.47000
X0.90400 Y0.47100
X0.90500 Y0.47100
X0.90500 Y0.47200
X0.90600 Y0.47200
X0.90600 Y0.47300
X0.90700 Y0.47300
X0.90700 Y0.47400
X0.90800 Y0.47400
X0.90800 Y0.47500
X0.90900 Y0.47500
X0.90900 Y0.47600
X0.91000 Y0.47600
X0.91000 Y0.47700
X0.91100 Y0.47700
X0.91100 Y0.47800
X0.91200 Y0.47800
X0.91200 Y0.47900
X0.91300 Y0.47900
X0.91300 Y0.48000
X0.91400 Y0.48000
X0.91400 Y0.48100
X0.91500 Y0.48100
X0.91500 Y0.48200
X0.91600 Y0.48200
X0.91600 Y0.48300
X0.91700 Y0.48300
X0.91700 Y0.48400
X0.91800 Y0.48400
X0.91800 Y0.48500
X0.91900 Y0.48500
X0.91900 Y0.48600
X0.92000 Y0.48600
X0.92000 Y0.48700
X0.92100 Y0.48700
X0.92100 Y0.48800
X0.92200 Y0.48800
X0.92200 Y0.48900
X0.92300 Y0.48900
X0.92300 Y0.49000
X0.92400 Y0.49000
X0.92400 Y0.49100
X0.92500 Y0.49100
X0.92500 Y0.49200
X0.92600 Y0.49200
X0.92600 Y0.49300
X0.92700 Y0.49300
X0.92700 Y0.49400
X0.92800 Y0.49400
X0.92800 Y0.49500
X0.92900 Y0.49500
X0.92900 Y0.49600
X0.93000 Y0.49600
X0.93000 Y0.49700
X0.93100 Y0.49700
X0.93100 Y0.49800
X0.93200 Y0.49800
X0.93200 Y0.49900
X0.93300 Y0.49900
X0.93300 Y0.50000
X0.93400 Y0.50000
X0.93400 Y0.50100
X0.93500 Y0.50100
X0.93500 Y0.50200
X0.93600 Y0.50200
X0.93600 Y0.50300
X0.93700 Y0.50300
X0.93700 Y0.50400
X0.93800 Y0.50400
X0.93800 Y0.50500
X0.93900 Y0.50500
X0.93900 Y0.50600
X0.94000 Y0.50600
X0.94000 Y0.50700
X0.94100 Y0.50700
X0.94100 Y0.50800
X0.94200 Y0.50800
X0.94200 Y0.50900
X0.94300 Y0.50900
X0.94300 Y0.51000
X0.94400 Y0.51000
X0.94400 Y0.51100
X0.94500 Y0.51100
X0.94500 Y0.51200
X0.94600 Y0.51200
X0.94600 Y0.51300
X0.94700 Y0.51300
X0.94700 Y0.51400
X0.94800 Y0.51400
X0.94800 Y0.51500
X0.94900 Y0.51500
X0.94900 Y0.51600
X0.95000 Y0.51600
X0.95000 Y0.51700
X0.95100 Y0.51700
X0.95100 Y0.51800
X0.95200 Y0.51800
X0.95200 Y0.51900
X0.95300 Y0.51900
X0.95300 Y0.52000
X0.95400 Y0.52000
X0.95400 Y0.52100
X0.95500 Y0.52100
X0.95500 Y0.52200
X0.95600 Y0.52200
X0.95600 Y0.52300
X0.95700 Y0.52300
X0.95700 Y0.52400
X0.95800 Y0.52400
X0.95800 Y0.52500
X0.95900 Y0.52500
X0.95900 Y0.52600
X0.96000 Y0.52600
X0.96000 Y0.52700
X0.96100 Y0.52700
X0.96100 Y0.52800
X0.96200 Y0.52800
X0.96200 Y0.52900
X0.96300 Y0.52900
X0.96300 Y0.53000
X0.96400 Y0.53000
X0.96400 Y0.53100
X0.96500 Y0.53100
X0.96500 Y0.53200
X0.96700 Y0.53200
X0.96700 Y0.53300
X0.96800 Y0.53300
X0.96800 Y0.53400
X0.96900 Y0.53400
X0.96900 Y0.53500
X0.97000 Y0.53500
X0.97000 Y0.53600
X0.97100 Y0.53600
X0.97100 Y0.53700
X0.97200 Y0.53700
X0.97200 Y0.53800
X0.97400 Y0.53800
X0.97400 Y0.53900
X0.97500 Y0.53900
X0.97500 Y0.54000
X0.97700 Y0.54000
X0.97700 Y0.54100
X0.97800 Y0.54100
X0.97800 Y0.54200
X0.98000 Y0.54200
X0.98000 Y0.54300
X0.98300 Y0.54300
X0.98300 Y0.54400
X0.98500 Y0.54400
X0.98500 Y0.54500
X0.98800 Y0.54500
X0.98800 Y0.54600
X0.99100 Y0.54600
X0.99100 Y0.54700
X1.57400 Y0.54700
X1.57400 Y0.54800
X1.57500 Y0.54800
X1.57500 Y0.54900
X1.58100 Y0.54900
X1.58100 Y0.55000
X1.58700 Y0.55000
X1.58700 Y0.55100
X1.61400 Y0.55100
X1.61400 Y0.55000
X1.62000 Y0.55000
X1.62000 Y0.54900
X1.62600 Y0.54900
X1.62600 Y0.54800
X1.62700 Y0.54800
X1.62700 Y0.54700
X1.62800 Y0.54700
X1.62800 Y0.54600
X1.63000 Y0.54600
X1.63000 Y0.54500
X1.63100 Y0.54500
X1.63100 Y0.54400
X1.63300 Y0.54400
X1.63300 Y0.54300
X1.63400 Y0.54300
X1.63400 Y0.54200
X1.63500 Y0.54200
X1.63500 Y0.54100
X1.63700 Y0.54100
X1.63700 Y0.54000
G04 P0 ( dwell for no time -- G64 should not smooth over this point )
G00 Z0.19685 ( retract )

G00 X1.82400 Y0.54000 ( rapid move to begin. )
G01 Z-0.01969 F1.96850 ( plunge. )
G04 P0 ( dwell for no time -- G64 should not smooth over this point )
X1.82400 Y0.54000
X1.82500 Y0.54000
X1.82500 Y0.53900
X1.82700 Y0.53900
X1.82700 Y0.53800
X1.82800 Y0.53800
X1.82800 Y0.53700
X1.82900 Y0.53700
X1.82900 Y0.53600
X1.83000 Y0.53600
X1.83000 Y0.53500
X1.83100 Y0.53500
X1.83100 Y0.53400
X1.83200 Y0.53400
X1.83200 Y0.53300
X1.83400 Y0.53300
X1.83400 Y0.53200
X1.83500 Y0.53200
X1.83500 Y0.53100
X1.83600 Y0.53100
X1.83600 Y0.53000
X1.83700 Y0.53000
X1.83700 Y0.52900
X1.83800 Y0.52900
X1.83800 Y0.52800
X1.83900 Y0.52800
X1.83900 Y0.52700
X1.84000 Y0.52700
X1.84000 Y0.52600
X1.84100 Y0.52600
X1.84100 Y0.52500
X1.84200 Y0.52500
X1.84200 Y0.52400
X1.84300 Y0.52400
X1.84300 Y0.52300
X1.84400 Y0.52300
X1.84400 Y0.52200
X1.84500 Y0.52200
X1.84500 Y0.52100
X1.84600 Y0.52100
X1.84600 Y0.52000
X1.84700 Y0.52000
X1.84700 Y0.51900
X1.84800 Y0.51900
X1.84800 Y0.51800
X1.84900 Y0.51800
X1.84900 Y0.51700
X1.85000 Y0.51700
X1.85000 Y0.51600
X1.85100 Y0.51600
X1.85100 Y0.51500
X1.85200 Y0.51500
X1.85200 Y0.51400
X1.85300 Y0.51400
X1.85300 Y0.51300
X1.85400 Y0.51300
X1.85400 Y0.51200
X1.85500 Y0.51200
X1.85500 Y0.51100
X1.85600 Y0.51100
X1.85600 Y0.51000
X1.85700 Y0.51000
X1.85700 Y0.50900
X1.85800 Y0.50900
X1.85800 Y0.50800
X1.85900 Y0.50800
X1.85900 Y0.50700
X1.86000 Y0.50700
X1.86000 Y0.50600
X1.86100 Y0.50600
X1.86100 Y0.50500
X1.86200 Y0.50500
X1.86200 Y0.50400
X1.86300 Y0.50400
X1.86300 Y0.50300
X1.86400 Y0.50300
X1.86400 Y0.50200
X1.86500 Y0.50200
X1.86500 Y0.50100
X1.86600 Y0.50100
X1.86600 Y0.50000
X1.86700 Y0.50000
X1.86700 Y0.49900
X1.86800 Y0.49900
X1.86800 Y0.49800
X1.86900 Y0.49800
X1.86900 Y0.49700
X1.87000 Y0.49700
X1.87000 Y0.49600
X1.87100 Y0.49600
X1.87100 Y0.49500
X1.87200 Y0.49500
X1.87200 Y0.49400
X1.87300 Y0.49400
X1.87300 Y0.49300
X1.87400 Y0.49300
X1.87400 Y0.49200
X1.87500 Y0.49200
X1.87500 Y0.49100
X1.87600 Y0.49100
X1.87600 Y0.49000
X1.87700 Y0.49000
X1.87700 Y0.48900
X1.87800 Y0.48900
X1.87800 Y0.48800
X1.87900 Y0.48800
X1.87900 Y0.48700
X1.88000 Y0.48700
X1.88000 Y0.48600
X1.88100 Y0.48600
X1.88100 Y0.48500
X1.88200 Y0.48500
X1.88200 Y0.48400
X1.88300 Y0.48400
X1.88300 Y0.48300
X1.88400 Y0.48300
X1.88400 Y0.48200
X1.88500 Y0.48200
X1.88500 Y0.48100
X1.88600 Y0.48100
X1.88600 Y0.48000
X1.88700 Y0.48000
X1.88700 Y0.47900
X1.88800 Y0.47900
X1.88800 Y0.47800
X1.88900 Y0.47800
X1.88900 Y0.47700
X1.89000 Y0.47700
X1.89000 Y0.47600
X1.89100 Y0.47600
X1.89100 Y0.47500
X1.89200 Y0.47500
X1.89200 Y0.47400
X1.89300 Y0.47400
X1.89300 Y0.47300
X1.89400 Y0.47300
X1.89400 Y0.47200
X1.89500 Y0.47200
X1.89500 Y0.47100
X1.89600 Y0.47100
X1.89600 Y0.47000
X1.89700 Y0.47000
X1.89700 Y0.46900
X1.89800 Y0.46900
X1.89800 Y0.46800
X1.89900 Y0.46800
X1.89900 Y0.46700
X1.90000 Y0.46700
X1.90000 Y0.46600
X1.90100 Y0.46600
X1.90100 Y0.46500
X1.90200 Y0.46500
X1.90200 Y0.46400
X1.90300 Y0.46400
X1.90300 Y0.46300
X1.90400 Y0.46300
X1.90400 Y0.46200
X1.90500 Y0.46200
X1.90500 Y0.46100
X1.90600 Y0.46100
X1.90600 Y0.46000
X1.90700 Y0.46000
X1.90700 Y0.45900
X1.90800 Y0.45900
X1.90800 Y0.45800
X1.90900 Y0.45800
X1.90900 Y0.45700
X1.91000 Y0.45700
X1.91000 Y0.45600
X1.91100 Y0.45600
X1.91100 Y0.45500
X1.91200 Y0.45500
X1.91200 Y0.45400
X1.91300 Y0.45400
X1.91300 Y0.45300
X1.91400 Y0.45300
X1.91400 Y0.45200
X1.91500 Y0.45200
X1.91500 Y0.45100
X1.91600 Y0.45100
X1.91600 Y0.45000
X1.91700 Y0.45000
X1.91700 Y0.44900
X1.91800 Y0.44900
X1.91800 Y0.44800
X1.91900 Y0.44800
X1.91900 Y0.44700
X1.92000 Y0.44700
X1.92000 Y0.44600
X1.92100 Y0.44600
X1.92100 Y0.44500
X1.92200 Y0.44500
X1.92200 Y0.44400
X1.92300 Y0.44400
X1.92300 Y0.44300
X1.92400 Y0.44300
X1.92400 Y0.44200
X1.92500 Y0.44200
X1.92500 Y0.44100
X1.92600 Y0.44100
X1.92600 Y0.44000
X1.92700 Y0.44000
X1.92700 Y0.43900
X1.92800 Y0.43900
X1.92800 Y0.43800
X1.92900 Y0.43800
X1.92900 Y0.43700
X1.93000 Y0.43700
X1.93000 Y0.43600
X1.93100 Y0.43600
X1.93100 Y0.43500
X1.93200 Y0.43500
X1.93200 Y0.43400
X1.93300 Y0.43400
X1.93300 Y0.43200
X1.93400 Y0.43200
X1.93400 Y0.43100
X1.93500 Y0.43100
X1.93500 Y0.43000
X1.93600 Y0.43000
X1.93600 Y0.42900
X1.93700 Y0.42900
X1.93700 Y0.42800
X1.93800 Y0.42800
X1.93800 Y0.42700
X1.93900 Y0.42700
X1.93900 Y0.42500
X1.94000 Y0.42500
X1.94000 Y0.42400
X1.94100 Y0.42400
X1.94100 Y0.42200
X1.94200 Y0.42200
X1.94200 Y0.42000
X1.94300 Y0.42000
X1.94300 Y0.41700
X1.94400 Y0.41700
X1.94400 Y0.41500
X1.94500 Y0.41500
X1.94500 Y0.41200
X1.94600 Y0.41200
X1.94600 Y0.40900
X1.94700 Y0.40900
X1.94700 Y0.29100
X1.94600 Y0.29100
X1.94600 Y0.28800
X1.94500 Y0.28800
X1.94500 Y0.28500
X1.94400 Y0.28500
X1.94400 Y0.28300
X1.94300 Y0.28300
X1.94300 Y0.28000
X1.94200 Y0.28000
X1.94200 Y0.27800
X1.94100 Y0.27800
X1.94100 Y0.27700
X1.94000 Y0.27700
X1.94000 Y0.27500
X1.93900 Y0.27500
X1.93900 Y0.27400
X1.93800 Y0.27400
X1.93800 Y0.27200
X1.93700 Y0.27200
X1.93700 Y0.27100
X1.93600 Y0.27100
X1.93600 Y0.27000
X1.93500 Y0.27000
X1.93500 Y0.26900
X1.93400 Y0.26900
X1.93400 Y0.26800
X1.93300 Y0.26800
X1.93300 Y0.26600
X1.93200 Y0.26600
X1.93200 Y0.26500
X1.93100 Y0.26500
X1.93100 Y0.26400
X1.93000 Y0.26400
X1.93000 Y0.26300
X1.92900 Y0.26300
X1.92900 Y0.26200
X1.92800 Y0.26200
X1.92800 Y0.26100
X1.92700 Y0.26100
X1.92700 Y0.26000
X1.92600 Y0.26000
X1.92600 Y0.25900
X1.92500 Y0.25900
X1.92500 Y0.25800
X1.92400 Y0.25800
X1.92400 Y0.25700
X1.92300 Y0.25700
X1.92300 Y0.25600
X1.92200 Y0.25600
X1.92200 Y0.25500
X1.92100 Y0.25500
X1.92100 Y0.25400
X1.92000 Y0.25400
X1.92000 Y0.25300
X1.91900 Y0.25300
X1.91900 Y0.25200
X1.91800 Y0.25200
X1.91800 Y0.25100
X1.91700 Y0.25100
X1.91700 Y0.25000
X1.91600 Y0.25000
X1.91600 Y0.24900
X1.91500 Y0.24900
X1.91500 Y0.24800
X1.91400 Y0.24800
X1.91400 Y0.24700
X1.91300 Y0.24700
X1.91300 Y0.24600
X1.91200 Y0.24600
X1.91200 Y0.24500
X1.91100 Y0.24500
X1.91100 Y0.24400
X1.91000 Y0.24400
X1.91000 Y0.24300
X1.90900 Y0.24300
X1.90900 Y0.24200
X1.90800 Y0.24200
X1.90800 Y0.24100
X1.90700 Y0.24100
X1.90700 Y0.24000
X1.90600 Y0.24000
X1.90600 Y0.23900
X1.90500 Y0.23900
X1.90500 Y0.23800
X1.90400 Y0.23800
X1.90400 Y0.23700
X1.90300 Y0.23700
X1.90300 Y0.23600
X1.90200 Y0.23600
X1.90200 Y0.23500
X1.90100 Y0.23500
X1.90100 Y0.23400
X1.90000 Y0.23400
X1.90000 Y0.23300
X1.89900 Y0.23300
X1.89900 Y0.23200
X1.89800 Y0.23200
X1.89800 Y0.23100
X1.89700 Y0.23100
X1.89700 Y0.23000
X1.89600 Y0.23000
X1.89600 Y0.22900
X1.89500 Y0.22900
X1.89500 Y0.22800
X1.89400 Y0.22800
X1.89400 Y0.22700
X1.89300 Y0.22700
X1.89300 Y0.22600
X1.89200 Y0.22600
X1.89200 Y0.22500
X1.89100 Y0.22500
X1.89100 Y0.22400
X1.89000 Y0.22400
X1.89000 Y0.22300
X1.88900 Y0.22300
X1.88900 Y0.22200
X1.88800 Y0.22200
X1.88800 Y0.22100
X1.88700 Y0.22100
X1.88700 Y0.22000
X1.88600 Y0.22000
X1.88600 Y0.21900
X1.88500 Y0.21900
X1.88500 Y0.21800
X1.88400 Y0.21800
X1.88400 Y0.21700
X1.88300 Y0.21700
X1.88300 Y0.21600
X1.88200 Y0.21600
X1.88200 Y0.21500
X1.88100 Y0.21500
X1.88100 Y0.21400
X1.88000 Y0.21400
X1.88000 Y0.21300
X1.87900 Y0.21300
X1.87900 Y0.21200
X1.87800 Y0.21200
X1.87800 Y0.21100
X1.87700 Y0.21100
X1.87700 Y0.21000
X1.87600 Y0.21000
X1.87600 Y0.20900
X1.87500 Y0.20900
X1.87500 Y0.20800
X1.87400 Y0.20800
X1.87400 Y0.20700
X1.87300 Y0.20700
X1.87300 Y0.20600
X1.87200 Y0.20600
X1.87200 Y0.20500
X1.87100 Y0.20500
X1.87100 Y0.20400
X1.87000 Y0.20400
X1.87000 Y0.20300
X1.86900 Y0.20300
X1.86900 Y0.20200
X1.86800 Y0.20200
X1.86800 Y0.20100
X1.86700 Y0.20100
X1.86700 Y0.20000
X1.86600 Y0.20000
X1.86600 Y0.19900
X1.86500 Y0.19900
X1.86500 Y0.19800
X1.86400 Y0.19800
X1.86400 Y0.19700
X1.86300 Y0.19700
X1.86300 Y0.19600
X1.86200 Y0.19600
X1.86200 Y0.19500
X1.86100 Y0.19500
X1.86100 Y0.19400
X1.86000 Y0.19400
X1.86000 Y0.19300
X1.85900 Y0.19300
X1.85900 Y0.19200
X1.85800 Y0.19200
X1.85800 Y0.19100
X1.85700 Y0.19100
X1.85700 Y0.19000
X1.85600 Y0.19000
X1.85600 Y0.18900
X1.85500 Y0.18900
X1.85500 Y0.18800
X1.85400 Y0.18800
X1.85400 Y0.18700
X1.85300 Y0.18700
X1.85300 Y0.18600
X1.85200 Y0.18600
X1.85200 Y0.18300
X1.85100 Y0.18300
X1.85100 Y0.18000
X1.85000 Y0.18000
X1.85000 Y0.17700
X1.84900 Y0.17700
X1.84900 Y0.17500
X1.84800 Y0.17500
X1.84800 Y0.17400
X1.84700 Y0.17400
X1.84700 Y0.17200
X1.84600 Y0.17200
X1.84600 Y0.17000
X1.84500 Y0.17000
X1.84500 Y0.16900
X1.84400 Y0.16900
X1.84400 Y0.16700
X1.84300 Y0.16700
X1.84300 Y0.16600
X1.84200 Y0.16600
X1.84200 Y0.16500
X1.84100 Y0.16500
X1.84100 Y0.16400
X1.84000 Y0.16400
X1.84000 Y0.16300
X1.83900 Y0.16300
X1.83900 Y0.16200
X1.83800 Y0.16200
X1.83800 Y0.16100
X1.83700 Y0.16100
X1.83700 Y0.16000
X1.83600 Y0.16000
X1.83600 Y0.15900
X1.83500 Y0.15900
X1.83500 Y0.15800
X1.83400 Y0.15800
X1.83400 Y0.15700
X1.83300 Y0.15700
X1.83300 Y0.15600
X1.83100 Y0.15600
X1.83100 Y0.15500
X1.82900 Y0.15500
X1.82900 Y0.15400
X1.82700 Y0.15400
X1.82700 Y0.15300
X1.82600 Y0.15300
X1.82600 Y0.15200
X1.82000 Y0.15200
X1.82000 Y0.15100
X1.81400 Y0.15100
X1.81400 Y0.15000
X1.78700 Y0.15000
X1.78700 Y0.15100
X1.78100 Y0.15100
X1.78100 Y0.15200
X1.77500 Y0.15200
X1.77500 Y0.15300
X1.77400 Y0.15300
X1.77400 Y0.15400
X1.77200 Y0.15400
X1.77200 Y0.15500
X1.77000 Y0.15500
X1.77000 Y0.15600
X1.76800 Y0.15600
X1.76800 Y0.15700
X1.76700 Y0.15700
X1.76700 Y0.15800
X1.76500 Y0.15800
X1.76500 Y0.15900
X1.76400 Y0.15900
X1.76400 Y0.16000
X1.76300 Y0.16000
X1.76300 Y0.16100
X1.76200 Y0.16100
X1.76200 Y0.16200
X1.76100 Y0.16200
X1.76100 Y0.16300
X1.76000 Y0.16300
X1.76000 Y0.16400
X1.75900 Y0.16400
X1.75900 Y0.16500
X1.75800 Y0.16500
X1.75800 Y0.16600
X1.75700 Y0.16600
X1.75700 Y0.16700
X1.75600 Y0.16700
X1.75600 Y0.16900
X1.75500 Y0.16900
X1.75500 Y0.17100
X1.75400 Y0.17100
X1.75400 Y0.17300
X1.75300 Y0.17300
X1.75300 Y0.17500
X1.75200 Y0.17500
X1.75200 Y0.17900
X1.75100 Y0.17900
X1.75100 Y0.18500
X1.75000 Y0.18500
X1.75000 Y0.21600
X1.75100 Y0.21600
X1.75100 Y0.22200
X1.75200 Y0.22200
X1.75200 Y0.22600
X1.75300 Y0.22600
X1.75300 Y0.22800
X1.75400 Y0.22800
X1.75400 Y0.22900
X1.75500 Y0.22900
X1.75500 Y0.23100
X1.75600 Y0.23100
X1.75600 Y0.23300
X1.75700 Y0.23300
X1.75700 Y0.23400
X1.75800 Y0.23400
X1.75800 Y0.23500
X1.75900 Y0.23500
X1.75900 Y0.23600
X1.76000 Y0.23600
X1.76000 Y0.23700
X1.76100 Y0.23700
X1.76100 Y0.23800
X1.76200 Y0.23800
X1.76200 Y0.23900
X1.76300 Y0.23900
X1.76300 Y0.24000
X1.76400 Y0.24000
X1.76400 Y0.24100
X1.76500 Y0.24100
X1.76500 Y0.24200
X1.76600 Y0.24200
X1.76600 Y0.24300
X1.76700 Y0.24300
X1.76700 Y0.24400
X1.76900 Y0.24400
X1.76900 Y0.24500
X1.77000 Y0.24500
X1.77000 Y0.24600
X1.77200 Y0.24600
X1.77200 Y0.24700
X1.77400 Y0.24700
X1.77400 Y0.24800
X1.77500 Y0.24800
X1.77500 Y0.24900
X1.77700 Y0.24900
X1.77700 Y0.25000
X1.78000 Y0.25000
X1.78000 Y0.25100
X1.78300 Y0.25100
X1.78300 Y0.25200
X1.78600 Y0.25200
X1.78600 Y0.25300
X1.78800 Y0.25300
X1.78800 Y0.25400
X1.78900 Y0.25400
X1.78900 Y0.25500
X1.79000 Y0.25500
X1.79000 Y0.25600
X1.79100 Y0.25600
X1.79100 Y0.25700
X1.79200 Y0.25700
X1.79200 Y0.25800
X1.79300 Y0.25800
X1.79300 Y0.25900
X1.79400 Y0.25900
X1.79400 Y0.26000
X1.79500 Y0.26000
X1.79500 Y0.26100
X1.79600 Y0.26100
X1.79600 Y0.26200
X1.79700 Y0.26200
X1.79700 Y0.26300
X1.79800 Y0.26300
X1.79800 Y0.26400
X1.79900 Y0.26400
X1.79900 Y0.26500
X1.80000 Y0.26500
X1.80000 Y0.26600
X1.80100 Y0.26600
X1.80100 Y0.26700
X1.80200 Y0.26700
X1.80200 Y0.26800
X1.80300 Y0.26800
X1.80300 Y0.26900
X1.80400 Y0.26900
X1.80400 Y0.27000
X1.80500 Y0.27000
X1.80500 Y0.27100
X1.80600 Y0.27100
X1.80600 Y0.27200
X1.80700 Y0.27200
X1.80700 Y0.27300
X1.80800 Y0.27300
X1.80800 Y0.27400
X1.80900 Y0.27400
X1.80900 Y0.27500
X1.81000 Y0.27500
X1.81000 Y0.27600
X1.81100 Y0.27600
X1.81100 Y0.27700
X1.81200 Y0.27700
X1.81200 Y0.27800
X1.81300 Y0.27800
X1.81300 Y0.27900
X1.81400 Y0.27900
X1.81400 Y0.28000
X1.81500 Y0.28000
X1.81500 Y0.28100
X1.81600 Y0.28100
X1.81600 Y0.28200
X1.81700 Y0.28200
X1.81700 Y0.28300
X1.81800 Y0.28300
X1.81800 Y0.28400
X1.81900 Y0.28400
X1.81900 Y0.28500
X1.82000 Y0.28500
X1.82000 Y0.28600
X1.82100 Y0.28600
X1.82100 Y0.28700
X1.82200 Y0.28700
X1.82200 Y0.28800
X1.82300 Y0.28800
X1.82300 Y0.28900
X1.82400 Y0.28900
X1.82400 Y0.29000
X1.82500 Y0.29000
X1.82500 Y0.29100
X1.82600 Y0.29100
X1.82600 Y0.29200
X1.82700 Y0.29200
X1.82700 Y0.29300
X1.82800 Y0.29300
X1.82800 Y0.29400
X1.82900 Y0.29400
X1.82900 Y0.29500
X1.83000 Y0.29500
X1.83000 Y0.29600
X1.83100 Y0.29600
X1.83100 Y0.29700
X1.83200 Y0.29700
X1.83200 Y0.29800
X1.83300 Y0.29800
X1.83300 Y0.29900
X1.83400 Y0.29900
X1.83400 Y0.30000
X1.83500 Y0.30000
X1.83500 Y0.30100
X1.83600 Y0.30100
X1.83600 Y0.30200
X1.83700 Y0.30200
X1.83700 Y0.30300
X1.83800 Y0.30300
X1.83800 Y0.30400
X1.83900 Y0.30400
X1.83900 Y0.30500
X1.84000 Y0.30500
X1.84000 Y0.30600
X1.84100 Y0.30600
X1.84100 Y0.30700
X1.84200 Y0.30700
X1.84200 Y0.30800
X1.84300 Y0.30800
X1.84300 Y0.30900
X1.84400 Y0.30900
X1.84400 Y0.31000
X1.84500 Y0.31000
X1.84500 Y0.31100
X1.84600 Y0.31100
X1.84600 Y0.31200
X1.84700 Y0.31200
X1.84700 Y0.31300
X1.84800 Y0.31300
X1.84800 Y0.31400
X1.84900 Y0.31400
X1.84900 Y0.31500
X1.85000 Y0.31500
X1.85000 Y0.31600
X1.85100 Y0.31600
X1.85100 Y0.31700
X1.85200 Y0.31700
X1.85200 Y0.31800
X1.85300 Y0.31800
X1.85300 Y0.38100
X1.85200 Y0.38100
X1.85200 Y0.38200
X1.85100 Y0.38200
X1.85100 Y0.38300
X1.85000 Y0.38300
X1.85000 Y0.38400
X1.84900 Y0.38400
X1.84900 Y0.38500
X1.84800 Y0.38500
X1.84800 Y0.38600
X1.84700 Y0.38600
X1.84700 Y0.38700
X1.84600 Y0.38700
X1.84600 Y0.38800
X1.84500 Y0.38800
X1.84500 Y0.38900
X1.84400 Y0.38900
X1.84400 Y0.39000
X1.84300 Y0.39000
X1.84300 Y0.39100
X1.84200 Y0.39100
X1.84200 Y0.39200
X1.84100 Y0.39200
X1.84100 Y0.39300
X1.84000 Y0.39300
X1.84000 Y0.39400
X1.83900 Y0.39400
X1.83900 Y0.39500
X1.83800 Y0.39500
X1.83800 Y0.39600
X1.83700 Y0.39600
X1.83700 Y0.39700
X1.83600 Y0.39700
X1.83600 Y0.39800
X1.83500 Y0.39800
X1.83500 Y0.39900
X1.83400 Y0.39900
X1.83400 Y0.40000
X1.83300 Y0.40000
X1.83300 Y0.40100
X1.83200 Y0.40100
X1.83200 Y0.40200
X1.83100 Y0.40200
X1.83100 Y0.40300
X1.83000 Y0.40300
X1.83000 Y0.40400
X1.82900 Y0.40400
X1.82900 Y0.40500
X1.82800 Y0.40500
X1.82800 Y0.40600
X1.82700 Y0.40600
X1.82700 Y0.40700
X1.82600 Y0.40700
X1.82600 Y0.40800
X1.82500 Y0.40800
X1.82500 Y0.40900
X1.82400 Y0.40900
X1.82400 Y0.41000
X1.82300 Y0.41000
X1.82300 Y0.41100
X1.82200 Y0.41100
X1.82200 Y0.41200
X1.82100 Y0.41200
X1.82100 Y0.41300
X1.82000 Y0.41300
X1.82000 Y0.41400
X1.81900 Y0.41400
X1.81900 Y0.41500
X1.81800 Y0.41500
X1.81800 Y0.41600
X1.81700 Y0.41600
X1.81700 Y0.41700
X1.81600 Y0.41700
X1.81600 Y0.41800
X1.81500 Y0.41800
X1.81500 Y0.41900
X1.81400 Y0.41900
X1.81400 Y0.42000
X1.81300 Y0.42000
X1.81300 Y0.42100
X1.81200 Y0.42100
X1.81200 Y0.42200
X1.81100 Y0.42200
X1.81100 Y0.42300
X1.81000 Y0.42300
X1.81000 Y0.42400
X1.80900 Y0.42400
X1.80900 Y0.42500
X1.80800 Y0.42500
X1.80800 Y0.42600
X1.80700 Y0.42600
X1.80700 Y0.42700
X1.80600 Y0.42700
X1.80600 Y0.42800
X1.80500 Y0.42800
X1.80500 Y0.42900
X1.80400 Y0.42900
X1.80400 Y0.43000
X1.80300 Y0.43000
X1.80300 Y0.43100
X1.80200 Y0.43100
X1.80200 Y0.43200
X1.80100 Y0.43200
X1.80100 Y0.43300
X1.80000 Y0.43300
X1.80000 Y0.43400
X1.79900 Y0.43400
X1.79900 Y0.43500
X1.79800 Y0.43500
X1.79800 Y0.43600
X1.79700 Y0.43600
X1.79700 Y0.43700
X1.79600 Y0.43700
X1.79600 Y0.43800
X1.79500 Y0.43800
X1.79500 Y0.43900
X1.79400 Y0.43900
X1.79400 Y0.44000
X1.79300 Y0.44000
X1.79300 Y0.44100
X1.79200 Y0.44100
X1.79200 Y0.44200
X1.79100 Y0.44200
X1.79100 Y0.44300
X1.79000 Y0.44300
X1.79000 Y0.44400
X1.78900 Y0.44400
X1.78900 Y0.44500
X1.78800 Y0.44500
X1.78800 Y0.44600
X1.78700 Y0.44600
X1.78700 Y0.44700
X1.78600 Y0.44700
X1.78600 Y0.44800
X1.78500 Y0.44800
X1.78500 Y0.44900
X1.78400 Y0.44900
X1.78400 Y0.45000
X1.78300 Y0.45000
X1.78300 Y0.45100
X1.78200 Y0.45100
X1.78200 Y0.45200
X1.78100 Y0.45200
X1.78100 Y0.45300
X1.75300 Y0.45300
X1.75300 Y0.45200
X1.75100 Y0.45200
X1.75100 Y0.45000
X1.65000 Y0.45000
X1.65000 Y0.48500
X1.65100 Y0.48500
X1.65100 Y0.51600
X1.65000 Y0.51600
X1.65000 Y0.55000
X1.65100 Y0.55000
X1.65100 Y0.55100
X1.75000 Y0.55100
X1.75000 Y0.55000
X1.75100 Y0.55000
X1.75100 Y0.54800
X1.75300 Y0.54800
X1.75300 Y0.54700
X1.80900 Y0.54700
X1.80900 Y0.54600
X1.81200 Y0.54600
X1.81200 Y0.54500
X1.81500 Y0.54500
X1.81500 Y0.54400
X1.81700 Y0.54400
X1.81700 Y0.54300
X1.82000 Y0.54300
X1.82000 Y0.54200
X1.82200 Y0.54200
X1.82200 Y0.54100
X1.82400 Y0.54100
X1.82400 Y0.54000
G04 P0 ( dwell for no time -- G64 should not smooth over this point )
G00 Z0.19685 ( retract )

G00 X2.53700 Y0.54000 ( rapid move to begin. )
G01 Z-0.01969 F1.96850 ( plunge. )
G04 P0 ( dwell for no time -- G64 should not smooth over this point )
X2.53700 Y0.54000
X2.53800 Y0.54000
X2.53800 Y0.53900
X2.53900 Y0.53900
X2.53900 Y0.53800
X2.54000 Y0.53800
X2.54000 Y0.53700
X2.54100 Y0.53700
X2.54100 Y0.53500
X2.54200 Y0.53500
X2.54200 Y0.53400
X2.54300 Y0.53400
X2.54300 Y0.53300
X2.54400 Y0.53300
X2.54400 Y0.53200
X2.54600 Y0.53200
X2.54600 Y0.53000
X2.54700 Y0.53000
X2.54700 Y0.52900
X2.54800 Y0.52900
X2.54800 Y0.52500
X2.54900 Y0.52500
X2.54900 Y0.52200
X2.55000 Y0.52200
X2.55000 Y0.51600
X2.55100 Y0.51600
X2.55100 Y0.48500
X2.55000 Y0.48500
X2.55000 Y0.47900
X2.54900 Y0.47900
X2.54900 Y0.47600
X2.54800 Y0.47600
X2.54800 Y0.47200
X2.54700 Y0.47200
X2.54700 Y0.47100
X2.54600 Y0.47100
X2.54600 Y0.46900
X2.54500 Y0.46900
X2.54500 Y0.46800
X2.54400 Y0.46800
X2.54400 Y0.46700
X2.54300 Y0.46700
X2.54300 Y0.46600
X2.54200 Y0.46600
X2.54200 Y0.46500
X2.54100 Y0.46500
X2.54100 Y0.46400
X2.54000 Y0.46400
X2.54000 Y0.46300
X2.53900 Y0.46300
X2.53900 Y0.46200
X2.53800 Y0.46200
X2.53800 Y0.46100
X2.53700 Y0.46100
X2.53700 Y0.46000
X2.53600 Y0.46000
X2.53600 Y0.45900
X2.53500 Y0.45900
X2.53500 Y0.45800
X2.53400 Y0.45800
X2.53400 Y0.45700
X2.53300 Y0.45700
X2.53300 Y0.45600
X2.53100 Y0.45600
X2.53100 Y0.45500
X2.52900 Y0.45500
X2.52900 Y0.45400
X2.52700 Y0.45400
X2.52700 Y0.45300
X2.52600 Y0.45300
X2.52600 Y0.45200
X2.52000 Y0.45200
X2.52000 Y0.45100
X2.51400 Y0.45100
X2.51400 Y0.45000
X2.48700 Y0.45000
X2.48700 Y0.45100
X2.48100 Y0.45100
X2.48100 Y0.45200
X2.47400 Y0.45200
X2.47400 Y0.45300
X2.11900 Y0.45300
X2.11900 Y0.45200
X2.11800 Y0.45200
X2.11800 Y0.45100
X2.11700 Y0.45100
X2.11700 Y0.45000
X2.11600 Y0.45000
X2.11600 Y0.44900
X2.11500 Y0.44900
X2.11500 Y0.44800
X2.11400 Y0.44800
X2.11400 Y0.44700
X2.11300 Y0.44700
X2.11300 Y0.44600
X2.11200 Y0.44600
X2.11200 Y0.44500
X2.11100 Y0.44500
X2.11100 Y0.44400
X2.11000 Y0.44400
X2.11000 Y0.44300
X2.10900 Y0.44300
X2.10900 Y0.44200
X2.10800 Y0.44200
X2.10800 Y0.44100
X2.10700 Y0.44100
X2.10700 Y0.44000
X2.10600 Y0.44000
X2.10600 Y0.43900
X2.10500 Y0.43900
X2.10500 Y0.43800
X2.10400 Y0.43800
X2.10400 Y0.43700
X2.10300 Y0.43700
X2.10300 Y0.43600
X2.10200 Y0.43600
X2.10200 Y0.43500
X2.10100 Y0.43500
X2.10100 Y0.43400
X2.10000 Y0.43400
X2.10000 Y0.43300
X2.09900 Y0.43300
X2.09900 Y0.43200
X2.09800 Y0.43200
X2.09800 Y0.43100
X2.09700 Y0.43100
X2.09700 Y0.43000
X2.09600 Y0.43000
X2.09600 Y0.42900
X2.09500 Y0.42900
X2.09500 Y0.42800
X2.09400 Y0.42800
X2.09400 Y0.42700
X2.09300 Y0.42700
X2.09300 Y0.42600
X2.09200 Y0.42600
X2.09200 Y0.42500
X2.09100 Y0.42500
X2.09100 Y0.42400
X2.09000 Y0.42400
X2.09000 Y0.42300
X2.08900 Y0.42300
X2.08900 Y0.42200
X2.08800 Y0.42200
X2.08800 Y0.42100
X2.08700 Y0.42100
X2.08700 Y0.42000
X2.08600 Y0.42000
X2.08600 Y0.41900
X2.08500 Y0.41900
X2.08500 Y0.41800
X2.08400 Y0.41800
X2.08400 Y0.41700
X2.08300 Y0.41700
X2.08300 Y0.41600
X2.08200 Y0.41600
X2.08200 Y0.41500
X2.08100 Y0.41500
X2.08100 Y0.41400
X2.08000 Y0.41400
X2.08000 Y0.41300
X2.07900 Y0.41300
X2.07900 Y0.41200
X2.07800 Y0.41200
X2.07800 Y0.41100
X2.07700 Y0.41100
X2.07700 Y0.41000
X2.07600 Y0.41000
X2.07600 Y0.40900
X2.07500 Y0.40900
X2.07500 Y0.40800
X2.07400 Y0.40800
X2.07400 Y0.40700
X2.07300 Y0.40700
X2.07300 Y0.40600
X2.07200 Y0.40600
X2.07200 Y0.40500
X2.07100 Y0.40500
X2.07100 Y0.40400
X2.07000 Y0.40400
X2.07000 Y0.40300
X2.06900 Y0.40300
X2.06900 Y0.40200
X2.06800 Y0.40200
X2.06800 Y0.40100
X2.06700 Y0.40100
X2.06700 Y0.40000
X2.06600 Y0.40000
X2.06600 Y0.39900
X2.06500 Y0.39900
X2.06500 Y0.39800
X2.06400 Y0.39800
X2.06400 Y0.39700
X2.06300 Y0.39700
X2.06300 Y0.39600
X2.06200 Y0.39600
X2.06200 Y0.39500
X2.06100 Y0.39500
X2.06100 Y0.39400
X2.06000 Y0.39400
X2.06000 Y0.39300
X2.05900 Y0.39300
X2.05900 Y0.39200
X2.05800 Y0.39200
X2.05800 Y0.39100
X2.05700 Y0.39100
X2.05700 Y0.39000
X2.05600 Y0.39000
X2.05600 Y0.38900
X2.05500 Y0.38900
X2.05500 Y0.38800
X2.05400 Y0.38800
X2.05400 Y0.38700
X2.05300 Y0.38700
X2.05300 Y0.38600
X2.05200 Y0.38600
X2.05200 Y0.38500
X2.05100 Y0.38500
X2.05100 Y0.38400
X2.05000 Y0.38400
X2.05000 Y0.38300
X2.04900 Y0.38300
X2.04900 Y0.38200
X2.04800 Y0.38200
X2.04800 Y0.38100
X2.04700 Y0.38100
X2.04700 Y0.31800
X2.04900 Y0.31800
X2.04900 Y0.31700
X2.05000 Y0.31700
X2.05000 Y0.31600
X2.05100 Y0.31600
X2.05100 Y0.31500
X2.05200 Y0.31500
X2.05200 Y0.31400
X2.05300 Y0.31400
X2.05300 Y0.31300
X2.05400 Y0.31300
X2.05400 Y0.31200
X2.05500 Y0.31200
X2.05500 Y0.31100
X2.05600 Y0.31100
X2.05600 Y0.31000
X2.05700 Y0.31000
X2.05700 Y0.30900
X2.05800 Y0.30900
X2.05800 Y0.30800
X2.05900 Y0.30800
X2.05900 Y0.30700
X2.06000 Y0.30700
X2.06000 Y0.30600
X2.06100 Y0.30600
X2.06100 Y0.30500
X2.06200 Y0.30500
X2.06200 Y0.30400
X2.06300 Y0.30400
X2.06300 Y0.30300
X2.06400 Y0.30300
X2.06400 Y0.30200
X2.06500 Y0.30200
X2.06500 Y0.30100
X2.06600 Y0.30100
X2.06600 Y0.30000
X2.06700 Y0.30000
X2.06700 Y0.29900
X2.06800 Y0.29900
X2.06800 Y0.29800
X2.06900 Y0.29800
X2.06900 Y0.29700
X2.07000 Y0.29700
X2.07000 Y0.29600
X2.07100 Y0.29600
X2.07100 Y0.29500
X2.07200 Y0.29500
X2.07200 Y0.29400
X2.07300 Y0.29400
X2.07300 Y0.29300
X2.07400 Y0.29300
X2.07400 Y0.29200
X2.07500 Y0.29200
X2.07500 Y0.29100
X2.07600 Y0.29100
X2.07600 Y0.29000
X2.07700 Y0.29000
X2.07700 Y0.28900
X2.07800 Y0.28900
X2.07800 Y0.28800
X2.07900 Y0.28800
X2.07900 Y0.28700
X2.08000 Y0.28700
X2.08000 Y0.28600
X2.08100 Y0.28600
X2.08100 Y0.28500
X2.08200 Y0.28500
X2.08200 Y0.28400
X2.08300 Y0.28400
X2.08300 Y0.28300
X2.08400 Y0.28300
X2.08400 Y0.28200
X2.08500 Y0.28200
X2.08500 Y0.28100
X2.08600 Y0.28100
X2.08600 Y0.28000
X2.08700 Y0.28000
X2.08700 Y0.27900
X2.08800 Y0.27900
X2.08800 Y0.27800
X2.08900 Y0.27800
X2.08900 Y0.27700
X2.09000 Y0.27700
X2.09000 Y0.27600
X2.09100 Y0.27600
X2.09100 Y0.27500
X2.09200 Y0.27500
X2.09200 Y0.27400
X2.09300 Y0.27400
X2.09300 Y0.27300
X2.09400 Y0.27300
X2.09400 Y0.27200
X2.09500 Y0.27200
X2.09500 Y0.27100
X2.09600 Y0.27100
X2.09600 Y0.27000
X2.09700 Y0.27000
X2.09700 Y0.26900
X2.09800 Y0.26900
X2.09800 Y0.26800
X2.09900 Y0.26800
X2.09900 Y0.26700
X2.10000 Y0.26700
X2.10000 Y0.26600
X2.10100 Y0.26600
X2.10100 Y0.26500
X2.10200 Y0.26500
X2.10200 Y0.26400
X2.10300 Y0.26400
X2.10300 Y0.26300
X2.10400 Y0.26300
X2.10400 Y0.26200
X2.10500 Y0.26200
X2.10500 Y0.26100
X2.10600 Y0.26100
X2.10600 Y0.26000
X2.10700 Y0.26000
X2.10700 Y0.25900
X2.10800 Y0.25900
X2.10800 Y0.25800
X2.10900 Y0.25800
X2.10900 Y0.25700
X2.11000 Y0.25700
X2.11000 Y0.25600
X2.11100 Y0.25600
X2.11100 Y0.25500
X2.12100 Y0.25500
X2.12100 Y0.25400
X2.12200 Y0.25400
X2.12200 Y0.25300
X2.12300 Y0.25300
X2.12300 Y0.25200
X2.12400 Y0.25200
X2.12400 Y0.25100
X2.15000 Y0.25100
X2.15000 Y0.25000
X2.15100 Y0.25000
X2.15100 Y0.15000
X2.05000 Y0.15000
X2.05000 Y0.17700
X2.04900 Y0.17700
X2.04900 Y0.17800
X2.04800 Y0.17800
X2.04800 Y0.17900
X2.04700 Y0.17900
X2.04700 Y0.18000
X2.04600 Y0.18000
X2.04600 Y0.18800
X2.04500 Y0.18800
X2.04500 Y0.18900
X2.04400 Y0.18900
X2.04400 Y0.19000
X2.04300 Y0.19000
X2.04300 Y0.19100
X2.04200 Y0.19100
X2.04200 Y0.19200
X2.04100 Y0.19200
X2.04100 Y0.19300
X2.04000 Y0.19300
X2.04000 Y0.19400
X2.03900 Y0.19400
X2.03900 Y0.19500
X2.03800 Y0.19500
X2.03800 Y0.19600
X2.03700 Y0.19600
X2.03700 Y0.19700
X2.03600 Y0.19700
X2.03600 Y0.19800
X2.03500 Y0.19800
X2.03500 Y0.19900
X2.03400 Y0.19900
X2.03400 Y0.20000
X2.03300 Y0.20000
X2.03300 Y0.20100
X2.03200 Y0.20100
X2.03200 Y0.20200
X2.03100 Y0.20200
X2.03100 Y0.20300
X2.03000 Y0.20300
X2.03000 Y0.20400
X2.02900 Y0.20400
X2.02900 Y0.20500
X2.02800 Y0.20500
X2.02800 Y0.20600
X2.02700 Y0.20600
X2.02700 Y0.20700
X2.02600 Y0.20700
X2.02600 Y0.20800
X2.02500 Y0.20800
X2.02500 Y0.20900
X2.02400 Y0.20900
X2.02400 Y0.21000
X2.02300 Y0.21000
X2.02300 Y0.21100
X2.02200 Y0.21100
X2.02200 Y0.21200
X2.02100 Y0.21200
X2.02100 Y0.21300
X2.02000 Y0.21300
X2.02000 Y0.21400
X2.01900 Y0.21400
X2.01900 Y0.21500
X2.01800 Y0.21500
X2.01800 Y0.21600
X2.01700 Y0.21600
X2.01700 Y0.21700
X2.01600 Y0.21700
X2.01600 Y0.21800
X2.01500 Y0.21800
X2.01500 Y0.21900
X2.01400 Y0.21900
X2.01400 Y0.22000
X2.01300 Y0.22000
X2.01300 Y0.22100
X2.01200 Y0.22100
X2.01200 Y0.22200
X2.01100 Y0.22200
X2.01100 Y0.22300
X2.01000 Y0.22300
X2.01000 Y0.22400
X2.00900 Y0.22400
X2.00900 Y0.22500
X2.00800 Y0.22500
X2.00800 Y0.22600
X2.00700 Y0.22600
X2.00700 Y0.22700
X2.00600 Y0.22700
X2.00600 Y0.22800
X2.00500 Y0.22800
X2.00500 Y0.22900
X2.00400 Y0.22900
X2.00400 Y0.23000
X2.00300 Y0.23000
X2.00300 Y0.23100
X2.00200 Y0.23100
X2.00200 Y0.23200
X2.00100 Y0.23200
X2.00100 Y0.23300
X2.00000 Y0.23300
X2.00000 Y0.23400
X1.99900 Y0.23400
X1.99900 Y0.23500
X1.99800 Y0.23500
X1.99800 Y0.23600
X1.99700 Y0.23600
X1.99700 Y0.23700
X1.99600 Y0.23700
X1.99600 Y0.23800
X1.99500 Y0.23800
X1.99500 Y0.23900
X1.99400 Y0.23900
X1.99400 Y0.24000
X1.99300 Y0.24000
X1.99300 Y0.24100
X1.99200 Y0.24100
X1.99200 Y0.24200
X1.99100 Y0.24200
X1.99100 Y0.24300
X1.99000 Y0.24300
X1.99000 Y0.24400
X1.98900 Y0.24400
X1.98900 Y0.24500
X1.98800 Y0.24500
X1.98800 Y0.24600
X1.98700 Y0.24600
X1.98700 Y0.24700
X1.98600 Y0.24700
X1.98600 Y0.24800
X1.98500 Y0.24800
X1.98500 Y0.24900
X1.98400 Y0.24900
X1.98400 Y0.25000
X1.98300 Y0.25000
X1.98300 Y0.25100
X1.98200 Y0.25100
X1.98200 Y0.25200
X1.98100 Y0.25200
X1.98100 Y0.25300
X1.98000 Y0.25300
X1.98000 Y0.25400
X1.97900 Y0.25400
X1.97900 Y0.25500
X1.97800 Y0.25500
X1.97800 Y0.25600
X1.97700 Y0.25600
X1.97700 Y0.25700
X1.97600 Y0.25700
X1.97600 Y0.25800
X1.97500 Y0.25800
X1.97500 Y0.25900
X1.97400 Y0.25900
X1.97400 Y0.26000
X1.97300 Y0.26000
X1.97300 Y0.26100
X1.97200 Y0.26100
X1.97200 Y0.26200
X1.97100 Y0.26200
X1.97100 Y0.26300
X1.97000 Y0.26300
X1.97000 Y0.26400
X1.96900 Y0.26400
X1.96900 Y0.26500
X1.96800 Y0.26500
X1.96800 Y0.26600
X1.96700 Y0.26600
X1.96700 Y0.26800
X1.96600 Y0.26800
X1.96600 Y0.26900
X1.96500 Y0.26900
X1.96500 Y0.27000
X1.96400 Y0.27000
X1.96400 Y0.27100
X1.96300 Y0.27100
X1.96300 Y0.27200
X1.96200 Y0.27200
X1.96200 Y0.27400
X1.96100 Y0.27400
X1.96100 Y0.27600
X1.96000 Y0.27600
X1.96000 Y0.27700
X1.95900 Y0.27700
X1.95900 Y0.27800
X1.95800 Y0.27800
X1.95800 Y0.28000
X1.95700 Y0.28000
X1.95700 Y0.28200
X1.95600 Y0.28200
X1.95600 Y0.28500
X1.95500 Y0.28500
X1.95500 Y0.29000
X1.95400 Y0.29000
X1.95400 Y0.29700
X1.95300 Y0.29700
X1.95300 Y0.40400
X1.95400 Y0.40400
X1.95400 Y0.41100
X1.95500 Y0.41100
X1.95500 Y0.41500
X1.95600 Y0.41500
X1.95600 Y0.41800
X1.95700 Y0.41800
X1.95700 Y0.42000
X1.95800 Y0.42000
X1.95800 Y0.42200
X1.95900 Y0.42200
X1.95900 Y0.42400
X1.96000 Y0.42400
X1.96000 Y0.42500
X1.96100 Y0.42500
X1.96100 Y0.42700
X1.96200 Y0.42700
X1.96200 Y0.42800
X1.96300 Y0.42800
X1.96300 Y0.42900
X1.96400 Y0.42900
X1.96400 Y0.43000
X1.96500 Y0.43000
X1.96500 Y0.43100
X1.96600 Y0.43100
X1.96600 Y0.43200
X1.96700 Y0.43200
X1.96700 Y0.43400
X1.96800 Y0.43400
X1.96800 Y0.43500
X1.96900 Y0.43500
X1.96900 Y0.43600
X1.97000 Y0.43600
X1.97000 Y0.43700
X1.97100 Y0.43700
X1.97100 Y0.43800
X1.97200 Y0.43800
X1.97200 Y0.43900
X1.97300 Y0.43900
X1.97300 Y0.44000
X1.97400 Y0.44000
X1.97400 Y0.44100
X1.97500 Y0.44100
X1.97500 Y0.44200
X1.97600 Y0.44200
X1.97600 Y0.44300
X1.97700 Y0.44300
X1.97700 Y0.44400
X1.97800 Y0.44400
X1.97800 Y0.44500
X1.97900 Y0.44500
X1.97900 Y0.44600
X1.98000 Y0.44600
X1.98000 Y0.44700
X1.98100 Y0.44700
X1.98100 Y0.44800
X1.98200 Y0.44800
X1.98200 Y0.44900
X1.98300 Y0.44900
X1.98300 Y0.45000
X1.98400 Y0.45000
X1.98400 Y0.45100
X1.98500 Y0.45100
X1.98500 Y0.45200
X1.98600 Y0.45200
X1.98600 Y0.45300
X1.98700 Y0.45300
X1.98700 Y0.45400
X1.98800 Y0.45400
X1.98800 Y0.45500
X1.98900 Y0.45500
X1.98900 Y0.45600
X1.99000 Y0.45600
X1.99000 Y0.45700
X1.99100 Y0.45700
X1.99100 Y0.45800
X1.99200 Y0.45800
X1.99200 Y0.45900
X1.99300 Y0.45900
X1.99300 Y0.46000
X1.99400 Y0.46000
X1.99400 Y0.46100
X1.99500 Y0.46100
X1.99500 Y0.46200
X1.99600 Y0.46200
X1.99600 Y0.46300
X1.99700 Y0.46300
X1.99700 Y0.46400
X1.99800 Y0.46400
X1.99800 Y0.46500
X1.99900 Y0.46500
X1.99900 Y0.46600
X2.00000 Y0.46600
X2.00000 Y0.46700
X2.00100 Y0.46700
X2.00100 Y0.46800
X2.00200 Y0.46800
X2.00200 Y0.46900
X2.00300 Y0.46900
X2.00300 Y0.47000
X2.00400 Y0.47000
X2.00400 Y0.47100
X2.00500 Y0.47100
X2.00500 Y0.47200
X2.00600 Y0.47200
X2.00600 Y0.47300
X2.00700 Y0.47300
X2.00700 Y0.47400
X2.00800 Y0.47400
X2.00800 Y0.47500
X2.00900 Y0.47500
X2.00900 Y0.47600
X2.01000 Y0.47600
X2.01000 Y0.47700
X2.01100 Y0.47700
X2.01100 Y0.47800
X2.01200 Y0.47800
X2.01200 Y0.47900
X2.01300 Y0.47900
X2.01300 Y0.48000
X2.01400 Y0.48000
X2.01400 Y0.48100
X2.01500 Y0.48100
X2.01500 Y0.48200
X2.01600 Y0.48200
X2.01600 Y0.48300
X2.01700 Y0.48300
X2.01700 Y0.48400
X2.01800 Y0.48400
X2.01800 Y0.48500
X2.01900 Y0.48500
X2.01900 Y0.48600
X2.02000 Y0.48600
X2.02000 Y0.48700
X2.02100 Y0.48700
X2.02100 Y0.48800
X2.02200 Y0.48800
X2.02200 Y0.48900
X2.02300 Y0.48900
X2.02300 Y0.49000
X2.02400 Y0.49000
X2.02400 Y0.49100
X2.02500 Y0.49100
X2.02500 Y0.49200
X2.02600 Y0.49200
X2.02600 Y0.49300
X2.02700 Y0.49300
X2.02700 Y0.49400
X2.02800 Y0.49400
X2.02800 Y0.49500
X2.02900 Y0.49500
X2.02900 Y0.49600
X2.03000 Y0.49600
X2.03000 Y0.49700
X2.03100 Y0.49700
X2.03100 Y0.49800
X2.03200 Y0.49800
X2.03200 Y0.49900
X2.03300 Y0.49900
X2.03300 Y0.50000
X2.03400 Y0.50000
X2.03400 Y0.50100
X2.03500 Y0.50100
X2.03500 Y0.50200
X2.03600 Y0.50200
X2.03600 Y0.50300
X2.03700 Y0.50300
X2.03700 Y0.50400
X2.03800 Y0.50400
X2.03800 Y0.50500
X2.03900 Y0.50500
X2.03900 Y0.50600
X2.04000 Y0.50600
X2.04000 Y0.50700
X2.04100 Y0.50700
X2.04100 Y0.50800
X2.04200 Y0.50800
X2.04200 Y0.50900
X2.04300 Y0.50900
X2.04300 Y0.51000
X2.04400 Y0.51000
X2.04400 Y0.51100
X2.04500 Y0.51100
X2.04500 Y0.51200
X2.04600 Y0.51200
X2.04600 Y0.51300
X2.04700 Y0.51300
X2.04700 Y0.51400
X2.04800 Y0.51400
X2.04800 Y0.51500
X2.04900 Y0.51500
X2.04900 Y0.51600
X2.05000 Y0.51600
X2.05000 Y0.51700
X2.05100 Y0.51700
X2.05100 Y0.51800
X2.05200 Y0.51800
X2.05200 Y0.51900
X2.05300 Y0.51900
X2.05300 Y0.52000
X2.05400 Y0.52000
X2.05400 Y0.52100
X2.05500 Y0.52100
X2.05500 Y0.52200
X2.05600 Y0.52200
X2.05600 Y0.52300
X2.05700 Y0.52300
X2.05700 Y0.52400
X2.05800 Y0.52400
X2.05800 Y0.52500
X2.05900 Y0.52500
X2.05900 Y0.52600
X2.06000 Y0.52600
X2.06000 Y0.52700
X2.06100 Y0.52700
X2.06100 Y0.52800
X2.06200 Y0.52800
X2.06200 Y0.52900
X2.06300 Y0.52900
X2.06300 Y0.53000
X2.06400 Y0.53000
X2.06400 Y0.53100
X2.06500 Y0.53100
X2.06500 Y0.53200
X2.06700 Y0.53200
X2.06700 Y0.53300
X2.06800 Y0.53300
X2.06800 Y0.53400
X2.06900 Y0.53400
X2.06900 Y0.53500
X2.07000 Y0.53500
X2.07000 Y0.53600
X2.07100 Y0.53600
X2.07100 Y0.53700
X2.07200 Y0.53700
X2.07200 Y0.53800
X2.07400 Y0.53800
X2.07400 Y0.53900
X2.07500 Y0.53900
X2.07500 Y0.54000
X2.07700 Y0.54000
X2.07700 Y0.54100
X2.07800 Y0.54100
X2.07800 Y0.54200
X2.08000 Y0.54200
X2.08000 Y0.54300
X2.08300 Y0.54300
X2.08300 Y0.54400
X2.08500 Y0.54400
X2.08500 Y0.54500
X2.08800 Y0.54500
X2.08800 Y0.54600
X2.09100 Y0.54600
X2.09100 Y0.54700
X2.47400 Y0.54700
X2.47400 Y0.54800
X2.47500 Y0.54800
X2.47500 Y0.54900
X2.48100 Y0.54900
X2.48100 Y0.55000
X2.48700 Y0.55000
X2.48700 Y0.55100
X2.51400 Y0.55100
X2.51400 Y0.55000
X2.52000 Y0.55000
X2.52000 Y0.54900
X2.52600 Y0.54900
X2.52600 Y0.54800
X2.52700 Y0.54800
X2.52700 Y0.54700
X2.52800 Y0.54700
X2.52800 Y0.54600
X2.53000 Y0.54600
X2.53000 Y0.54500
X2.53100 Y0.54500
X2.53100 Y0.54400
X2.53300 Y0.54400
X2.53300 Y0.54300
X2.53400 Y0.54300
X2.53400 Y0.54200
X2.53500 Y0.54200
X2.53500 Y0.54100
X2.53700 Y0.54100
X2.53700 Y0.54000
G04 P0 ( dwell for no time -- G64 should not smooth over this point )
G00 Z0.19685 ( retract )

G00 X2.92400 Y0.54000 ( rapid move to begin. )
G01 Z-0.01969 F1.96850 ( plunge. )
G04 P0 ( dwell for no time -- G64 should not smooth over this point )
X2.92400 Y0.54000
X2.92500 Y0.54000
X2.92500 Y0.53900
X2.92700 Y0.53900
X2.92700 Y0.53800
X2.92800 Y0.53800
X2.92800 Y0.53700
X2.92900 Y0.53700
X2.92900 Y0.53600
X2.93000 Y0.53600
X2.93000 Y0.53500
X2.93100 Y0.53500
X2.93100 Y0.53400
X2.93200 Y0.53400
X2.93200 Y0.53300
X2.93400 Y0.53300
X2.93400 Y0.53200
X2.93500 Y0.53200
X2.93500 Y0.53100
X2.93600 Y0.53100
X2.93600 Y0.53000
X2.93700 Y0.53000
X2.93700 Y0.52900
X2.93800 Y0.52900
X2.93800 Y0.52800
X2.93900 Y0.52800
X2.93900 Y0.52700
X2.94000 Y0.52700
X2.94000 Y0.52600
X2.94100 Y0.52600
X2.94100 Y0.52500
X2.94200 Y0.52500
X2.94200 Y0.52400
X2.94300 Y0.52400
X2.94300 Y0.52300
X2.94400 Y0.52300
X2.94400 Y0.52200
X2.94500 Y0.52200
X2.94500 Y0.52100
X2.94600 Y0.52100
X2.94600 Y0.52000
X2.94700 Y0.52000
X2.94700 Y0.51900
X2.94800 Y0.51900
X2.94800 Y0.51800
X2.94900 Y0.51800
X2.94900 Y0.51700
X2.95000 Y0.51700
X2.95000 Y0.51600
X2.95100 Y0.51600
X2.95100 Y0.51500
X2.95200 Y0.51500
X2.95200 Y0.51400
X2.95300 Y0.51400
X2.95300 Y0.51300
X2.95400 Y0.51300
X2.95400 Y0.51200
X2.95500 Y0.51200
X2.95500 Y0.51100
X2.95600 Y0.51100
X2.95600 Y0.51000
X2.95700 Y0.51000
X2.95700 Y0.50900
X2.95800 Y0.50900
X2.95800 Y0.50800
X2.95900 Y0.50800
X2.95900 Y0.50700
X2.96000 Y0.50700
X2.96000 Y0.50600
X2.96100 Y0.50600
X2.96100 Y0.50500
X2.96200 Y0.50500
X2.96200 Y0.50400
X2.96300 Y0.50400
X2.96300 Y0.50300
X2.96400 Y0.50300
X2.96400 Y0.50200
X2.96500 Y0.50200
X2.96500 Y0.50100
X2.96600 Y0.50100
X2.96600 Y0.50000
X2.96700 Y0.50000
X2.96700 Y0.49900
X2.96800 Y0.49900
X2.96800 Y0.49800
X2.96900 Y0.49800
X2.96900 Y0.49700
X2.97000 Y0.49700
X2.97000 Y0.49600
X2.97100 Y0.49600
X2.97100 Y0.49500
X2.97200 Y0.49500
X2.97200 Y0.49400
X2.97300 Y0.49400
X2.97300 Y0.49300
X2.97400 Y0.49300
X2.97400 Y0.49200
X2.97500 Y0.49200
X2.97500 Y0.49100
X2.97600 Y0.49100
X2.97600 Y0.49000
X2.97700 Y0.49000
X2.97700 Y0.48900
X2.97800 Y0.48900
X2.97800 Y0.48800
X2.97900 Y0.48800
X2.97900 Y0.48700
X2.98000 Y0.48700
X2.98000 Y0.48600
X2.98100 Y0.48600
X2.98100 Y0.48500
X2.98200 Y0.48500
X2.98200 Y0.48400
X2.98300 Y0.48400
X2.98300 Y0.48300
X2.98400 Y0.48300
X2.98400 Y0.48200
X2.98500 Y0.48200
X2.98500 Y0.48100
X2.98600 Y0.48100
X2.98600 Y0.48000
X2.98700 Y0.48000
X2.98700 Y0.47900
X2.98800 Y0.47900
X2.98800 Y0.47800
X2.98900 Y0.47800
X2.98900 Y0.47700
X2.99000 Y0.47700
X2.99000 Y0.47600
X2.99100 Y0.47600
X2.99100 Y0.47500
X2.99200 Y0.47500
X2.99200 Y0.47400
X2.99300 Y0.47400
X2.99300 Y0.47300
X2.99400 Y0.47300
X2.99400 Y0.47200
X2.99500 Y0.47200
X2.99500 Y0.47100
X2.99600 Y0.47100
X2.99600 Y0.47000
X2.99700 Y0.47000
X2.99700 Y0.46900
X2.99800 Y0.46900
X2.99800 Y0.46800
X2.99900 Y0.46800
X2.99900 Y0.46700
X3.00000 Y0.46700
X3.00000 Y0.46600
X3.00100 Y0.46600
X3.00100 Y0.46500
X3.00200 Y0.46500
X3.00200 Y0.46400
X3.00300 Y0.46400
X3.00300 Y0.46300
X3.00400 Y0.46300
X3.00400 Y0.46200
X3.00500 Y0.46200
X3.00500 Y0.46100
X3.00600 Y0.46100
X3.00600 Y0.46000
X3.00700 Y0.46000
X3.00700 Y0.45900
X3.00800 Y0.45900
X3.00800 Y0.45800
X3.00900 Y0.45800
X3.00900 Y0.45700
X3.01000 Y0.45700
X3.01000 Y0.45600
X3.01100 Y0.45600
X3.01100 Y0.45500
X3.01200 Y0.45500
X3.01200 Y0.45400
X3.01300 Y0.45400
X3.01300 Y0.45300
X3.01400 Y0.45300
X3.01400 Y0.45200
X3.01500 Y0.45200
X3.01500 Y0.45100
X3.01600 Y0.45100
X3.01600 Y0.45000
X3.01700 Y0.45000
X3.01700 Y0.44900
X3.01800 Y0.44900
X3.01800 Y0.44800
X3.01900 Y0.44800
X3.01900 Y0.44700
X3.02000 Y0.44700
X3.02000 Y0.44600
X3.02100 Y0.44600
X3.02100 Y0.44500
X3.02200 Y0.44500
X3.02200 Y0.44400
X3.02300 Y0.44400
X3.02300 Y0.44300
X3.02400 Y0.44300
X3.02400 Y0.44200
X3.02500 Y0.44200
X3.02500 Y0.44100
X3.02600 Y0.44100
X3.02600 Y0.44000
X3.02700 Y0.44000
X3.02700 Y0.43900
X3.02800 Y0.43900
X3.02800 Y0.43800
X3.02900 Y0.43800
X3.02900 Y0.43700
X3.03000 Y0.43700
X3.03000 Y0.43600
X3.03100 Y0.43600
X3.03100 Y0.43500
X3.03200 Y0.43500
X3.03200 Y0.43400
X3.03300 Y0.43400
X3.03300 Y0.43200
X3.03400 Y0.43200
X3.03400 Y0.43100
X3.03500 Y0.43100
X3.03500 Y0.43000
X3.03600 Y0.43000
X3.03600 Y0.42900
X3.03700 Y0.42900
X3.03700 Y0.42800
X3.03800 Y0.42800
X3.03800 Y0.42700
X3.03900 Y0.42700
X3.03900 Y0.42500
X3.04000 Y0.42500
X3.04000 Y0.42400
X3.04100 Y0.42400
X3.04100 Y0.42200
X3.04200 Y0.42200
X3.04200 Y0.42000
X3.04300 Y0.42000
X3.04300 Y0.41700
X3.04400 Y0.41700
X3.04400 Y0.41500
X3.04500 Y0.41500
X3.04500 Y0.41200
X3.04600 Y0.41200
X3.04600 Y0.40900
X3.04700 Y0.40900
X3.04700 Y0.29100
X3.04600 Y0.29100
X3.04600 Y0.28800
X3.04500 Y0.28800
X3.04500 Y0.28500
X3.04400 Y0.28500
X3.04400 Y0.28300
X3.04300 Y0.28300
X3.04300 Y0.28000
X3.04200 Y0.28000
X3.04200 Y0.27800
X3.04100 Y0.27800
X3.04100 Y0.27700
X3.04000 Y0.27700
X3.04000 Y0.27500
X3.03900 Y0.27500
X3.03900 Y0.27400
X3.03800 Y0.27400
X3.03800 Y0.27200
X3.03700 Y0.27200
X3.03700 Y0.27100
X3.03600 Y0.27100
X3.03600 Y0.27000
X3.03500 Y0.27000
X3.03500 Y0.26900
X3.03400 Y0.26900
X3.03400 Y0.26800
X3.03300 Y0.26800
X3.03300 Y0.26600
X3.03200 Y0.26600
X3.03200 Y0.26500
X3.03100 Y0.26500
X3.03100 Y0.26400
X3.03000 Y0.26400
X3.03000 Y0.26300
X3.02900 Y0.26300
X3.02900 Y0.26200
X3.02800 Y0.26200
X3.02800 Y0.26100
X3.02700 Y0.26100
X3.02700 Y0.26000
X3.02600 Y0.26000
X3.02600 Y0.25900
X3.02500 Y0.25900
X3.02500 Y0.25800
X3.02400 Y0.25800
X3.02400 Y0.25700
X3.02300 Y0.25700
X3.02300 Y0.25600
X3.02200 Y0.25600
X3.02200 Y0.25500
X3.02100 Y0.25500
X3.02100 Y0.25400
X3.02000 Y0.25400
X3.02000 Y0.25300
X3.01900 Y0.25300
X3.01900 Y0.25200
X3.01800 Y0.25200
X3.01800 Y0.25100
X3.01700 Y0.25100
X3.01700 Y0.25000
X3.01600 Y0.25000
X3.01600 Y0.24900
X3.01500 Y0.24900
X3.01500 Y0.24800
X3.01400 Y0.24800
X3.01400 Y0.24700
X3.01300 Y0.24700
X3.01300 Y0.24600
X3.01200 Y0.24600
X3.01200 Y0.24500
X3.01100 Y0.24500
X3.01100 Y0.24400
X3.01000 Y0.24400
X3.01000 Y0.24300
X3.00900 Y0.24300
X3.00900 Y0.24200
X3.00800 Y0.24200
X3.00800 Y0.24100
X3.00700 Y0.24100
X3.00700 Y0.24000
X3.00600 Y0.24000
X3.00600 Y0.23900
X3.00500 Y0.23900
X3.00500 Y0.23800
X3.00400 Y0.23800
X3.00400 Y0.23700
X3.00300 Y0.23700
X3.00300 Y0.23600
X3.00200 Y0.23600
X3.00200 Y0.23500
X3.00100 Y0.23500
X3.00100 Y0.23400
X3.00000 Y0.23400
X3.00000 Y0.23300
X2.99900 Y0.23300
X2.99900 Y0.23200
X2.99800 Y0.23200
X2.99800 Y0.23100
X2.99700 Y0.23100
X2.99700 Y0.23000
X2.99600 Y0.23000
X2.99600 Y0.22900
X2.99500 Y0.22900
X2.99500 Y0.22800
X2.99400 Y0.22800
X2.99400 Y0.22700
X2.99300 Y0.22700
X2.99300 Y0.22600
X2.99200 Y0.22600
X2.99200 Y0.22500
X2.99100 Y0.22500
X2.99100 Y0.22400
X2.99000 Y0.22400
X2.99000 Y0.22300
X2.98900 Y0.22300
X2.98900 Y0.22200
X2.98800 Y0.22200
X2.98800 Y0.22100
X2.98700 Y0.22100
X2.98700 Y0.22000
X2.98600 Y0.22000
X2.98600 Y0.21900
X2.98500 Y0.21900
X2.98500 Y0.21800
X2.98400 Y0.21800
X2.98400 Y0.21700
X2.98300 Y0.21700
X2.98300 Y0.21600
X2.98200 Y0.21600
X2.98200 Y0.21500
X2.98100 Y0.21500
X2.98100 Y0.21400
X2.98000 Y0.21400
X2.98000 Y0.21300
X2.97900 Y0.21300
X2.97900 Y0.21200
X2.97800 Y0.21200
X2.97800 Y0.21100
X2.97700 Y0.21100
X2.97700 Y0.21000
X2.97600 Y0.21000
X2.97600 Y0.20900
X2.97500 Y0.20900
X2.97500 Y0.20800
X2.97400 Y0.20800
X2.97400 Y0.20700
X2.97300 Y0.20700
X2.97300 Y0.20600
X2.97200 Y0.20600
X2.97200 Y0.20500
X2.97100 Y0.20500
X2.97100 Y0.20400
X2.97000 Y0.20400
X2.97000 Y0.20300
X2.96900 Y0.20300
X2.96900 Y0.20200
X2.96800 Y0.20200
X2.96800 Y0.20100
X2.96700 Y0.20100
X2.96700 Y0.20000
X2.96600 Y0.20000
X2.96600 Y0.19900
X2.96500 Y0.19900
X2.96500 Y0.19800
X2.96400 Y0.19800
X2.96400 Y0.19700
X2.96300 Y0.19700
X2.96300 Y0.19600
X2.96200 Y0.19600
X2.96200 Y0.19500
X2.96100 Y0.19500
X2.96100 Y0.19400
X2.96000 Y0.19400
X2.96000 Y0.19300
X2.95900 Y0.19300
X2.95900 Y0.19200
X2.95800 Y0.19200
X2.95800 Y0.19100
X2.95700 Y0.19100
X2.95700 Y0.19000
X2.95600 Y0.19000
X2.95600 Y0.18900
X2.95500 Y0.18900
X2.95500 Y0.18800
X2.95400 Y0.18800
X2.95400 Y0.18700
X2.95300 Y0.18700
X2.95300 Y0.18600
X2.95200 Y0.18600
X2.95200 Y0.18300
X2.95100 Y0.18300
X2.95100 Y0.18000
X2.95000 Y0.18000
X2.95000 Y0.17700
X2.94900 Y0.17700
X2.94900 Y0.17500
X2.94800 Y0.17500
X2.94800 Y0.17400
X2.94700 Y0.17400
X2.94700 Y0.17200
X2.94600 Y0.17200
X2.94600 Y0.17000
X2.94500 Y0.17000
X2.94500 Y0.16900
X2.94400 Y0.16900
X2.94400 Y0.16700
X2.94300 Y0.16700
X2.94300 Y0.16600
X2.94200 Y0.16600
X2.94200 Y0.16500
X2.94100 Y0.16500
X2.94100 Y0.16400
X2.94000 Y0.16400
X2.94000 Y0.16300
X2.93900 Y0.16300
X2.93900 Y0.16200
X2.93800 Y0.16200
X2.93800 Y0.16100
X2.93700 Y0.16100
X2.93700 Y0.16000
X2.93600 Y0.16000
X2.93600 Y0.15900
X2.93500 Y0.15900
X2.93500 Y0.15800
X2.93400 Y0.15800
X2.93400 Y0.15700
X2.93300 Y0.15700
X2.93300 Y0.15600
X2.93100 Y0.15600
X2.93100 Y0.15500
X2.92900 Y0.15500
X2.92900 Y0.15400
X2.92700 Y0.15400
X2.92700 Y0.15300
X2.92600 Y0.15300
X2.92600 Y0.15200
X2.92000 Y0.15200
X2.92000 Y0.15100
X2.91400 Y0.15100
X2.91400 Y0.15000
X2.88700 Y0.15000
X2.88700 Y0.15100
X2.88100 Y0.15100
X2.88100 Y0.15200
X2.87500 Y0.15200
X2.87500 Y0.15300
X2.87400 Y0.15300
X2.87400 Y0.15400
X2.87200 Y0.15400
X2.87200 Y0.15500
X2.87000 Y0.15500
X2.87000 Y0.15600
X2.86800 Y0.15600
X2.86800 Y0.15700
X2.86700 Y0.15700
X2.86700 Y0.15800
X2.86500 Y0.15800
X2.86500 Y0.15900
X2.86400 Y0.15900
X2.86400 Y0.16000
X2.86300 Y0.16000
X2.86300 Y0.16100
X2.86200 Y0.16100
X2.86200 Y0.16200
X2.86100 Y0.16200
X2.86100 Y0.16300
X2.86000 Y0.16300
X2.86000 Y0.16400
X2.85900 Y0.16400
X2.85900 Y0.16500
X2.85800 Y0.16500
X2.85800 Y0.16600
X2.85700 Y0.16600
X2.85700 Y0.16700
X2.85600 Y0.16700
X2.85600 Y0.16900
X2.85500 Y0.16900
X2.85500 Y0.17100
X2.85400 Y0.17100
X2.85400 Y0.17300
X2.85300 Y0.17300
X2.85300 Y0.17500
X2.85200 Y0.17500
X2.85200 Y0.17900
X2.85100 Y0.17900
X2.85100 Y0.18500
X2.85000 Y0.18500
X2.85000 Y0.21600
X2.85100 Y0.21600
X2.85100 Y0.22200
X2.85200 Y0.22200
X2.85200 Y0.22600
X2.85300 Y0.22600
X2.85300 Y0.22800
X2.85400 Y0.22800
X2.85400 Y0.22900
X2.85500 Y0.22900
X2.85500 Y0.23100
X2.85600 Y0.23100
X2.85600 Y0.23300
X2.85700 Y0.23300
X2.85700 Y0.23400
X2.85800 Y0.23400
X2.85800 Y0.23500
X2.85900 Y0.23500
X2.85900 Y0.23600
X2.86000 Y0.23600
X2.86000 Y0.23700
X2.86100 Y0.23700
X2.86100 Y0.23800
X2.86200 Y0.23800
X2.86200 Y0.23900
X2.86300 Y0.23900
X2.86300 Y0.24000
X2.86400 Y0.24000
X2.86400 Y0.24100
X2.86500 Y0.24100
X2.86500 Y0.24200
X2.86600 Y0.24200
X2.86600 Y0.24300
X2.86700 Y0.24300
X2.86700 Y0.24400
X2.86900 Y0.24400
X2.86900 Y0.24500
X2.87000 Y0.24500
X2.87000 Y0.24600
X2.87200 Y0.24600
X2.87200 Y0.24700
X2.87400 Y0.24700
X2.87400 Y0.24800
X2.87500 Y0.24800
X2.87500 Y0.24900
X2.87700 Y0.24900
X2.87700 Y0.25000
X2.88000 Y0.25000
X2.88000 Y0.25100
X2.88300 Y0.25100
X2.88300 Y0.25200
X2.88600 Y0.25200
X2.88600 Y0.25300
X2.88800 Y0.25300
X2.88800 Y0.25400
X2.88900 Y0.25400
X2.88900 Y0.25500
X2.89000 Y0.25500
X2.89000 Y0.25600
X2.89100 Y0.25600
X2.89100 Y0.25700
X2.89200 Y0.25700
X2.89200 Y0.25800
X2.89300 Y0.25800
X2.89300 Y0.25900
X2.89400 Y0.25900
X2.89400 Y0.26000
X2.89500 Y0.26000
X2.89500 Y0.26100
X2.89600 Y0.26100
X2.89600 Y0.26200
X2.89700 Y0.26200
X2.89700 Y0.26300
X2.89800 Y0.26300
X2.89800 Y0.26400
X2.89900 Y0.26400
X2.89900 Y0.26500
X2.90000 Y0.26500
X2.90000 Y0.26600
X2.90100 Y0.26600
X2.90100 Y0.26700
X2.90200 Y0.26700
X2.90200 Y0.26800
X2.90300 Y0.26800
X2.90300 Y0.26900
X2.90400 Y0.26900
X2.90400 Y0.27000
X2.90500 Y0.27000
X2.90500 Y0.27100
X2.90600 Y0.27100
X2.90600 Y0.27200
X2.90700 Y0.27200
X2.90700 Y0.27300
X2.90800 Y0.27300
X2.90800 Y0.27400
X2.90900 Y0.27400
X2.90900 Y0.27500
X2.91000 Y0.27500
X2.91000 Y0.27600
X2.91100 Y0.27600
X2.91100 Y0.27700
X2.91200 Y0.27700
X2.91200 Y0.27800
X2.91300 Y0.27800
X2.91300 Y0.27900
X2.91400 Y0.27900
X2.91400 Y0.28000
X2.91500 Y0.28000
X2.91500 Y0.28100
X2.91600 Y0.28100
X2.91600 Y0.28200
X2.91700 Y0.28200
X2.91700 Y0.28300
X2.91800 Y0.28300
X2.91800 Y0.28400
X2.91900 Y0.28400
X2.91900 Y0.28500
X2.92000 Y0.28500
X2.92000 Y0.28600
X2.92100 Y0.28600
X2.92100 Y0.28700
X2.92200 Y0.28700
X2.92200 Y0.28800
X2.92300 Y0.28800
X2.92300 Y0.28900
X2.92400 Y0.28900
X2.92400 Y0.29000
X2.92500 Y0.29000
X2.92500 Y0.29100
X2.92600 Y0.29100
X2.92600 Y0.29200
X2.92700 Y0.29200
X2.92700 Y0.29300
X2.92800 Y0.29300
X2.92800 Y0.29400
X2.92900 Y0.29400
X2.92900 Y0.29500
X2.93000 Y0.29500
X2.93000 Y0.29600
X2.93100 Y0.29600
X2.93100 Y0.29700
X2.93200 Y0.29700
X2.93200 Y0.29800
X2.93300 Y0.29800
X2.93300 Y0.29900
X2.93400 Y0.29900
X2.93400 Y0.30000
X2.93500 Y0.30000
X2.93500 Y0.30100
X2.93600 Y0.30100
X2.93600 Y0.30200
X2.93700 Y0.30200
X2.93700 Y0.30300
X2.93800 Y0.30300
X2.93800 Y0.30400
X2.93900 Y0.30400
X2.93900 Y0.30500
X2.94000 Y0.30500
X2.94000 Y0.30600
X2.94100 Y0.30600
X2.94100 Y0.30700
X2.94200 Y0.30700
X2.94200 Y0.30800
X2.94300 Y0.30800
X2.94300 Y0.30900
X2.94400 Y0.30900
X2.94400 Y0.31000
X2.94500 Y0.31000
X2.94500 Y0.31100
X2.94600 Y0.31100
X2.94600 Y0.31200
X2.94700 Y0.31200
X2.94700 Y0.31300
X2.94800 Y0.31300
X2.94800 Y0.31400
X2.94900 Y0.31400
X2.94900 Y0.31500
X2.95000 Y0.31500
X2.95000 Y0.31600
X2.95100 Y0.31600
X2.95100 Y0.31700
X2.95200 Y0.31700
X2.95200 Y0.31800
X2.95300 Y0.31800
X2.95300 Y0.38100
X2.95200 Y0.38100
X2.95200 Y0.38200
X2.95100 Y0.38200
X2.95100 Y0.38300
X2.95000 Y0.38300
X2.95000 Y0.38400
X2.94900 Y0.38400
X2.94900 Y0.38500
X2.94800 Y0.38500
X2.94800 Y0.38600
X2.94700 Y0.38600
X2.94700 Y0.38700
X2.94600 Y0.38700
X2.94600 Y0.38800
X2.94500 Y0.38800
X2.94500 Y0.38900
X2.94400 Y0.38900
X2.94400 Y0.39000
X2.94300 Y0.39000
X2.94300 Y0.39100
X2.94200 Y0.39100
X2.94200 Y0.39200
X2.94100 Y0.39200
X2.94100 Y0.39300
X2.94000 Y0.39300
X2.94000 Y0.39400
X2.93900 Y0.39400
X2.93900 Y0.39500
X2.93800 Y0.39500
X2.93800 Y0.39600
X2.93700 Y0.39600
X2.93700 Y0.39700
X2.93600 Y0.39700
X2.93600 Y0.39800
X2.93500 Y0.39800
X2.93500 Y0.39900
X2.93400 Y0.39900
X2.93400 Y0.40000
X2.93300 Y0.40000
X2.93300 Y0.40100
X2.93200 Y0.40100
X2.93200 Y0.40200
X2.93100 Y0.40200
X2.93100 Y0.40300
X2.93000 Y0.40300
X2.93000 Y0.40400
X2.92900 Y0.40400
X2.92900 Y0.40500
X2.92800 Y0.40500
X2.92800 Y0.40600
X2.92700 Y0.40600
X2.92700 Y0.40700
X2.92600 Y0.40700
X2.92600 Y0.40800
X2.92500 Y0.40800
X2.92500 Y0.40900
X2.92400 Y0.40900
X2.92400 Y0.41000
X2.92300 Y0.41000
X2.92300 Y0.41100
X2.92200 Y0.41100
X2.92200 Y0.41200
X2.92100 Y0.41200
X2.92100 Y0.41300
X2.92000 Y0.41300
X2.92000 Y0.41400
X2.91900 Y0.41400
X2.91900 Y0.41500
X2.91800 Y0.41500
X2.91800 Y0.41600
X2.91700 Y0.41600
X2.91700 Y0.41700
X2.91600 Y0.41700
X2.91600 Y0.41800
X2.91500 Y0.41800
X2.91500 Y0.41900
X2.91400 Y0.41900
X2.91400 Y0.42000
X2.91300 Y0.42000
X2.91300 Y0.42100
X2.91200 Y0.42100
X2.91200 Y0.42200
X2.91100 Y0.42200
X2.91100 Y0.42300
X2.91000 Y0.42300
X2.91000 Y0.42400
X2.90900 Y0.42400
X2.90900 Y0.42500
X2.90800 Y0.42500
X2.90800 Y0.42600
X2.90700 Y0.42600
X2.90700 Y0.42700
X2.90600 Y0.42700
X2.90600 Y0.42800
X2.90500 Y0.42800
X2.90500 Y0.42900
X2.90400 Y0.42900
X2.90400 Y0.43000
X2.90300 Y0.43000
X2.90300 Y0.43100
X2.90200 Y0.43100
X2.90200 Y0.43200
X2.90100 Y0.43200
X2.90100 Y0.43300
X2.90000 Y0.43300
X2.90000 Y0.43400
X2.89900 Y0.43400
X2.89900 Y0.43500
X2.89800 Y0.43500
X2.89800 Y0.43600
X2.89700 Y0.43600
X2.89700 Y0.43700
X2.89600 Y0.43700
X2.89600 Y0.43800
X2.89500 Y0.43800
X2.89500 Y0.43900
X2.89400 Y0.43900
X2.89400 Y0.44000
X2.89300 Y0.44000
X2.89300 Y0.44100
X2.89200 Y0.44100
X2.89200 Y0.44200
X2.89100 Y0.44200
X2.89100 Y0.44300
X2.89000 Y0.44300
X2.89000 Y0.44400
X2.88900 Y0.44400
X2.88900 Y0.44500
X2.88800 Y0.44500
X2.88800 Y0.44600
X2.88700 Y0.44600
X2.88700 Y0.44700
X2.88600 Y0.44700
X2.88600 Y0.44800
X2.88500 Y0.44800
X2.88500 Y0.44900
X2.88400 Y0.44900
X2.88400 Y0.45000
X2.88300 Y0.45000
X2.88300 Y0.45100
X2.88200 Y0.45100
X2.88200 Y0.45200
X2.88100 Y0.45200
X2.88100 Y0.45300
X2.65300 Y0.45300
X2.65300 Y0.45200
X2.65100 Y0.45200
X2.65100 Y0.45000
X2.55000 Y0.45000
X2.55000 Y0.48500
X2.55100 Y0.48500
X2.55100 Y0.51600
X2.55000 Y0.51600
X2.55000 Y0.55000
X2.55100 Y0.55000
X2.55100 Y0.55100
X2.65000 Y0.55100
X2.65000 Y0.55000
X2.65100 Y0.55000
X2.65100 Y0.54800
X2.65300 Y0.54800
X2.65300 Y0.54700
X2.90900 Y0.54700
X2.90900 Y0.54600
X2.91200 Y0.54600
X2.91200 Y0.54500
X2.91500 Y0.54500
X2.91500 Y0.54400
X2.91700 Y0.54400
X2.91700 Y0.54300
X2.92000 Y0.54300
X2.92000 Y0.54200
X2.92200 Y0.54200
X2.92200 Y0.54100
X2.92400 Y0.54100
X2.92400 Y0.54000
G04 P0 ( dwell for no time -- G64 should not smooth over this point )
G00 Z0.19685 ( retract )

G00 X3.43700 Y0.54000 ( rapid move to begin. )
G01 Z-0.01969 F1.96850 ( plunge. )
G04 P0 ( dwell for no time -- G64 should not smooth over this point )
X3.43700 Y0.54000
X3.43800 Y0.54000
X3.43800 Y0.53900
X3.43900 Y0.53900
X3.43900 Y0.53800
X3.44000 Y0.53800
X3.44000 Y0.53700
X3.44100 Y0.53700
X3.44100 Y0.53500
X3.44200 Y0.53500
X3.44200 Y0.53400
X3.44300 Y0.53400
X3.44300 Y0.53300
X3.44400 Y0.53300
X3.44400 Y0.53100
X3.44500 Y0.53100
X3.44500 Y0.53000
X3.44600 Y0.53000
X3.44600 Y0.52800
X3.44700 Y0.52800
X3.44700 Y0.52700
X3.44800 Y0.52700
X3.44800 Y0.52500
X3.44900 Y0.52500
X3.44900 Y0.52200
X3.45000 Y0.52200
X3.45000 Y0.51600
X3.45100 Y0.51600
X3.45100 Y0.48500
X3.45000 Y0.48500
X3.45000 Y0.47900
X3.44900 Y0.47900
X3.44900 Y0.47600
X3.44800 Y0.47600
X3.44800 Y0.47400
X3.44700 Y0.47400
X3.44700 Y0.47200
X3.44600 Y0.47200
X3.44600 Y0.47000
X3.44500 Y0.47000
X3.44500 Y0.46900
X3.44400 Y0.46900
X3.44400 Y0.46700
X3.44300 Y0.46700
X3.44300 Y0.46600
X3.44200 Y0.46600
X3.44200 Y0.46500
X3.44100 Y0.46500
X3.44100 Y0.46400
X3.44000 Y0.46400
X3.44000 Y0.46300
X3.43900 Y0.46300
X3.43900 Y0.46200
X3.43800 Y0.46200
X3.43800 Y0.46100
X3.43700 Y0.46100
X3.43700 Y0.46000
X3.43600 Y0.46000
X3.43600 Y0.45900
X3.43500 Y0.45900
X3.43500 Y0.45800
X3.43400 Y0.45800
X3.43400 Y0.45700
X3.43300 Y0.45700
X3.43300 Y0.45600
X3.43100 Y0.45600
X3.43100 Y0.45500
X3.42900 Y0.45500
X3.42900 Y0.45400
X3.42700 Y0.45400
X3.42700 Y0.45300
X3.42600 Y0.45300
X3.42600 Y0.45200
X3.42000 Y0.45200
X3.42000 Y0.45100
X3.41400 Y0.45100
X3.41400 Y0.45000
X3.38700 Y0.45000
X3.38700 Y0.45100
X3.38100 Y0.45100
X3.38100 Y0.45200
X3.37400 Y0.45200
X3.37400 Y0.45300
X3.21900 Y0.45300
X3.21900 Y0.45200
X3.21800 Y0.45200
X3.21800 Y0.45100
X3.21700 Y0.45100
X3.21700 Y0.45000
X3.21600 Y0.45000
X3.21600 Y0.44900
X3.21500 Y0.44900
X3.21500 Y0.44800
X3.21400 Y0.44800
X3.21400 Y0.44700
X3.21300 Y0.44700
X3.21300 Y0.44600
X3.21200 Y0.44600
X3.21200 Y0.44500
X3.21100 Y0.44500
X3.21100 Y0.44400
X3.21000 Y0.44400
X3.21000 Y0.44300
X3.20900 Y0.44300
X3.20900 Y0.44200
X3.20800 Y0.44200
X3.20800 Y0.44100
X3.20700 Y0.44100
X3.20700 Y0.44000
X3.20600 Y0.44000
X3.20600 Y0.43900
X3.20500 Y0.43900
X3.20500 Y0.43800
X3.20400 Y0.43800
X3.20400 Y0.43700
X3.20300 Y0.43700
X3.20300 Y0.43600
X3.20200 Y0.43600
X3.20200 Y0.43500
X3.20100 Y0.43500
X3.20100 Y0.43400
X3.20000 Y0.43400
X3.20000 Y0.43300
X3.19900 Y0.43300
X3.19900 Y0.43200
X3.19800 Y0.43200
X3.19800 Y0.43100
X3.19700 Y0.43100
X3.19700 Y0.43000
X3.19600 Y0.43000
X3.19600 Y0.42900
X3.19500 Y0.42900
X3.19500 Y0.42800
X3.19400 Y0.42800
X3.19400 Y0.42700
X3.19300 Y0.42700
X3.19300 Y0.42600
X3.19200 Y0.42600
X3.19200 Y0.42500
X3.19100 Y0.42500
X3.19100 Y0.42400
X3.19000 Y0.42400
X3.19000 Y0.42300
X3.18900 Y0.42300
X3.18900 Y0.42200
X3.18800 Y0.42200
X3.18800 Y0.42100
X3.18700 Y0.42100
X3.18700 Y0.42000
X3.18600 Y0.42000
X3.18600 Y0.41900
X3.18500 Y0.41900
X3.18500 Y0.41800
X3.18400 Y0.41800
X3.18400 Y0.41700
X3.18300 Y0.41700
X3.18300 Y0.41600
X3.18200 Y0.41600
X3.18200 Y0.41500
X3.18100 Y0.41500
X3.18100 Y0.41400
X3.18000 Y0.41400
X3.18000 Y0.41300
X3.17900 Y0.41300
X3.17900 Y0.41200
X3.17800 Y0.41200
X3.17800 Y0.41100
X3.17700 Y0.41100
X3.17700 Y0.41000
X3.17600 Y0.41000
X3.17600 Y0.40900
X3.17500 Y0.40900
X3.17500 Y0.40800
X3.17400 Y0.40800
X3.17400 Y0.40700
X3.17300 Y0.40700
X3.17300 Y0.40600
X3.17200 Y0.40600
X3.17200 Y0.40500
X3.17100 Y0.40500
X3.17100 Y0.40400
X3.17000 Y0.40400
X3.17000 Y0.40300
X3.16900 Y0.40300
X3.16900 Y0.40200
X3.16800 Y0.40200
X3.16800 Y0.40100
X3.16700 Y0.40100
X3.16700 Y0.40000
X3.16600 Y0.40000
X3.16600 Y0.39900
X3.16500 Y0.39900
X3.16500 Y0.39800
X3.16400 Y0.39800
X3.16400 Y0.39700
X3.16300 Y0.39700
X3.16300 Y0.39600
X3.16200 Y0.39600
X3.16200 Y0.39500
X3.16100 Y0.39500
X3.16100 Y0.39400
X3.16000 Y0.39400
X3.16000 Y0.39300
X3.15900 Y0.39300
X3.15900 Y0.39200
X3.15800 Y0.39200
X3.15800 Y0.39100
X3.15700 Y0.39100
X3.15700 Y0.39000
X3.15600 Y0.39000
X3.15600 Y0.38900
X3.15500 Y0.38900
X3.15500 Y0.38800
X3.15400 Y0.38800
X3.15400 Y0.38700
X3.15300 Y0.38700
X3.15300 Y0.38600
X3.15200 Y0.38600
X3.15200 Y0.38500
X3.15100 Y0.38500
X3.15100 Y0.38400
X3.15000 Y0.38400
X3.15000 Y0.38300
X3.14900 Y0.38300
X3.14900 Y0.38200
X3.14800 Y0.38200
X3.14800 Y0.38100
X3.14700 Y0.38100
X3.14700 Y0.31800
X3.14900 Y0.31800
X3.14900 Y0.31700
X3.15000 Y0.31700
X3.15000 Y0.31600
X3.15100 Y0.31600
X3.15100 Y0.31500
X3.15200 Y0.31500
X3.15200 Y0.31400
X3.15300 Y0.31400
X3.15300 Y0.31300
X3.15400 Y0.31300
X3.15400 Y0.31200
X3.15500 Y0.31200
X3.15500 Y0.31100
X3.15600 Y0.31100
X3.15600 Y0.31000
X3.15700 Y0.31000
X3.15700 Y0.30900
X3.15800 Y0.30900
X3.15800 Y0.30800
X3.15900 Y0.30800
X3.15900 Y0.30700
X3.16000 Y0.30700
X3.16000 Y0.30600
X3.16100 Y0.30600
X3.16100 Y0.30500
X3.16200 Y0.30500
X3.16200 Y0.30400
X3.16300 Y0.30400
X3.16300 Y0.30300
X3.16400 Y0.30300
X3.16400 Y0.30200
X3.16500 Y0.30200
X3.16500 Y0.30100
X3.16600 Y0.30100
X3.16600 Y0.30000
X3.16700 Y0.30000
X3.16700 Y0.29900
X3.16800 Y0.29900
X3.16800 Y0.29800
X3.16900 Y0.29800
X3.16900 Y0.29700
X3.17000 Y0.29700
X3.17000 Y0.29600
X3.17100 Y0.29600
X3.17100 Y0.29500
X3.17200 Y0.29500
X3.17200 Y0.29400
X3.17300 Y0.29400
X3.17300 Y0.29300
X3.17400 Y0.29300
X3.17400 Y0.29200
X3.17500 Y0.29200
X3.17500 Y0.29100
X3.17600 Y0.29100
X3.17600 Y0.29000
X3.17700 Y0.29000
X3.17700 Y0.28900
X3.17800 Y0.28900
X3.17800 Y0.28800
X3.17900 Y0.28800
X3.17900 Y0.28700
X3.18000 Y0.28700
X3.18000 Y0.28600
X3.18100 Y0.28600
X3.18100 Y0.28500
X3.18200 Y0.28500
X3.18200 Y0.28400
X3.18300 Y0.28400
X3.18300 Y0.28300
X3.18400 Y0.28300
X3.18400 Y0.28200
X3.18500 Y0.28200
X3.18500 Y0.28100
X3.18600 Y0.28100
X3.18600 Y0.28000
X3.18700 Y0.28000
X3.18700 Y0.27900
X3.18800 Y0.27900
X3.18800 Y0.27800
X3.18900 Y0.27800
X3.18900 Y0.27700
X3.19000 Y0.27700
X3.19000 Y0.27600
X3.19100 Y0.27600
X3.19100 Y0.27500
X3.19200 Y0.27500
X3.19200 Y0.27400
X3.19300 Y0.27400
X3.19300 Y0.27300
X3.19400 Y0.27300
X3.19400 Y0.27200
X3.19500 Y0.27200
X3.19500 Y0.27100
X3.19600 Y0.27100
X3.19600 Y0.27000
X3.19700 Y0.27000
X3.19700 Y0.26900
X3.19800 Y0.26900
X3.19800 Y0.26800
X3.19900 Y0.26800
X3.19900 Y0.26700
X3.20000 Y0.26700
X3.20000 Y0.26600
X3.20100 Y0.26600
X3.20100 Y0.26500
X3.20200 Y0.26500
X3.20200 Y0.26400
X3.20300 Y0.26400
X3.20300 Y0.26300
X3.20400 Y0.26300
X3.20400 Y0.26200
X3.20500 Y0.26200
X3.20500 Y0.26100
X3.20600 Y0.26100
X3.20600 Y0.26000
X3.20700 Y0.26000
X3.20700 Y0.25900
X3.20800 Y0.25900
X3.20800 Y0.25800
X3.20900 Y0.25800
X3.20900 Y0.25700
X3.21000 Y0.25700
X3.21000 Y0.25600
X3.21100 Y0.25600
X3.21100 Y0.25500
X3.22100 Y0.25500
X3.22100 Y0.25400
X3.22200 Y0.25400
X3.22200 Y0.25300
X3.22300 Y0.25300
X3.22300 Y0.25200
X3.22400 Y0.25200
X3.22400 Y0.25100
X3.25000 Y0.25100
X3.25000 Y0.25000
X3.25100 Y0.25000
X3.25100 Y0.15000
X3.15000 Y0.15000
X3.15000 Y0.17700
X3.14900 Y0.17700
X3.14900 Y0.17800
X3.14800 Y0.17800
X3.14800 Y0.17900
X3.14700 Y0.17900
X3.14700 Y0.18000
X3.14600 Y0.18000
X3.14600 Y0.18800
X3.14500 Y0.18800
X3.14500 Y0.18900
X3.14400 Y0.18900
X3.14400 Y0.19000
X3.14300 Y0.19000
X3.14300 Y0.19100
X3.14200 Y0.19100
X3.14200 Y0.19200
X3.14100 Y0.19200
X3.14100 Y0.19300
X3.14000 Y0.19300
X3.14000 Y0.19400
X3.13900 Y0.19400
X3.13900 Y0.19500
X3.13800 Y0.19500
X3.13800 Y0.19600
X3.13700 Y0.19600
X3.13700 Y0.19700
X3.13600 Y0.19700
X3.13600 Y0.19800
X3.13500 Y0.19800
X3.13500 Y0.19900
X3.13400 Y0.19900
X3.13400 Y0.20000
X3.13300 Y0.20000
X3.13300 Y0.20100
X3.13200 Y0.20100
X3.13200 Y0.20200
X3.13100 Y0.20200
X3.13100 Y0.20300
X3.13000 Y0.20300
X3.13000 Y0.20400
X3.12900 Y0.20400
X3.12900 Y0.20500
X3.12800 Y0.20500
X3.12800 Y0.20600
X3.12700 Y0.20600
X3.12700 Y0.20700
X3.12600 Y0.20700
X3.12600 Y0.20800
X3.12500 Y0.20800
X3.12500 Y0.20900
X3.12400 Y0.20900
X3.12400 Y0.21000
X3.12300 Y0.21000
X3.12300 Y0.21100
X3.12200 Y0.21100
X3.12200 Y0.21200
X3.12100 Y0.21200
X3.12100 Y0.21300
X3.12000 Y0.21300
X3.12000 Y0.21400
X3.11900 Y0.21400
X3.11900 Y0.21500
X3.11800 Y0.21500
X3.11800 Y0.21600
X3.11700 Y0.21600
X3.11700 Y0.21700
X3.11600 Y0.21700
X3.11600 Y0.21800
X3.11500 Y0.21800
X3.11500 Y0.21900
X3.11400 Y0.21900
X3.11400 Y0.22000
X3.11300 Y0.22000
X3.11300 Y0.22100
X3.11200 Y0.22100
X3.11200 Y0.22200
X3.11100 Y0.22200
X3.11100 Y0.22300
X3.11000 Y0.22300
X3.11000 Y0.22400
X3.10900 Y0.22400
X3.10900 Y0.22500
X3.10800 Y0.22500
X3.10800 Y0.22600
X3.10700 Y0.22600
X3.10700 Y0.22700
X3.10600 Y0.22700
X3.10600 Y0.22800
X3.10500 Y0.22800
X3.10500 Y0.22900
X3.10400 Y0.22900
X3.10400 Y0.23000
X3.10300 Y0.23000
X3.10300 Y0.23100
X3.10200 Y0.23100
X3.10200 Y0.23200
X3.10100 Y0.23200
X3.10100 Y0.23300
X3.10000 Y0.23300
X3.10000 Y0.23400
X3.09900 Y0.23400
X3.09900 Y0.23500
X3.09800 Y0.23500
X3.09800 Y0.23600
X3.09700 Y0.23600
X3.09700 Y0.23700
X3.09600 Y0.23700
X3.09600 Y0.23800
X3.09500 Y0.23800
X3.09500 Y0.23900
X3.09400 Y0.23900
X3.09400 Y0.24000
X3.09300 Y0.24000
X3.09300 Y0.24100
X3.09200 Y0.24100
X3.09200 Y0.24200
X3.09100 Y0.24200
X3.09100 Y0.24300
X3.09000 Y0.24300
X3.09000 Y0.24400
X3.08900 Y0.24400
X3.08900 Y0.24500
X3.08800 Y0.24500
X3.08800 Y0.24600
X3.08700 Y0.24600
X3.08700 Y0.24700
X3.08600 Y0.24700
X3.08600 Y0.24800
X3.08500 Y0.24800
X3.08500 Y0.24900
X3.08400 Y0.24900
X3.08400 Y0.25000
X3.08300 Y0.25000
X3.08300 Y0.25100
X3.08200 Y0.25100
X3.08200 Y0.25200
X3.08100 Y0.25200
X3.08100 Y0.25300
X3.08000 Y0.25300
X3.08000 Y0.25400
X3.07900 Y0.25400
X3.07900 Y0.25500
X3.07800 Y0.25500
X3.07800 Y0.25600
X3.07700 Y0.25600
X3.07700 Y0.25700
X3.07600 Y0.25700
X3.07600 Y0.25800
X3.07500 Y0.25800
X3.07500 Y0.25900
X3.07400 Y0.25900
X3.07400 Y0.26000
X3.07300 Y0.26000
X3.07300 Y0.26100
X3.07200 Y0.26100
X3.07200 Y0.26200
X3.07100 Y0.26200
X3.07100 Y0.26300
X3.07000 Y0.26300
X3.07000 Y0.26400
X3.06900 Y0.26400
X3.06900 Y0.26500
X3.06800 Y0.26500
X3.06800 Y0.26600
X3.06700 Y0.26600
X3.06700 Y0.26800
X3.06600 Y0.26800
X3.06600 Y0.26900
X3.06500 Y0.26900
X3.06500 Y0.27000
X3.06400 Y0.27000
X3.06400 Y0.27100
X3.06300 Y0.27100
X3.06300 Y0.27200
X3.06200 Y0.27200
X3.06200 Y0.27400
X3.06100 Y0.27400
X3.06100 Y0.27600
X3.06000 Y0.27600
X3.06000 Y0.27700
X3.05900 Y0.27700
X3.05900 Y0.27800
X3.05800 Y0.27800
X3.05800 Y0.28000
X3.05700 Y0.28000
X3.05700 Y0.28200
X3.05600 Y0.28200
X3.05600 Y0.28500
X3.05500 Y0.28500
X3.05500 Y0.29000
X3.05400 Y0.29000
X3.05400 Y0.29700
X3.05300 Y0.29700
X3.05300 Y0.40400
X3.05400 Y0.40400
X3.05400 Y0.41100
X3.05500 Y0.41100
X3.05500 Y0.41500
X3.05600 Y0.41500
X3.05600 Y0.41800
X3.05700 Y0.41800
X3.05700 Y0.42000
X3.05800 Y0.42000
X3.05800 Y0.42200
X3.05900 Y0.42200
X3.05900 Y0.42400
X3.06000 Y0.42400
X3.06000 Y0.42500
X3.06100 Y0.42500
X3.06100 Y0.42700
X3.06200 Y0.42700
X3.06200 Y0.42800
X3.06300 Y0.42800
X3.06300 Y0.42900
X3.06400 Y0.42900
X3.06400 Y0.43000
X3.06500 Y0.43000
X3.06500 Y0.43100
X3.06600 Y0.43100
X3.06600 Y0.43200
X3.06700 Y0.43200
X3.06700 Y0.43400
X3.06800 Y0.43400
X3.06800 Y0.43500
X3.06900 Y0.43500
X3.06900 Y0.43600
X3.07000 Y0.43600
X3.07000 Y0.43700
X3.07100 Y0.43700
X3.07100 Y0.43800
X3.07200 Y0.43800
X3.07200 Y0.43900
X3.07300 Y0.43900
X3.07300 Y0.44000
X3.07400 Y0.44000
X3.07400 Y0.44100
X3.07500 Y0.44100
X3.07500 Y0.44200
X3.07600 Y0.44200
X3.07600 Y0.44300
X3.07700 Y0.44300
X3.07700 Y0.44400
X3.07800 Y0.44400
X3.07800 Y0.44500
X3.07900 Y0.44500
X3.07900 Y0.44600
X3.08000 Y0.44600
X3.08000 Y0.44700
X3.08100 Y0.44700
X3.08100 Y0.44800
X3.08200 Y0.44800
X3.08200 Y0.44900
X3.08300 Y0.44900
X3.08300 Y0.45000
X3.08400 Y0.45000
X3.08400 Y0.45100
X3.08500 Y0.45100
X3.08500 Y0.45200
X3.08600 Y0.45200
X3.08600 Y0.45300
X3.08700 Y0.45300
X3.08700 Y0.45400
X3.08800 Y0.45400
X3.08800 Y0.45500
X3.08900 Y0.45500
X3.08900 Y0.45600
X3.09000 Y0.45600
X3.09000 Y0.45700
X3.09100 Y0.45700
X3.09100 Y0.45800
X3.09200 Y0.45800
X3.09200 Y0.45900
X3.09300 Y0.45900
X3.09300 Y0.46000
X3.09400 Y0.46000
X3.09400 Y0.46100
X3.09500 Y0.46100
X3.09500 Y0.46200
X3.09600 Y0.46200
X3.09600 Y0.46300
X3.09700 Y0.46300
X3.09700 Y0.46400
X3.09800 Y0.46400
X3.09800 Y0.46500
X3.09900 Y0.46500
X3.09900 Y0.46600
X3.10000 Y0.46600
X3.10000 Y0.46700
X3.10100 Y0.46700
X3.10100 Y0.46800
X3.10200 Y0.46800
X3.10200 Y0.46900
X3.10300 Y0.46900
X3.10300 Y0.47000
X3.10400 Y0.47000
X3.10400 Y0.47100
X3.10500 Y0.47100
X3.10500 Y0.47200
X3.10600 Y0.47200
X3.10600 Y0.47300
X3.10700 Y0.47300
X3.10700 Y0.47400
X3.10800 Y0.47400
X3.10800 Y0.47500
X3.10900 Y0.47500
X3.10900 Y0.47600
X3.11000 Y0.47600
X3.11000 Y0.47700
X3.11100 Y0.47700
X3.11100 Y0.47800
X3.11200 Y0.47800
X3.11200 Y0.47900
X3.11300 Y0.47900
X3.11300 Y0.48000
X3.11400 Y0.48000
X3.11400 Y0.48100
X3.11500 Y0.48100
X3.11500 Y0.48200
X3.11600 Y0.48200
X3.11600 Y0.48300
X3.11700 Y0.48300
X3.11700 Y0.48400
X3.11800 Y0.48400
X3.11800 Y0.48500
X3.11900 Y0.48500
X3.11900 Y0.48600
X3.12000 Y0.48600
X3.12000 Y0.48700
X3.12100 Y0.48700
X3.12100 Y0.48800
X3.12200 Y0.48800
X3.12200 Y0.48900
X3.12300 Y0.48900
X3.12300 Y0.49000
X3.12400 Y0.49000
X3.12400 Y0.49100
X3.12500 Y0.49100
X3.12500 Y0.49200
X3.12600 Y0.49200
X3.12600 Y0.49300
X3.12700 Y0.49300
X3.12700 Y0.49400
X3.12800 Y0.49400
X3.12800 Y0.49500
X3.12900 Y0.49500
X3.12900 Y0.49600
X3.13000 Y0.49600
X3.13000 Y0.49700
X3.13100 Y0.49700
X3.13100 Y0.49800
X3.13200 Y0.49800
X3.13200 Y0.49900
X3.13300 Y0.49900
X3.13300 Y0.50000
X3.13400 Y0.50000
X3.13400 Y0.50100
X3.13500 Y0.50100
X3.13500 Y0.50200
X3.13600 Y0.50200
X3.13600 Y0.50300
X3.13700 Y0.50300
X3.13700 Y0.50400
X3.13800 Y0.50400
X3.13800 Y0.50500
X3.13900 Y0.50500
X3.13900 Y0.50600
X3.14000 Y0.50600
X3.14000 Y0.50700
X3.14100 Y0.50700
X3.14100 Y0.50800
X3.14200 Y0.50800
X3.14200 Y0.50900
X3.14300 Y0.50900
X3.14300 Y0.51000
X3.14400 Y0.51000
X3.14400 Y0.51100
X3.14500 Y0.51100
X3.14500 Y0.51200
X3.14600 Y0.51200
X3.14600 Y0.51300
X3.14700 Y0.51300
X3.14700 Y0.51400
X3.14800 Y0.51400
X3.14800 Y0.51500
X3.14900 Y0.51500
X3.14900 Y0.51600
X3.15000 Y0.51600
X3.15000 Y0.51700
X3.15100 Y0.51700
X3.15100 Y0.51800
X3.15200 Y0.51800
X3.15200 Y0.51900
X3.15300 Y0.51900
X3.15300 Y0.52000
X3.15400 Y0.52000
X3.15400 Y0.52100
X3.15500 Y0.52100
X3.15500 Y0.52200
X3.15600 Y0.52200
X3.15600 Y0.52300
X3.15700 Y0.52300
X3.15700 Y0.52400
X3.15800 Y0.52400
X3.15800 Y0.52500
X3.15900 Y0.52500
X3.15900 Y0.52600
X3.16000 Y0.52600
X3.16000 Y0.52700
X3.16100 Y0.52700
X3.16100 Y0.52800
X3.16200 Y0.52800
X3.16200 Y0.52900
X3.16300 Y0.52900
X3.16300 Y0.53000
X3.16400 Y0.53000
X3.16400 Y0.53100
X3.16500 Y0.53100
X3.16500 Y0.53200
X3.16700 Y0.53200
X3.16700 Y0.53300
X3.16800 Y0.53300
X3.16800 Y0.53400
X3.16900 Y0.53400
X3.16900 Y0.53500
X3.17000 Y0.53500
X3.17000 Y0.53600
X3.17100 Y0.53600
X3.17100 Y0.53700
X3.17200 Y0.53700
X3.17200 Y0.53800
X3.17400 Y0.53800
X3.17400 Y0.53900
X3.17500 Y0.53900
X3.17500 Y0.54000
X3.17700 Y0.54000
X3.17700 Y0.54100
X3.17800 Y0.54100
X3.17800 Y0.54200
X3.18000 Y0.54200
X3.18000 Y0.54300
X3.18300 Y0.54300
X3.18300 Y0.54400
X3.18500 Y0.54400
X3.18500 Y0.54500
X3.18800 Y0.54500
X3.18800 Y0.54600
X3.19100 Y0.54600
X3.19100 Y0.54700
X3.37400 Y0.54700
X3.37400 Y0.54800
X3.37500 Y0.54800
X3.37500 Y0.54900
X3.38100 Y0.54900
X3.38100 Y0.55000
X3.38700 Y0.55000
X3.38700 Y0.55100
X3.41400 Y0.55100
X3.41400 Y0.55000
X3.42000 Y0.55000
X3.42000 Y0.54900
X3.42600 Y0.54900
X3.42600 Y0.54800
X3.42700 Y0.54800
X3.42700 Y0.54700
X3.42800 Y0.54700
X3.42800 Y0.54600
X3.43000 Y0.54600
X3.43000 Y0.54500
X3.43100 Y0.54500
X3.43100 Y0.54400
X3.43300 Y0.54400
X3.43300 Y0.54300
X3.43400 Y0.54300
X3.43400 Y0.54200
X3.43500 Y0.54200
X3.43500 Y0.54100
X3.43700 Y0.54100
X3.43700 Y0.54000
G04 P0 ( dwell for no time -- G64 should not smooth over this point )
G00 Z0.19685 ( retract )

G00 X4.32800 Y0.43700 ( rapid move to begin. )
G01 Z-0.01969 F1.96850 ( plunge. )
G04 P0 ( dwell for no time -- G64 should not smooth over this point )
X4.32800 Y0.43700
X4.32900 Y0.43700
X4.32900 Y0.43600
X4.33000 Y0.43600
X4.33000 Y0.43500
X4.33100 Y0.43500
X4.33100 Y0.43400
X4.33200 Y0.43400
X4.33200 Y0.43300
X4.33400 Y0.43300
X4.33400 Y0.43200
X4.33500 Y0.43200
X4.33500 Y0.43100
X4.33600 Y0.43100
X4.33600 Y0.43000
X4.33700 Y0.43000
X4.33700 Y0.42900
X4.33800 Y0.42900
X4.33800 Y0.42800
X4.33900 Y0.42800
X4.33900 Y0.42700
X4.34000 Y0.42700
X4.34000 Y0.42600
X4.34100 Y0.42600
X4.34100 Y0.42500
X4.34200 Y0.42500
X4.34200 Y0.42400
X4.34300 Y0.42400
X4.34300 Y0.42300
X4.34400 Y0.42300
X4.34400 Y0.42200
X4.34500 Y0.42200
X4.34500 Y0.42100
X4.34600 Y0.42100
X4.34600 Y0.42000
X4.34700 Y0.42000
X4.34700 Y0.41900
X4.34800 Y0.41900
X4.34800 Y0.41800
X4.34900 Y0.41800
X4.34900 Y0.41700
X4.35000 Y0.41700
X4.35000 Y0.41600
X4.35100 Y0.41600
X4.35100 Y0.41500
X4.35200 Y0.41500
X4.35200 Y0.41400
X4.35300 Y0.41400
X4.35300 Y0.41300
X4.35400 Y0.41300
X4.35400 Y0.41200
X4.35500 Y0.41200
X4.35500 Y0.41100
X4.35600 Y0.41100
X4.35600 Y0.41000
X4.35700 Y0.41000
X4.35700 Y0.40900
X4.35800 Y0.40900
X4.35800 Y0.40800
X4.35900 Y0.40800
X4.35900 Y0.40700
X4.36000 Y0.40700
X4.36000 Y0.40600
X4.36100 Y0.40600
X4.36100 Y0.40500
X4.36200 Y0.40500
X4.36200 Y0.40400
X4.36300 Y0.40400
X4.36300 Y0.40300
X4.36400 Y0.40300
X4.36400 Y0.40200
X4.36500 Y0.40200
X4.36500 Y0.40100
X4.36600 Y0.40100
X4.36600 Y0.40000
X4.36700 Y0.40000
X4.36700 Y0.39900
X4.36800 Y0.39900
X4.36800 Y0.39800
X4.36900 Y0.39800
X4.36900 Y0.39700
X4.37000 Y0.39700
X4.37000 Y0.39600
X4.37100 Y0.39600
X4.37100 Y0.39500
X4.37200 Y0.39500
X4.37200 Y0.39400
X4.37300 Y0.39400
X4.37300 Y0.39300
X4.37400 Y0.39300
X4.37400 Y0.39200
X4.37500 Y0.39200
X4.37500 Y0.39100
X4.37600 Y0.39100
X4.37600 Y0.39000
X4.37700 Y0.39000
X4.37700 Y0.38900
X4.37800 Y0.38900
X4.37800 Y0.38800
X4.37900 Y0.38800
X4.37900 Y0.38700
X4.38000 Y0.38700
X4.38000 Y0.38600
X4.38100 Y0.38600
X4.38100 Y0.38500
X4.38200 Y0.38500
X4.38200 Y0.38400
X4.38300 Y0.38400
X4.38300 Y0.38300
X4.38400 Y0.38300
X4.38400 Y0.38200
X4.38500 Y0.38200
X4.38500 Y0.38100
X4.38600 Y0.38100
X4.38600 Y0.38000
X4.38700 Y0.38000
X4.38700 Y0.37900
X4.38800 Y0.37900
X4.38800 Y0.37800
X4.38900 Y0.37800
X4.38900 Y0.37700
X4.39000 Y0.37700
X4.39000 Y0.37600
X4.39100 Y0.37600
X4.39100 Y0.37500
X4.39200 Y0.37500
X4.39200 Y0.37400
X4.39300 Y0.37400
X4.39300 Y0.37300
X4.39400 Y0.37300
X4.39400 Y0.37200
X4.39500 Y0.37200
X4.39500 Y0.37100
X4.39600 Y0.37100
X4.39600 Y0.37000
X4.39700 Y0.37000
X4.39700 Y0.36900
X4.39800 Y0.36900
X4.39800 Y0.36800
X4.39900 Y0.36800
X4.39900 Y0.36700
X4.40000 Y0.36700
X4.40000 Y0.36600
X4.40100 Y0.36600
X4.40100 Y0.36500
X4.40200 Y0.36500
X4.40200 Y0.36400
X4.40300 Y0.36400
X4.40300 Y0.36300
X4.40400 Y0.36300
X4.40400 Y0.36200
X4.40500 Y0.36200
X4.40500 Y0.36100
X4.40600 Y0.36100
X4.40600 Y0.36000
X4.40700 Y0.36000
X4.40700 Y0.35900
X4.40800 Y0.35900
X4.40800 Y0.35800
X4.40900 Y0.35800
X4.40900 Y0.35700
X4.41000 Y0.35700
X4.41000 Y0.35600
X4.41100 Y0.35600
X4.41100 Y0.35500
X4.41200 Y0.35500
X4.41200 Y0.35400
X4.41300 Y0.35400
X4.41300 Y0.35300
X4.41400 Y0.35300
X4.41400 Y0.35200
X4.41500 Y0.35200
X4.41500 Y0.35100
X4.41600 Y0.35100
X4.41600 Y0.35000
X4.41700 Y0.35000
X4.41700 Y0.34900
X4.41800 Y0.34900
X4.41800 Y0.34700
X4.50900 Y0.34700
X4.50900 Y0.34600
X4.51200 Y0.34600
X4.51200 Y0.34500
X4.52700 Y0.34500
X4.52700 Y0.34400
X4.52900 Y0.34400
X4.52900 Y0.34300
X4.53100 Y0.34300
X4.53100 Y0.34200
X4.53200 Y0.34200
X4.53200 Y0.34100
X4.54000 Y0.34100
X4.54000 Y0.34000
X4.54100 Y0.34000
X4.54100 Y0.33300
X4.54200 Y0.33300
X4.54200 Y0.33100
X4.54300 Y0.33100
X4.54300 Y0.33000
X4.54400 Y0.33000
X4.54400 Y0.32800
X4.54500 Y0.32800
X4.54500 Y0.31200
X4.54600 Y0.31200
X4.54600 Y0.30900
X4.54700 Y0.30900
X4.54700 Y0.29100
X4.54600 Y0.29100
X4.54600 Y0.28800
X4.54500 Y0.28800
X4.54500 Y0.27200
X4.54400 Y0.27200
X4.54400 Y0.27000
X4.54300 Y0.27000
X4.54300 Y0.26900
X4.54200 Y0.26900
X4.54200 Y0.26700
X4.54100 Y0.26700
X4.54100 Y0.26000
X4.53400 Y0.26000
X4.53400 Y0.25900
X4.53200 Y0.25900
X4.53200 Y0.25800
X4.53100 Y0.25800
X4.53100 Y0.25700
X4.52900 Y0.25700
X4.52900 Y0.25600
X4.51500 Y0.25600
X4.51500 Y0.25500
X4.51100 Y0.25500
X4.51100 Y0.25400
X4.50400 Y0.25400
X4.50400 Y0.25300
X4.39700 Y0.25300
X4.39700 Y0.25400
X4.39000 Y0.25400
X4.39000 Y0.25500
X4.38500 Y0.25500
X4.38500 Y0.25600
X4.38200 Y0.25600
X4.38200 Y0.25700
X4.38000 Y0.25700
X4.38000 Y0.25800
X4.37800 Y0.25800
X4.37800 Y0.25900
X4.37700 Y0.25900
X4.37700 Y0.26000
X4.37600 Y0.26000
X4.37600 Y0.26100
X4.37400 Y0.26100
X4.37400 Y0.26200
X4.37200 Y0.26200
X4.37200 Y0.26300
X4.37100 Y0.26300
X4.37100 Y0.26400
X4.37000 Y0.26400
X4.37000 Y0.26500
X4.36900 Y0.26500
X4.36900 Y0.26600
X4.36800 Y0.26600
X4.36800 Y0.26700
X4.36600 Y0.26700
X4.36600 Y0.26800
X4.36500 Y0.26800
X4.36500 Y0.26900
X4.36400 Y0.26900
X4.36400 Y0.27000
X4.36300 Y0.27000
X4.36300 Y0.27100
X4.36200 Y0.27100
X4.36200 Y0.27200
X4.36100 Y0.27200
X4.36100 Y0.27300
X4.36000 Y0.27300
X4.36000 Y0.27400
X4.35900 Y0.27400
X4.35900 Y0.27500
X4.35800 Y0.27500
X4.35800 Y0.27600
X4.35700 Y0.27600
X4.35700 Y0.27700
X4.35600 Y0.27700
X4.35600 Y0.27800
X4.35500 Y0.27800
X4.35500 Y0.27900
X4.35400 Y0.27900
X4.35400 Y0.28000
X4.35300 Y0.28000
X4.35300 Y0.28100
X4.35200 Y0.28100
X4.35200 Y0.28200
X4.35100 Y0.28200
X4.35100 Y0.28300
X4.35000 Y0.28300
X4.35000 Y0.28400
X4.34900 Y0.28400
X4.34900 Y0.28500
X4.34800 Y0.28500
X4.34800 Y0.28600
X4.34700 Y0.28600
X4.34700 Y0.28700
X4.34600 Y0.28700
X4.34600 Y0.28800
X4.34500 Y0.28800
X4.34500 Y0.28900
X4.34400 Y0.28900
X4.34400 Y0.29000
X4.34300 Y0.29000
X4.34300 Y0.29100
X4.34200 Y0.29100
X4.34200 Y0.29200
X4.34100 Y0.29200
X4.34100 Y0.29300
X4.34000 Y0.29300
X4.34000 Y0.29400
X4.33900 Y0.29400
X4.33900 Y0.29500
X4.33800 Y0.29500
X4.33800 Y0.29600
X4.33700 Y0.29600
X4.33700 Y0.29700
X4.33600 Y0.29700
X4.33600 Y0.29800
X4.33500 Y0.29800
X4.33500 Y0.29900
X4.33400 Y0.29900
X4.33400 Y0.30000
X4.33300 Y0.30000
X4.33300 Y0.30100
X4.33200 Y0.30100
X4.33200 Y0.30200
X4.33100 Y0.30200
X4.33100 Y0.30300
X4.33000 Y0.30300
X4.33000 Y0.30400
X4.32900 Y0.30400
X4.32900 Y0.30500
X4.32800 Y0.30500
X4.32800 Y0.30600
X4.32700 Y0.30600
X4.32700 Y0.30700
X4.32600 Y0.30700
X4.32600 Y0.30800
X4.32500 Y0.30800
X4.32500 Y0.30900
X4.32400 Y0.30900
X4.32400 Y0.31000
X4.32300 Y0.31000
X4.32300 Y0.31100
X4.32200 Y0.31100
X4.32200 Y0.31200
X4.32100 Y0.31200
X4.32100 Y0.31300
X4.32000 Y0.31300
X4.32000 Y0.31400
X4.31900 Y0.31400
X4.31900 Y0.31500
X4.31800 Y0.31500
X4.31800 Y0.31600
X4.31700 Y0.31600
X4.31700 Y0.31700
X4.31600 Y0.31700
X4.31600 Y0.31800
X4.31500 Y0.31800
X4.31500 Y0.31900
X4.31400 Y0.31900
X4.31400 Y0.32000
X4.31300 Y0.32000
X4.31300 Y0.32100
X4.31200 Y0.32100
X4.31200 Y0.32200
X4.31100 Y0.32200
X4.31100 Y0.32300
X4.31000 Y0.32300
X4.31000 Y0.32400
X4.30900 Y0.32400
X4.30900 Y0.32500
X4.30800 Y0.32500
X4.30800 Y0.32600
X4.30700 Y0.32600
X4.30700 Y0.32700
X4.30600 Y0.32700
X4.30600 Y0.32800
X4.30500 Y0.32800
X4.30500 Y0.32900
X4.30400 Y0.32900
X4.30400 Y0.33000
X4.30300 Y0.33000
X4.30300 Y0.33100
X4.30200 Y0.33100
X4.30200 Y0.33200
X4.30100 Y0.33200
X4.30100 Y0.33300
X4.30000 Y0.33300
X4.30000 Y0.33400
X4.29900 Y0.33400
X4.29900 Y0.33500
X4.29800 Y0.33500
X4.29800 Y0.33600
X4.29700 Y0.33600
X4.29700 Y0.33700
X4.29600 Y0.33700
X4.29600 Y0.33800
X4.29500 Y0.33800
X4.29500 Y0.33900
X4.29400 Y0.33900
X4.29400 Y0.34000
X4.29300 Y0.34000
X4.29300 Y0.34100
X4.29200 Y0.34100
X4.29200 Y0.34200
X4.29100 Y0.34200
X4.29100 Y0.34300
X4.29000 Y0.34300
X4.29000 Y0.34400
X4.28900 Y0.34400
X4.28900 Y0.34500
X4.28800 Y0.34500
X4.28800 Y0.34600
X4.28700 Y0.34600
X4.28700 Y0.34700
X4.28600 Y0.34700
X4.28600 Y0.34800
X4.28500 Y0.34800
X4.28500 Y0.34900
X4.28400 Y0.34900
X4.28400 Y0.35000
X4.28300 Y0.35000
X4.28300 Y0.35100
X4.28200 Y0.35100
X4.28200 Y0.35200
X4.28100 Y0.35200
X4.28100 Y0.35300
X4.11900 Y0.35300
X4.11900 Y0.35200
X4.11800 Y0.35200
X4.11800 Y0.35100
X4.11700 Y0.35100
X4.11700 Y0.35000
X4.11600 Y0.35000
X4.11600 Y0.34900
X4.11500 Y0.34900
X4.11500 Y0.34800
X4.11400 Y0.34800
X4.11400 Y0.34700
X4.11300 Y0.34700
X4.11300 Y0.34600
X4.11200 Y0.34600
X4.11200 Y0.34500
X4.11100 Y0.34500
X4.11100 Y0.34400
X4.11000 Y0.34400
X4.11000 Y0.34300
X4.10900 Y0.34300
X4.10900 Y0.34200
X4.10800 Y0.34200
X4.10800 Y0.34100
X4.10700 Y0.34100
X4.10700 Y0.34000
X4.10600 Y0.34000
X4.10600 Y0.33900
X4.10500 Y0.33900
X4.10500 Y0.33800
X4.10400 Y0.33800
X4.10400 Y0.33700
X4.10300 Y0.33700
X4.10300 Y0.33600
X4.10200 Y0.33600
X4.10200 Y0.33500
X4.10100 Y0.33500
X4.10100 Y0.33400
X4.10000 Y0.33400
X4.10000 Y0.33300
X4.09900 Y0.33300
X4.09900 Y0.33200
X4.09800 Y0.33200
X4.09800 Y0.33100
X4.09700 Y0.33100
X4.09700 Y0.33000
X4.09600 Y0.33000
X4.09600 Y0.32900
X4.09500 Y0.32900
X4.09500 Y0.32800
X4.09400 Y0.32800
X4.09400 Y0.32700
X4.09300 Y0.32700
X4.09300 Y0.32600
X4.09200 Y0.32600
X4.09200 Y0.32500
X4.09100 Y0.32500
X4.09100 Y0.32400
X4.09000 Y0.32400
X4.09000 Y0.32300
X4.08900 Y0.32300
X4.08900 Y0.32200
X4.08800 Y0.32200
X4.08800 Y0.32100
X4.08700 Y0.32100
X4.08700 Y0.32000
X4.08600 Y0.32000
X4.08600 Y0.31900
X4.08500 Y0.31900
X4.08500 Y0.31800
X4.08400 Y0.31800
X4.08400 Y0.31700
X4.08300 Y0.31700
X4.08300 Y0.31600
X4.08200 Y0.31600
X4.08200 Y0.31500
X4.08100 Y0.31500
X4.08100 Y0.31400
X4.08000 Y0.31400
X4.08000 Y0.31300
X4.07900 Y0.31300
X4.07900 Y0.31200
X4.07800 Y0.31200
X4.07800 Y0.31100
X4.07700 Y0.31100
X4.07700 Y0.31000
X4.07600 Y0.31000
X4.07600 Y0.30900
X4.07500 Y0.30900
X4.07500 Y0.30800
X4.07400 Y0.30800
X4.07400 Y0.30700
X4.07300 Y0.30700
X4.07300 Y0.30600
X4.07200 Y0.30600
X4.07200 Y0.30500
X4.07100 Y0.30500
X4.07100 Y0.30400
X4.07000 Y0.30400
X4.07000 Y0.30300
X4.06900 Y0.30300
X4.06900 Y0.30200
X4.06800 Y0.30200
X4.06800 Y0.30100
X4.06700 Y0.30100
X4.06700 Y0.30000
X4.06600 Y0.30000
X4.06600 Y0.29900
X4.06500 Y0.29900
X4.06500 Y0.29800
X4.06400 Y0.29800
X4.06400 Y0.29700
X4.06300 Y0.29700
X4.06300 Y0.29600
X4.06200 Y0.29600
X4.06200 Y0.29500
X4.06100 Y0.29500
X4.06100 Y0.29400
X4.06000 Y0.29400
X4.06000 Y0.29300
X4.05900 Y0.29300
X4.05900 Y0.29200
X4.05800 Y0.29200
X4.05800 Y0.29100
X4.05700 Y0.29100
X4.05700 Y0.29000
X4.05600 Y0.29000
X4.05600 Y0.28900
X4.05500 Y0.28900
X4.05500 Y0.28800
X4.05400 Y0.28800
X4.05400 Y0.28700
X4.05300 Y0.28700
X4.05300 Y0.28600
X4.05200 Y0.28600
X4.05200 Y0.28500
X4.05100 Y0.28500
X4.05100 Y0.28400
X4.05000 Y0.28400
X4.05000 Y0.28300
X4.04900 Y0.28300
X4.04900 Y0.28200
X4.04800 Y0.28200
X4.04800 Y0.28100
X4.04700 Y0.28100
X4.04700 Y0.22600
X4.04800 Y0.22600
X4.04800 Y0.22500
X4.04900 Y0.22500
X4.04900 Y0.22200
X4.05000 Y0.22200
X4.05000 Y0.21600
X4.05100 Y0.21600
X4.05100 Y0.18500
X4.05000 Y0.18500
X4.05000 Y0.17900
X4.04900 Y0.17900
X4.04900 Y0.17600
X4.04800 Y0.17600
X4.04800 Y0.17400
X4.04700 Y0.17400
X4.04700 Y0.17200
X4.04600 Y0.17200
X4.04600 Y0.17000
X4.04500 Y0.17000
X4.04500 Y0.16900
X4.04400 Y0.16900
X4.04400 Y0.16700
X4.04300 Y0.16700
X4.04300 Y0.16600
X4.04200 Y0.16600
X4.04200 Y0.16500
X4.04100 Y0.16500
X4.04100 Y0.16400
X4.04000 Y0.16400
X4.04000 Y0.16300
X4.03900 Y0.16300
X4.03900 Y0.16200
X4.03800 Y0.16200
X4.03800 Y0.16100
X4.03700 Y0.16100
X4.03700 Y0.16000
X4.03600 Y0.16000
X4.03600 Y0.15900
